;TIME:2307.05
;Filament used:4.17027m
;Layer height:0.200
; HEADER_BLOCK_START
; generated by Creality_Print V6.0.5.1840 on 2025-07-04 at 19:17:35
; total layer number: 10
; filament_density: 1.24
; filament_diameter: 1.75
; max_z_height: 2.00
; HEADER_BLOCK_END

; MINX = 70.20
; MINY = 65.20
; MINZ = 0.00
; MAXX = 149.80
; MAXY = 154.80
; MAXZ = 2.00

; THUMBNAIL_BLOCK_START

;
; THUMBNAIL_BLOCK_END

; THUMBNAIL_BLOCK_START

;
; THUMBNAIL_BLOCK_END

; external perimeters extrusion width = 0.42mm
; perimeters extrusion width = 0.45mm
; infill extrusion width = 0.45mm
; solid infill extrusion width = 0.42mm
; top infill extrusion width = 0.42mm
; support material extrusion width = 0.40mm
; first layer extrusion width = 0.60mm

; EXECUTABLE_BLOCK_START
M73 P0 R38
M201 X5000 Y5000 Z500 E5000
M203 X500 Y500 Z30 E100
M204 P5000 R2500 T5000 ; sets acceleration (P, T) and retract acceleration (R), mm/sec^2
M205 X10.00 Y10.00 Z0.40 E5.00 ; sets the jerk limits, mm/sec
;TYPE:Custom
M220 S100 ;Reset Feedrate 
M221 S100 ;Reset Flowrate 
 
M140 S75 ;Set final bed temp 
G28 ;Home 
 
G92 E0 ;Reset Extruder 
G1 Z2.0 F3000 ;Move Z Axis up 
M104 S200 ;Set final nozzle temp 
G1 X-2.1 Y20 Z0.28 F5000.0 ;Move to start position 
M190 S75 ;Wait for bed temp to stabilize 
M109 S200 ;Wait for nozzle temp to stabilize 
G1 X-2.1 Y145.0 Z0.28 F1500.0 E15 ;Draw the first line 
G1 X-2.4 Y145.0 Z0.28 F5000.0 ;Move to side a little 
G1 X-2.4 Y20 Z0.28 F1500.0 E30 ;Draw the second line 
G92 E0  ;Reset Extruder 
G1 E-1.0000 F1800 ;Retract a bit 
G1 Z2.0 F3000 ;Move Z Axis up 
G1 E0.0000 F1800
G90
G21
M83 ; use relative distances for extrusion
" "
G1 E-1.6 F2400
M106 S0
;LAYER_CHANGE
;Z:0.2
;HEIGHT:0.2
;BEFORE_LAYER_CHANGE
;0.2
G92 E0

;_SET_FAN_SPEED_CHANGING_LAYER
M204 P125
M205 X10 Y10
; printing object Bottom Cassa Armonica id:13830554455654793216 copy 0
M204 T125
G1 Z.4 F9000
G1 X142.216 Y71.518
G1 Z.2
G1 E1.6 F1800
;TYPE:Inner wall
;WIDTH:0.485243
G1 F600
G1 X142.171 Y71.5 E.00168
G1 X143.493 Y71.508 E.04618
G2 X143.5 Y72.829 I107.173 J.11 E.04614
G1 X143.116 Y71.884 E.03562
G1 X142.253 Y71.533 E.03254
G1 E-1.6 F2400
;WIPE_START
G1 F9000
G1 X142.171 Y71.5
G1 X143.493 Y71.508
G1 X143.496 Y72.098
;WIPE_END
G1 X136.397 Y74.902 Z.6
G1 X81.564 Y96.557 Z.6
G1 Z.2
G1 E1.6 F1800
;WIDTH:0.599999
G1 F600
G1 X81.564 Y87.723 E.38877
G1 X81.536 Y87.444 E.01233
G1 X81.388 Y87.045 E.01872
G1 X81.123 Y86.705 E.01896
G1 X80.767 Y86.464 E.01894
G1 X80.359 Y86.343 E.01873
G1 X79.855 Y86.366 E.02218
G1 X79.549 Y86.477 E.01434
G1 X76.564 Y87.969 E.14683
G1 X76.564 Y77.107 E.47798
G1 X76.546 Y76.889 E.00963
;WIDTH:0.563938
G1 X76.528 Y76.671 E.00901
;WIDTH:0.527877
G1 X76.51 Y76.453 E.00838
G1 X76.578 Y76.654 E.00815
;WIDTH:0.563938
G1 X76.646 Y76.856 E.00875
;WIDTH:0.599999
G1 X76.714 Y77.057 E.00936
G1 X77.293 Y77.507 E.03225
G1 X77.829 Y77.614 E.02404
G1 X81.359 Y77.614 E.15537
G1 X81.732 Y77.517 E.01693
G1 X82.064 Y77.33 E.01679
G1 X82.331 Y77.064 E.01659
G1 X82.539 Y76.673 E.01945
G1 X82.614 Y76.221 E.02017
G1 X82.614 Y72.829 E.14931
G1 X82.507 Y72.293 E.02404
G1 X82.057 Y71.714 E.03225
G1 X81.779 Y71.643 E.01265
;WIDTH:0.557228
G1 X81.5 Y71.571 E.01168
;WIDTH:0.514456
G1 X81.221 Y71.5 E.01071
G1 X81.517 Y71.521 E.01103
;WIDTH:0.557228
G1 X81.812 Y71.543 E.01203
;WIDTH:0.599999
G1 X82.107 Y71.564 E.01303
G1 X90.501 Y71.564 E.36937
G1 X90.895 Y71.507 E.01753
G1 X91.294 Y71.316 E.01945
G1 X91.66 Y70.944 E.02298
G1 X91.843 Y70.544 E.01935
G1 X91.888 Y70.05 E.02183
G1 X91.747 Y69.549 E.02293
G1 X90.354 Y66.764 E.13699
G1 X94.646 Y66.764 E.18883
G1 X93.253 Y69.549 E.13699
G1 X93.112 Y70.05 E.02293
G1 X93.157 Y70.544 E.02183
G1 X93.34 Y70.944 E.01935
G1 X93.706 Y71.316 E.02298
G1 X94.059 Y71.493 E.01734
G1 X94.499 Y71.564 E.01964
G1 X122.469 Y71.564 E1.23083
G1 X120.977 Y74.549 E.14683
M73 P1 R38
M73 P1 R38
G1 X120.871 Y74.834 E.01339
G1 X120.837 Y75.313 E.02111
G2 X121.401 Y76.296 I1.516 J-.216 E.05109
G1 X121.787 Y76.494 E.01911
G1 X122.223 Y76.564 E.01941
G1 X132.843 Y76.564 E.46734
G1 X133.235 Y76.487 E.01761
G1 X133.586 Y76.305 E.01739
G1 X133.933 Y75.949 E.0219
G2 X134.149 Y75.412 I-1.156 J-.777 E.02564
G1 X134.149 Y74.931 E.02118
G1 X134.023 Y74.549 E.01771
G1 X132.531 Y71.564 E.14683
G1 X137.893 Y71.564 E.23596
G1 X138.111 Y71.546 E.00963
M73 P1 R37
;WIDTH:0.563938
M73 P1 R37
G1 X138.329 Y71.528 E.00901
;WIDTH:0.527877
G1 X138.547 Y71.51 E.00838
G1 X138.346 Y71.578 E.00815
;WIDTH:0.563938
G1 X138.144 Y71.646 E.00875
;WIDTH:0.599999
G1 X137.943 Y71.714 E.00936
G1 X137.493 Y72.293 E.03225
G1 X137.386 Y72.829 E.02404
G1 X137.386 Y76.221 E.14931
G2 X137.736 Y77.145 I1.504 J-.042 E.04429
G1 X137.965 Y77.352 E.01356
G1 X138.359 Y77.549 E.01941
G1 X138.779 Y77.614 E.01868
G1 X142.171 Y77.614 E.14931
G1 X142.707 Y77.507 E.02404
G1 X143.286 Y77.057 E.03225
G1 X143.354 Y76.856 E.00936
;WIDTH:0.563938
G1 X143.422 Y76.654 E.00875
;WIDTH:0.527876
G1 X143.49 Y76.453 E.00815
G1 X143.472 Y76.671 E.00838
;WIDTH:0.563938
G1 X143.454 Y76.889 E.00901
;WIDTH:0.599999
G1 X143.436 Y77.107 E.00963
G1 X143.436 Y91.001 E.6114
G1 X143.497 Y91.408 E.01809
G1 X143.699 Y91.815 E.02002
G1 X144.084 Y92.178 E.02329
G1 X144.484 Y92.35 E.01918
G1 X144.95 Y92.388 E.02056
G1 X145.451 Y92.247 E.02293
G1 X148.236 Y90.854 E.13699
G1 X148.236 Y95.146 E.18883
G1 X145.451 Y93.753 E.13699
G1 X144.95 Y93.612 E.02293
G1 X144.484 Y93.65 E.02056
G1 X144.084 Y93.822 E.01918
G1 X143.699 Y94.185 E.02329
G1 X143.512 Y94.545 E.01784
G1 X143.436 Y94.999 E.02027
G1 X143.436 Y98.943 E.17355
G1 X143.457 Y99.238 E.01303
;WIDTH:0.557227
G1 X143.479 Y99.533 E.01203
;WIDTH:0.514455
G1 X143.5 Y99.829 E.01103
G1 X143.429 Y99.55 E.01071
;WIDTH:0.557227
G1 X143.357 Y99.271 E.01168
;WIDTH:0.599999
G1 X143.286 Y98.993 E.01265
G1 X142.707 Y98.543 E.03225
G1 X142.171 Y98.436 E.02404
G1 X138.779 Y98.436 E.14931
G1 X138.351 Y98.503 E.01904
G1 X137.943 Y98.714 E.02022
G1 X137.661 Y98.997 E.01757
G1 X137.457 Y99.389 E.01945
G1 X137.386 Y99.829 E.01959
G1 X137.386 Y103.221 E.14931
G1 X137.438 Y103.6 E.01681
G1 X137.641 Y104.025 E.0207
G1 X137.966 Y104.35 E.02023
G1 X137.641 Y104.675 E.02023
G1 X137.438 Y105.1 E.0207
G1 X137.386 Y105.479 E.01681
G1 X137.386 Y108.871 E.14931
G1 X137.438 Y109.25 E.01681
G1 X137.641 Y109.675 E.0207
G1 X137.966 Y110 E.02023
G1 X137.641 Y110.325 E.02023
G1 X137.438 Y110.75 E.0207
G1 X137.386 Y111.129 E.01681
G1 X137.386 Y114.521 E.14931
G1 X137.438 Y114.9 E.01681
G1 X137.641 Y115.325 E.0207
G1 X137.966 Y115.65 E.02023
G1 X137.641 Y115.975 E.02023
G1 X137.438 Y116.4 E.0207
G1 X137.386 Y116.779 E.01681
G1 X137.386 Y119.473 E.11857
G1 X137.415 Y120.455 E.04325
G1 X137.582 Y120.884 E.02022
G1 X137.864 Y121.222 E.01938
G1 X138.261 Y121.464 E.02049
G1 X138.451 Y121.524 E.00876
G1 X138.436 Y121.723 E.00876
G1 X138.436 Y132.277 E.46447
G1 X138.464 Y132.556 E.01233
G1 X138.612 Y132.955 E.01872
G1 X138.877 Y133.295 E.01896
G1 X139.233 Y133.536 E.01894
G1 X139.641 Y133.657 E.01873
G1 X140.145 Y133.634 E.02218
G1 X140.451 Y133.523 E.01434
G1 X143.436 Y132.031 E.14683
G1 X143.436 Y142.893 E.47798
G1 X143.457 Y143.188 E.01303
;WIDTH:0.557227
G1 X143.479 Y143.483 E.01203
;WIDTH:0.514455
G1 X143.5 Y143.779 E.01103
G1 X143.429 Y143.5 E.01071
;WIDTH:0.557227
G1 X143.357 Y143.221 E.01168
;WIDTH:0.599999
G1 X143.286 Y142.943 E.01265
G1 X142.707 Y142.493 E.03225
G1 X142.171 Y142.386 E.02404
G1 X138.641 Y142.386 E.15537
G1 X138.268 Y142.483 E.01693
G1 X137.936 Y142.67 E.01679
G1 X137.669 Y142.936 E.01659
G1 X137.461 Y143.327 E.01945
G1 X137.386 Y143.779 E.02017
G1 X137.386 Y147.171 E.14931
G1 X137.493 Y147.707 E.02404
G1 X137.943 Y148.286 E.03225
G1 X138.221 Y148.357 E.01265
;WIDTH:0.557228
G1 X138.5 Y148.429 E.01168
;WIDTH:0.514456
G1 X138.779 Y148.5 E.01071
G1 X138.483 Y148.479 E.01103
;WIDTH:0.557228
G1 X138.188 Y148.457 E.01203
;WIDTH:0.599999
G1 X137.893 Y148.436 E.01303
G1 X129.499 Y148.436 E.36937
G1 X129.105 Y148.493 E.01753
G1 X128.706 Y148.684 E.01945
G1 X128.34 Y149.056 E.02298
G1 X128.157 Y149.456 E.01935
G1 X128.112 Y149.95 E.02183
G1 X128.253 Y150.451 E.02293
G1 X129.646 Y153.236 E.13699
G1 X125.354 Y153.236 E.18883
G1 X126.747 Y150.451 E.13699
G1 X126.888 Y149.95 E.02293
G1 X126.843 Y149.456 E.02183
G1 X126.66 Y149.056 E.01935
G1 X126.294 Y148.684 E.02298
G1 X125.941 Y148.507 E.01734
G1 X125.501 Y148.436 E.01964
G1 X97.531 Y148.436 E1.23083
G1 X99.023 Y145.451 E.14683
G1 X99.129 Y145.166 E.01339
G1 X99.163 Y144.687 E.02111
G2 X98.599 Y143.704 I-1.516 J.216 E.05109
G1 X98.213 Y143.506 E.01911
G1 X97.777 Y143.436 E.01941
G1 X87.157 Y143.436 E.46734
G1 X86.765 Y143.513 E.01761
M73 P2 R37
M73 P2 R37
G1 X86.414 Y143.695 E.01739
G1 X86.067 Y144.051 E.0219
G2 X85.851 Y144.588 I1.156 J.777 E.02564
G1 X85.851 Y145.069 E.02118
G1 X85.977 Y145.451 E.01771
G1 X87.469 Y148.436 E.14683
G1 X82.107 Y148.436 E.23596
G1 X81.889 Y148.454 E.00963
;WIDTH:0.563938
G1 X81.671 Y148.472 E.00901
;WIDTH:0.527877
G1 X81.453 Y148.49 E.00838
G1 X81.654 Y148.422 E.00815
;WIDTH:0.563938
G1 X81.856 Y148.354 E.00875
;WIDTH:0.599999
G1 X82.057 Y148.286 E.00936
G1 X82.507 Y147.707 E.03225
G1 X82.614 Y147.171 E.02404
G1 X82.614 Y143.779 E.14931
G2 X82.264 Y142.855 I-1.504 J.042 E.04429
G1 X82.035 Y142.648 E.01356
G1 X81.641 Y142.451 E.01941
G1 X81.221 Y142.386 E.01868
G1 X77.829 Y142.386 E.14931
G1 X77.293 Y142.493 E.02404
G1 X76.714 Y142.943 E.03225
G1 X76.643 Y143.221 E.01265
;WIDTH:0.557228
G1 X76.571 Y143.5 E.01168
;WIDTH:0.514456
G1 X76.5 Y143.779 E.01071
G1 X76.521 Y143.483 E.01103
;WIDTH:0.557228
G1 X76.543 Y143.188 E.01203
;WIDTH:0.599999
G1 X76.564 Y142.893 E.01303
G1 X76.564 Y128.999 E.6114
G1 X76.503 Y128.592 E.01809
G1 X76.301 Y128.185 E.02002
G1 X75.916 Y127.822 E.02329
G1 X75.516 Y127.65 E.01918
G1 X75.05 Y127.612 E.02056
G1 X74.549 Y127.753 E.02293
G1 X71.764 Y129.146 E.13699
G1 X71.764 Y124.854 E.18883
G1 X74.549 Y126.247 E.13699
G1 X75.05 Y126.388 E.02293
G1 X75.516 Y126.35 E.02056
G1 X75.916 Y126.178 E.01918
G1 X76.301 Y125.815 E.02329
G1 X76.488 Y125.455 E.01784
G1 X76.564 Y125.001 E.02027
G1 X76.564 Y121.057 E.17355
G1 X76.546 Y120.839 E.00963
;WIDTH:0.563938
G1 X76.528 Y120.621 E.00901
;WIDTH:0.527877
G1 X76.51 Y120.403 E.00838
G1 X76.578 Y120.604 E.00815
;WIDTH:0.563938
G1 X76.646 Y120.806 E.00875
;WIDTH:0.599999
G1 X76.714 Y121.007 E.00936
G1 X77.293 Y121.457 E.03225
G1 X77.829 Y121.564 E.02404
G1 X81.221 Y121.564 E.14931
G1 X81.649 Y121.497 E.01904
G1 X82.057 Y121.286 E.02022
G1 X82.339 Y121.003 E.01757
G1 X82.543 Y120.611 E.01945
G1 X82.614 Y120.171 E.01959
G1 X82.614 Y116.779 E.14931
G1 X82.562 Y116.4 E.01681
G1 X82.359 Y115.975 E.0207
G1 X82.034 Y115.65 E.02023
G1 X82.359 Y115.325 E.02023
G1 X82.562 Y114.9 E.0207
G1 X82.614 Y114.521 E.01681
G1 X82.614 Y111.129 E.14931
G1 X82.562 Y110.75 E.01681
G1 X82.359 Y110.325 E.0207
G1 X82.034 Y110 E.02023
G1 X82.359 Y109.675 E.02023
G1 X82.562 Y109.25 E.0207
G1 X82.614 Y108.871 E.01681
G1 X82.614 Y105.479 E.14931
G1 X82.562 Y105.1 E.01681
G1 X82.359 Y104.675 E.0207
G1 X82.034 Y104.35 E.02023
G1 X82.359 Y104.025 E.02023
G1 X82.562 Y103.6 E.0207
G1 X82.614 Y103.221 E.01681
G1 X82.614 Y100.527 E.11857
G1 X82.585 Y99.545 E.04325
G1 X82.418 Y99.116 E.02022
G1 X82.136 Y98.778 E.01938
G1 X81.739 Y98.536 E.02049
G1 X81.549 Y98.476 E.00876
G1 X81.564 Y98.277 E.00876
G1 X81.564 Y96.597 E.07394
G1 E-1.6 F2400
;WIPE_START
G1 F9000
G1 X81.564 Y94.597
;WIPE_END
G1 X89.119 Y95.686 Z.6
G1 X143.49 Y103.522 Z.6
G1 Z.2
G1 E1.6 F1800
;WIDTH:0.496963
G1 F600
G1 X143.5 Y105.479 E.07017
G1 X143.103 Y104.513 E.03743
G1 X142.868 Y104.35 E.01025
G1 X143.103 Y104.187 E.01025
G1 X143.49 Y103.453 E.02976
G1 X143.49 Y103.482 E.00106
G1 E-1.6 F2400
;WIPE_START
G1 F9000
G1 X143.5 Y105.479
G1 X143.499 Y105.475
;WIPE_END
G1 X143.49 Y109.172 Z.6
G1 Z.2
G1 E1.6 F1800
G1 F600
G1 X143.5 Y111.129 E.07017
G1 X143.103 Y110.163 E.03743
G1 X142.868 Y110 E.01025
G1 X143.103 Y109.837 E.01025
G1 X143.49 Y109.103 E.02976
G1 X143.49 Y109.132 E.00106
G1 E-1.6 F2400
;WIPE_START
G1 F9000
G1 X143.5 Y111.129
G1 X143.499 Y111.125
;WIPE_END
G1 X143.498 Y116.337 Z.6
G1 Z.2
G1 E1.6 F1800
G1 F600
G1 X143.5 Y116.779 E.01585
G1 X143.103 Y115.813 E.03743
G1 X142.868 Y115.65 E.01025
G1 X143.103 Y115.487 E.01025
G1 X143.49 Y114.753 E.02976
G1 X143.498 Y116.297 E.05537
G1 E-1.6 F2400
;WIPE_START
G1 F9000
G1 X143.5 Y116.779
G1 X143.103 Y115.813
G1 X142.868 Y115.65
G1 X143.023 Y115.542
;WIPE_END
G1 X143.408 Y120.777 Z.6
G1 Z.2
G1 E1.6 F1800
;WIDTH:0.5993
G1 F600
G1 X143.427 Y120.691 E.00385
;WIDTH:0.563472
G1 X143.458 Y120.547 E.00607
;WIDTH:0.527643
G1 X143.49 Y120.403 E.00565
G1 X143.472 Y120.55 E.00569
;WIDTH:0.563472
G1 X143.454 Y120.698 E.00611
;WIDTH:0.5993
G1 X143.436 Y120.846 E.00653
G1 X143.436 Y121.97 E.04941
G1 X142.445 Y121.474 E.04869
G1 X142.994 Y121.295 E.02535
G1 X143.395 Y120.835 E.02684
G1 X143.4 Y120.816 E.00088
G1 E-1.6 F2400
;WIPE_START
G1 F9000
G1 X143.427 Y120.691
G1 X143.458 Y120.547
G1 X143.49 Y120.403
G1 X143.472 Y120.55
G1 X143.454 Y120.698
G1 X143.436 Y120.846
G1 X143.436 Y121.97
G1 X143.43 Y121.967
;WIPE_END
G1 X141.665 Y115.364 Z.6
G1 Z.2
G1 E1.6 F1800
;WIDTH:0.61438
G1 F600
G1 X138.779 Y115.364 E.1303
G1 X138.296 Y115.203 E.02298
;WIDTH:0.599999
G1 X138.022 Y114.877 E.01872
G1 X137.943 Y114.537 E.01537
G1 X137.943 Y111.129 E.15
G3 X138.296 Y110.447 I.904 J.035 E.03489
;WIDTH:0.61438
G1 X138.779 Y110.286 E.02298
G1 X142.171 Y110.286 E.15316
G1 X142.535 Y110.376 E.01689
;WIDTH:0.599999
G1 X142.752 Y110.527 E.01164
G1 X143.007 Y111.129 E.02875
G1 X143.007 Y114.521 E.14931
G1 X142.995 Y114.666 E.00638
G1 X142.752 Y115.123 E.02277
G1 X142.535 Y115.274 E.01164
;WIDTH:0.61438
G1 X142.171 Y115.364 E.01689
G1 X141.705 Y115.364 E.02106
G1 X142.123 Y114.8 F9000
;TYPE:Outer wall
;WIDTH:0.599999
G1 F600
G1 X138.779 Y114.8 E.14719
G1 X138.618 Y114.749 E.00744
G1 X138.5 Y114.568 E.00949
G1 X138.5 Y111.129 E.15136
G1 X138.551 Y110.968 E.00742
G1 X138.756 Y110.85 E.01041
G1 X142.171 Y110.85 E.15029
G1 X142.365 Y110.928 E.00918
G1 X142.45 Y111.129 E.00958
G1 X142.45 Y114.521 E.14931
G1 X142.365 Y114.722 E.00958
G1 X142.171 Y114.8 E.00918
G1 X142.163 Y114.8 E.00036
G1 E-1.6 F2400
;WIPE_START
G1 F9000
G1 X140.163 Y114.8
;WIPE_END
G1 X143.5 Y111.129 Z.6
G1 Z.2
G1 E1.6 F1800
;TYPE:Inner wall
;WIDTH:0.471682
G1 F600
G1 X143.5 Y114.521 E.11492
;WIDTH:0.491814
G1 X143.49 Y114.753 E.00821
G1 E-1.6 F2400
;WIPE_START
G1 F9000
G1 X143.5 Y114.521
G1 X143.5 Y112.753
;WIPE_END
G1 X141.665 Y109.714 Z.6
G1 Z.2
G1 E1.6 F1800
;WIDTH:0.61438
G1 F600
G1 X138.779 Y109.714 E.1303
G1 X138.296 Y109.553 E.02298
;WIDTH:0.599999
G1 X138.022 Y109.227 E.01872
G1 X137.943 Y108.887 E.01537
G1 X137.943 Y105.479 E.15
G1 X138.022 Y105.123 E.01604
G1 X138.296 Y104.797 E.01872
;WIDTH:0.614381
G1 X138.779 Y104.636 E.02298
G1 X142.171 Y104.636 E.15316
G1 X142.535 Y104.726 E.01689
M73 P3 R37
;WIDTH:0.599999
M73 P3 R37
G1 X142.752 Y104.877 E.01164
G1 X143.007 Y105.479 E.02875
G1 X143.007 Y108.871 E.14931
G1 X142.995 Y109.016 E.00638
G1 X142.752 Y109.473 E.02277
G1 X142.535 Y109.624 E.01164
;WIDTH:0.61438
G1 X142.171 Y109.714 E.01689
G1 X141.705 Y109.714 E.02106
G1 X142.123 Y109.15 F9000
;TYPE:Outer wall
;WIDTH:0.599999
G1 F600
G1 X138.779 Y109.15 E.14719
G1 X138.618 Y109.099 E.00744
G1 X138.5 Y108.918 E.00949
G1 X138.5 Y105.479 E.15136
G1 X138.551 Y105.318 E.00742
G1 X138.756 Y105.2 E.01041
G1 X142.171 Y105.2 E.15029
G1 X142.365 Y105.278 E.00918
G1 X142.45 Y105.479 E.00958
G1 X142.45 Y108.871 E.14931
G1 X142.365 Y109.072 E.00958
G1 X142.171 Y109.15 E.00918
G1 X142.163 Y109.15 E.00036
G1 E-1.6 F2400
;WIPE_START
G1 F9000
G1 X140.163 Y109.15
;WIPE_END
G1 X141.665 Y104.064 Z.6
G1 Z.2
G1 E1.6 F1800
;TYPE:Inner wall
;WIDTH:0.614381
G1 F600
G1 X138.779 Y104.064 E.1303
G1 X138.296 Y103.903 E.02298
;WIDTH:0.599999
G1 X138.022 Y103.577 E.01872
G1 X137.943 Y103.242 E.01515
G1 X137.943 Y99.829 E.15022
G1 X138.005 Y99.512 E.01418
G1 X138.201 Y99.224 E.01533
G1 X138.477 Y99.049 E.01438
G1 X138.779 Y98.993 E.0135
G1 X142.171 Y98.993 E.14931
G1 X142.493 Y99.057 E.01442
G1 X142.84 Y99.327 E.01935
G1 X143.007 Y99.829 E.02326
G1 X143.007 Y103.221 E.14931
