;TIME:1710.86
;Filament used:1.88612m
;Layer height:0.200
; HEADER_BLOCK_START
; generated by Creality_Print V6.0.5.1840 on 2025-07-05 at 12:28:25
; total layer number: 106
; filament_density: 1.24
; filament_diameter: 1.75
; max_z_height: 15.00
; HEADER_BLOCK_END

; MINX = 97.11
; MINY = 90.28
; MINZ = 0.00
; MAXX = 163.90
; MAXY = 123.52
; MAXZ = 15.00

; THUMBNAIL_BLOCK_START

;
; THUMBNAIL_BLOCK_END

; THUMBNAIL_BLOCK_START

;
; THUMBNAIL_BLOCK_END

; external perimeters extrusion width = 0.42mm
; perimeters extrusion width = 0.45mm
; infill extrusion width = 0.45mm
; solid infill extrusion width = 0.42mm
; top infill extrusion width = 0.42mm
; support material extrusion width = 0.40mm
; first layer extrusion width = 0.60mm

; external perimeters extrusion width = 0.42mm
; perimeters extrusion width = 0.45mm
; infill extrusion width = 0.45mm
; solid infill extrusion width = 0.42mm
; top infill extrusion width = 0.42mm
; support material extrusion width = 0.40mm
; first layer extrusion width = 0.60mm

; external perimeters extrusion width = 0.42mm
; perimeters extrusion width = 0.45mm
; infill extrusion width = 0.45mm
; solid infill extrusion width = 0.42mm
; top infill extrusion width = 0.42mm
; support material extrusion width = 0.40mm
; first layer extrusion width = 0.60mm

; EXECUTABLE_BLOCK_START
M73 P0 R28
M201 X5000 Y5000 Z500 E5000
M203 X500 Y500 Z30 E100
M204 P5000 R2500 T5000 ; sets acceleration (P, T) and retract acceleration (R), mm/sec^2
M205 X10.00 Y10.00 Z0.40 E5.00 ; sets the jerk limits, mm/sec
;TYPE:Custom
M220 S100 ;Reset Feedrate 
M221 S100 ;Reset Flowrate 
 
M140 S75 ;Set final bed temp 
G28 ;Home 
 
G92 E0 ;Reset Extruder 
G1 Z2.0 F3000 ;Move Z Axis up 
M104 S200 ;Set final nozzle temp 
G1 X-2.1 Y20 Z0.28 F5000.0 ;Move to start position 
M190 S75 ;Wait for bed temp to stabilize 
M109 S200 ;Wait for nozzle temp to stabilize 
G1 X-2.1 Y145.0 Z0.28 F1500.0 E15 ;Draw the first line 
G1 X-2.4 Y145.0 Z0.28 F5000.0 ;Move to side a little 
G1 X-2.4 Y20 Z0.28 F1500.0 E30 ;Draw the second line 
G92 E0  ;Reset Extruder 
G1 E-1.0000 F1800 ;Retract a bit 
G1 Z2.0 F3000 ;Move Z Axis up 
G1 E0.0000 F1800
G90
G21
M83 ; use relative distances for extrusion
" "
G1 E-1.6 F2400
M106 S0
;LAYER_CHANGE
;Z:0.2
;HEIGHT:0.2
;BEFORE_LAYER_CHANGE
;0.2
G92 E0

;_SET_FAN_SPEED_CHANGING_LAYER
M204 P125
M205 X10 Y10
; printing object Cilindro Porta Martello id:6422192683702169907 copy 0
M204 T125
G1 Z.4 F9000
G1 X111.147 Y101.802
G1 Z.2
G1 E1.6 F1800
;TYPE:Inner wall
;WIDTH:0.599999
G1 F600
G1 X111.111 Y101.838 E.00228
G1 X110.686 Y102.1 E.02196
G1 X110.222 Y102.254 E.02152
G1 X109.73 Y102.297 E.02171
G1 X109.242 Y102.225 E.02171
G1 X108.783 Y102.043 E.02171
G1 X108.379 Y101.76 E.02171
G1 X108.051 Y101.391 E.02171
G1 X107.817 Y100.957 E.02171
G1 X107.689 Y100.48 E.02171
G1 X107.675 Y99.987 E.02171
G1 X107.774 Y99.504 E.02171
G1 X107.983 Y99.057 E.02171
G1 X108.289 Y98.669 E.02171
G1 X108.676 Y98.363 E.02171
G1 X109.122 Y98.155 E.02166
G1 X109.611 Y98.055 E.02196
G1 X110.1 Y98.069 E.02152
G1 X110.576 Y98.197 E.02171
G1 X111.011 Y98.431 E.02171
G1 X111.378 Y98.759 E.02166
G1 X111.664 Y99.168 E.02196
G1 X111.845 Y99.622 E.02152
G1 X111.916 Y100.11 E.02171
G1 X111.873 Y100.602 E.02171
G1 X111.718 Y101.07 E.02171
G1 X111.459 Y101.49 E.02171
G1 X111.176 Y101.773 E.01762
G1 X111.911 Y101.818 F9000
G1 F600
G1 X111.899 Y101.838 E.00104
G1 X111.458 Y102.279 E.02741
G1 X110.922 Y102.608 E.02769
G1 X110.335 Y102.803 E.02723
G1 X109.714 Y102.857 E.02744
G1 X109.097 Y102.767 E.02744
G1 X108.517 Y102.537 E.02744
G1 X108.006 Y102.179 E.02745
G1 X107.592 Y101.713 E.02744
G1 X107.296 Y101.164 E.02745
G1 X107.134 Y100.562 E.02744
G1 X107.116 Y99.938 E.02744
G1 X107.242 Y99.327 E.02744
G1 X107.506 Y98.762 E.02744
G1 X107.892 Y98.273 E.02744
G1 X108.382 Y97.886 E.02744
G1 X108.946 Y97.623 E.02741
G1 X109.563 Y97.497 E.02769
G1 X110.181 Y97.515 E.02723
G1 X110.784 Y97.676 E.02744
G1 X111.332 Y97.972 E.02745
G1 X111.798 Y98.386 E.02741
G1 X112.158 Y98.902 E.02769
G1 X112.386 Y99.477 E.02723
G1 X112.477 Y100.094 E.02744
G1 X112.422 Y100.715 E.02744
G1 X112.226 Y101.307 E.02744
G1 X111.932 Y101.784 E.02464
G1 X112.735 Y101.544 F9000
;TYPE:Outer wall
G1 F600
G1 X112.339 Y102.186 E.03318
G1 X111.806 Y102.719 E.03316
G1 X111.159 Y103.117 E.03342
G1 X110.448 Y103.352 E.03294
G1 X109.697 Y103.418 E.03317
G1 X108.951 Y103.309 E.03318
G1 X108.251 Y103.03 E.03317
G1 X107.633 Y102.598 E.03318
G1 X107.132 Y102.035 E.03317
G1 X106.774 Y101.371 E.03318
G1 X106.579 Y100.643 E.03317
G1 X106.557 Y99.889 E.03318
G1 X106.71 Y99.151 E.03318
G1 X107.028 Y98.468 E.03318
G1 X107.496 Y97.876 E.03318
M73 P1 R28
M73 P1 R28
G1 X108.087 Y97.409 E.03318
G1 X108.77 Y97.09 E.03316
G1 X109.514 Y96.938 E.03342
G1 X110.262 Y96.96 E.03294
G1 X110.991 Y97.155 E.03317
G1 X111.654 Y97.512 E.03318
G1 X112.217 Y98.013 E.03316
G1 X112.652 Y98.636 E.03342
G1 X112.928 Y99.332 E.03294
G1 X113.037 Y100.078 E.03318
G1 X112.972 Y100.829 E.03318
G1 X112.747 Y101.506 E.03142
G1 E-1.6 F2400
;WIPE_START
G1 F9000
G1 X112.339 Y102.186
G1 X111.806 Y102.719
G1 X111.42 Y102.956
;WIPE_END
G1 Z.6
G1 X111.706 Y99.651
G1 Z.6
G1 Z.2
G1 E1.6 F1800
;TYPE:Bottom surface
;WIDTH:0.617084
G1 F1200
G2 X110.786 Y98.753 I-8.165 J7.452 E.05834
G2 X110.043 Y98.458 I-.994 J1.419 E.03657
G1 X109.691 Y98.448 E.01596
G1 X111.511 Y100.267 E.11672
G1 X111.489 Y100.523 E.01161
G1 X111.352 Y100.921 E.01909
G1 X109.051 Y98.619 E.14762
G1 X108.882 Y98.698 E.00842
G1 X108.567 Y98.947 E.01825
G1 X111.009 Y101.389 E.15663
G1 X110.867 Y101.53 E.00905
G1 X110.539 Y101.732 E.01747
G1 X108.239 Y99.431 E.14757
G1 X108.147 Y99.627 E.00981
G1 X108.066 Y100.021 E.01825
G1 X108.067 Y100.072 E.0023
G1 X109.887 Y101.891 E.11671
G1 X109.741 Y101.904 E.00662
G3 X108.673 Y101.49 I.124 J-1.904 E.05277
G1 X107.895 Y100.712 E.04991
; stop printing object Cilindro Porta Martello id:6422192683702169907 copy 0
; printing object Martello id:3472611046541310259 copy 0
G1 E-1.6 F2400
;WIPE_START
G1 F9000
G1 X108.673 Y101.49
G1 X108.97 Y101.697
G1 X109.343 Y101.846
G1 X109.478 Y101.865
;WIPE_END
G1 X116.562 Y104.706 Z.6
G1 X155.108 Y120.165 Z.6
G1 Z.2
G1 E1.6 F1800
;TYPE:Inner wall
;WIDTH:0.762785
G1 F600
G1 X162.261 Y120.163 E.40674
;WIDTH:0.758311
G1 X162.261 Y120.878 E.04041
G1 X161.903 Y120.879 E.02019
;WIDTH:0.762785
G1 X153.571 Y120.886 E.47382
;WIDTH:0.793523
G1 X153.147 Y120.871 E.02514
;WIDTH:0.82426
G2 X152.169 Y120.856 I-.687 J13.503 E.06042
G1 X152.482 Y119.967 E.05819
G1 X152.571 Y120.005 E.00595
G1 X152.968 Y120.104 E.02528
;WIDTH:0.806317
G1 X153.701 Y120.166 E.04437
;WIDTH:0.762785
G1 X155.068 Y120.165 E.07772
G1 E-1.6 F2400
;WIPE_START
G1 F9000
G1 X157.068 Y120.165
;WIPE_END
G1 X152.907 Y119.394 Z.6
G1 Z.2
G1 E1.6 F1800
;WIDTH:0.599999
G1 F600
G1 X153.053 Y119.45 E.0069
G1 X153.701 Y119.527 E.02871
G1 X162.897 Y119.527 E.40466
G1 X162.897 Y121.514 E.08743
G1 X150.962 Y121.536 E.52519
G2 X151.553 Y120.603 I-16.267 J-10.959 E.04862
G2 X151.905 Y119.484 I-10.546 J-3.93 E.05164
G1 X151.933 Y118.881 E.02655
G2 X152.37 Y119.192 I1.027 J-.983 E.02375
G1 X152.869 Y119.38 E.02348
G1 E-1.6 F2400
;WIPE_START
G1 F9000
G1 X153.053 Y119.45
G1 X153.701 Y119.527
G1 X154.852 Y119.527
;WIPE_END
G1 X147.237 Y120.045 Z.6
G1 X134.886 Y120.886 Z.6
G1 Z.2
G1 E1.6 F1800
;WIDTH:0.763765
G1 F600
G1 X104.093 Y120.878 E1.75338
;WIDTH:0.792559
G1 X103.389 Y120.861 E.04171
M73 P1 R27
M73 P1 R27
G1 X103.28 Y120.885 E.00662
;WIDTH:0.744419
G1 X103.171 Y120.909 E.0062
;WIDTH:0.696279
G1 X103.061 Y120.933 E.00577
;WIDTH:0.648139
G1 X102.952 Y120.957 E.00535
;WIDTH:0.599999
G1 X100.289 Y120.956 E.11719
G1 X99.746 Y120.897 E.02403
G3 X100.988 Y118.406 I.358 J-1.377 E.22279
G2 X101.949 Y119.353 I13.481 J-12.706 E.05941
G1 X102.658 Y119.773 E.03623
G1 X103.13 Y119.944 E.02211
;WIDTH:0.648139
G1 X103.206 Y119.986 E.00414
;WIDTH:0.696279
G1 X103.281 Y120.029 E.00447
;WIDTH:0.744419
G1 X103.357 Y120.071 E.0048
;WIDTH:0.792559
G1 X103.433 Y120.114 E.00513
G1 X104.094 Y120.163 E.03928
;WIDTH:0.763765
G1 X140.411 Y120.166 E2.06795
;WIDTH:0.813236
G1 X141.105 Y120.098 E.04243
M73 P2 R27
;WIDTH:0.824805
M73 P2 R27
G1 X141.525 Y119.968 E.02717
G2 X141.839 Y120.857 I58.832 J-20.27 E.05824
G2 X141.089 Y120.866 I-.027 J30.104 E.04631
;WIDTH:0.807002
G1 X140.307 Y120.887 E.04726
;WIDTH:0.763765
G1 X134.926 Y120.886 E.30638
G1 E-1.6 F2400
;WIPE_START
G1 F9000
G1 X132.926 Y120.885
;WIPE_END
G1 X136.664 Y121.533 Z.6
G1 Z.2
G1 E1.6 F1800
;WIDTH:0.599999
G1 F600
G1 X100.168 Y121.513 E1.60599
G1 X99.605 Y121.441 E.025
G1 X99.138 Y121.254 E.02215
G1 X98.733 Y120.955 E.02215
G1 X98.416 Y120.564 E.02215
G1 X98.208 Y120.105 E.02215
G1 X98.121 Y119.609 E.02215
G1 X98.163 Y119.108 E.02215
G1 X98.329 Y118.633 E.02215
G1 X98.609 Y118.214 E.02215
G1 X98.986 Y117.88 E.02215
G1 X99.434 Y117.652 E.02215
G1 X99.926 Y117.543 E.02215
G1 X100.429 Y117.562 E.02215
G1 X100.911 Y117.707 E.02215
G1 X101.34 Y117.967 E.02207
G2 X102.254 Y118.887 I18.78 J-17.755 E.05711
G1 X102.848 Y119.249 E.03058
G1 X103.508 Y119.465 E.03058
G1 X104.094 Y119.527 E.02593
G1 X140.374 Y119.527 E1.59651
G1 X141.175 Y119.39 E.03574
G1 X141.685 Y119.172 E.02441
G1 X142.075 Y118.881 E.0214
G1 X142.104 Y119.489 E.02678
G2 X142.551 Y120.796 I7.55 J-1.851 E.06086
G1 X143.044 Y121.536 E.03913
G1 X136.704 Y121.533 E.27901
G1 E-1.6 F2400
;WIPE_START
G1 F9000
G1 X134.704 Y121.532
;WIPE_END
G1 X142.121 Y119.733 Z.6
G1 X151.16 Y117.541 Z.6
G1 Z.2
G1 E1.6 F1800
;TYPE:Outer wall
;WIDTH:0.571138
G1 F600
G1 X151.21 Y117.787 E.0105
;WIDTH:0.599999
G2 X151.392 Y118.525 I6.457 J-1.193 E.03348
G1 X151.349 Y119.458 E.04109
G3 X151.027 Y120.42 I-21.18 J-6.545 E.04464
G3 X150.414 Y121.326 I-7.15 J-4.177 E.04817
G1 X149.673 Y121.876 E.04059
;WIDTH:0.575455
G1 X149.275 Y122.108 E.01942
;WIDTH:0.544062
G1 X148.876 Y122.341 E.01828
;WIDTH:0.513848
G1 X147.979 Y122.663 E.03545
;WIDTH:0.519372
G1 X147.033 Y122.778 E.03587
;WIDTH:0.527709
G1 X146.225 Y122.698 E.03108
;WIDTH:0.532313
G3 X145.136 Y122.343 I1.355 J-6.009 E.04435
;WIDTH:0.554948
G1 X144.472 Y121.951 E.03121
;WIDTH:0.599999
G3 X143.532 Y121.264 I3.558 J-5.848 E.0513
G1 X143.014 Y120.487 E.04107
G3 X142.658 Y119.406 I8.128 J-3.281 E.05012
G1 X142.616 Y118.533 E.03848
G2 X142.83 Y117.595 I-6.587 J-1.997 E.04237
;WIDTH:0.552721
G1 X143.157 Y116.699 E.0384
M73 P3 R27
;WIDTH:0.516999
M73 P3 R27
G1 X143.658 Y115.888 E.03569
;WIDTH:0.522436
G1 X144.312 Y115.221 E.0354
;WIDTH:0.527489
G1 X145.008 Y114.768 E.0318
;WIDTH:0.530863
G1 X145.777 Y114.457 E.03196
G1 X146.081 Y114.367 E.0122
;WIDTH:0.532531
G3 X147.013 Y114.268 I1.292 J7.678 E.03629
;WIDTH:0.510906
G1 X147.922 Y114.366 E.0338
;WIDTH:0.512604
G1 X148.825 Y114.674 E.03537
;WIDTH:0.51604
G1 X149.636 Y115.174 E.03561
;WIDTH:0.521144
G1 X150.316 Y115.842 E.03601
;WIDTH:0.526574
G1 X150.771 Y116.549 E.03214
;WIDTH:0.542277
G1 X151.145 Y117.503 E.04042
G1 E-1.6 F2400
;WIPE_START
G1 F9000
G1 X151.21 Y117.787
G1 X151.392 Y118.525
G1 X151.349 Y119.458
G1 X151.344 Y119.472
;WIPE_END
G1 X152.043 Y118.22 Z.6
G1 Z.2
G1 E1.6 F1800
;WIDTH:0.599999
G1 F600
G1 X152.056 Y118.243 E.00119
G1 X152.465 Y118.611 E.02419
G1 X152.589 Y118.679 E.00622
G1 X153.126 Y118.897 E.02549
G1 X153.701 Y118.97 E.02553
G1 X163.454 Y118.97 E.42917
G1 X163.454 Y122.07 E.13643
G1 X151.851 Y122.083 E.51058
G2 X150.517 Y122.141 I-.371 J6.892 E.05885
G1 X149.784 Y122.398 E.0342
;WIDTH:0.55511
G1 X148.653 Y122.954 E.05098
;WIDTH:0.532365
G1 X147.832 Y123.18 E.03295
;WIDTH:0.527862
G1 X146.942 Y123.254 E.03421
;WIDTH:0.527709
G1 X146.176 Y123.18 E.02944
G1 X145.893 Y123.113 E.01116
;WIDTH:0.532313
G3 X144.909 Y122.754 I.823 J-3.781 E.04062
;WIDTH:0.54368
G1 X144.503 Y122.549 E.01796
;WIDTH:0.574712
G1 X144.098 Y122.345 E.01908
;WIDTH:0.599999
G1 X143.431 Y122.129 E.03084
G1 X142.902 Y122.084 E.02337
G1 X100.133 Y122.07 E1.88207
G1 X99.463 Y121.985 E.02969
G1 X98.864 Y121.744 E.02842
G1 X98.344 Y121.361 E.02842
G1 X97.938 Y120.859 E.02842
G1 X97.671 Y120.271 E.02842
G1 X97.56 Y119.635 E.02842
G1 X97.613 Y118.991 E.02842
G1 X97.827 Y118.381 E.02842
G1 X98.186 Y117.845 E.02842
G1 X98.669 Y117.416 E.02842
G1 X99.245 Y117.123 E.02842
G1 X99.875 Y116.984 E.02842
G1 X100.521 Y117.008 E.02842
G1 X101.139 Y117.194 E.02842
G1 X101.691 Y117.529 E.02839
G2 X102.559 Y118.421 I45.854 J-43.761 E.05481
G1 X103.037 Y118.725 E.02493
G1 X103.573 Y118.911 E.02493
G1 X104.094 Y118.97 E.02309
G1 X140.325 Y118.97 E1.59435
G1 X140.883 Y118.897 E.02474
G2 X141.543 Y118.611 I-1.43 J-4.195 E.03171
G1 X141.952 Y118.243 E.02419
G1 X142.208 Y117.812 E.02207
G1 X142.294 Y117.589 E.01054
;WIDTH:0.571321
G1 X142.381 Y117.365 E.01
;WIDTH:0.542643
G1 X142.831 Y116.287 E.04612
;WIDTH:0.526748
G1 X143.35 Y115.507 E.03581
;WIDTH:0.521366
G1 X144.111 Y114.78 E.03978
;WIDTH:0.527489
G1 X144.744 Y114.362 E.02905
G1 X145.012 Y114.237 E.01128
;WIDTH:0.530863
G1 X145.603 Y114.001 E.02453
G1 X146.009 Y113.905 E.01608
;WIDTH:0.532531
G3 X146.99 Y113.8 I.851 J3.322 E.03831
;WIDTH:0.532813
G1 X147.508 Y113.818 E.02004
G1 X148.405 Y114.001 E.03545
;WIDTH:0.530955
G1 X149.264 Y114.362 E.03589
;WIDTH:0.527643
G1 X150.036 Y114.883 E.03566
;WIDTH:0.522654
G1 X150.746 Y115.628 E.03901
;WIDTH:0.526574
G1 X151.178 Y116.287 E.03011
G1 X151.289 Y116.526 E.01007
;WIDTH:0.557333
G1 X151.544 Y117.167 E.02803
;WIDTH:0.599999
G1 X151.798 Y117.808 E.03036
G1 X152.022 Y118.186 E.0193
G1 E-1.6 F2400
;WIPE_START
G1 F9000
G1 X152.056 Y118.243
G1 X152.465 Y118.611
G1 X152.589 Y118.679
G1 X153.126 Y118.897
G1 X153.701 Y118.97
G1 X153.784 Y118.97
;WIPE_END
G1 X146.155 Y119.211 Z.6
G1 X103.201 Y120.569 Z.6
G1 Z.2
M73 P4 R27
M73 P4 R27
G1 E1.6 F1800
;TYPE:Gap infill
;WIDTH:0.215659
G1 F600
G1 X102.525 Y120.111 E.01114
;WIDTH:0.196408
G1 X102.428 Y120.041 E.00145
;WIDTH:0.161752
G1 X102.331 Y119.971 E.00112
;WIDTH:0.144424
G1 X102.234 Y119.902 E.00096
G1 X102.55 Y120.028 F9000
;WIDTH:0.432598
G1 F600
G1 X103.01 Y120.437 E.01894
;WIDTH:0.419463
G1 X103.005 Y120.459 E.00067
;WIDTH:0.38248
G1 X103.001 Y120.481 E.0006
;WIDTH:0.343502
G1 X102.989 Y120.509 E.00072
;WIDTH:0.30253
G1 X102.977 Y120.537 E.00062
;WIDTH:0.261557
G1 X102.965 Y120.565 E.00052
;WIDTH:0.220585
G1 X102.952 Y120.592 E.00043
;WIDTH:0.179613
G1 X102.94 Y120.62 E.00033
;WIDTH:0.159126
G1 X102.828 Y120.678 E.00116
G1 X102.665 Y120.817 F9000
;TYPE:Bottom surface
;WIDTH:0.672662
G1 F1200
G1 X100.386 Y118.538 E.16037
G2 X99.592 Y118.635 I-.286 J.963 E.04092
G1 X101.524 Y120.566 E.13591
G1 X100.633 Y120.566 E.04432
G1 X99.168 Y119.102 E.10303
G2 X99.22 Y120.044 I.963 J.42 E.04869
G1 X99.96 Y120.784 E.05209
; stop printing object Martello id:3472611046541310259 copy 0
; printing object Porta Martello id:3761403097277341748 copy 0
G1 E-1.6 F2400
;WIPE_START
G1 F9000
G1 X99.22 Y120.044
G1 X99.12 Y119.824
G1 X99.075 Y119.566
G1 X99.097 Y119.306
G1 X99.159 Y119.128
;WIPE_END
G1 X106.008 Y115.76 Z.6
G1 X150.423 Y93.916 Z.6
G1 Z.2
G1 E1.6 F1800
;TYPE:Support
;WIDTH:0.6
G1 F600
G3 X149.678 Y93.832 I-.745 J3.251 E.88918
G1 X150.34 Y93.907 E.02929
G1 X146.835 Y97.177 F9000
G1 F600
G3 X146.906 Y97.809 I2.832 J.002 E.75509
G1 X146.835 Y97.177 E.028
G1 X147.458 Y97.177 F9000
G1 F600
G3 X147.514 Y97.671 I2.211 J.002 E.58956
G1 X147.458 Y97.177 E.02186
G1 X148.081 Y97.177 F9000
G1 F600
G3 X148.121 Y97.532 I1.591 J.001 E.42402
G1 X148.081 Y97.177 E.01572
G1 X148.704 Y97.178 F9000
G1 F600
G3 X148.728 Y97.394 I.97 J.001 E.25849
G1 X148.704 Y97.178 E.00958
G1 X149.327 Y97.178 F9000
G1 F600
G3 X149.336 Y97.256 I.349 J0 E.09295
G1 X149.327 Y97.178 E.00345
G1 E-1.6 F2400
;WIPE_START
G1 F9000
G1 X149.336 Y97.256
G1 X149.525 Y97.493
G1 X149.754 Y97.519
G1 X150.026 Y97.178
G1 X149.95 Y96.96
G1 X149.677 Y96.828
G1 X149.459 Y96.905
G1 X149.378 Y97.071
;WIPE_END
G1 X155.734 Y92.846 Z.6
G1 X156.34 Y92.443 Z.6
G1 Z.2
G1 E1.6 F1800
G1 F600
G1 X159.198 Y92.443 E.12573
G1 X159.198 Y101.914 E.41678
G1 X156.34 Y101.914 E.12573
G1 X156.34 Y107.628 E.25145
G1 X138.298 Y107.628 E.79396
G1 X138.298 Y104.728 E.1276
G2 X141.952 Y104.474 I1.27 J-8.138 E.16254
G3 X143.384 Y103.828 I3.012 J4.767 E.06935
M73 P5 R27
M73 P5 R27
