;TIME:4435.70
;Filament used:8.58094m
;Layer height:0.200
; HEADER_BLOCK_START
; generated by Creality_Print V6.0.5.1840 on 2025-06-28 at 21:04:52
; total layer number: 39
; filament_density: 1.24
; filament_diameter: 1.75
; max_z_height: 6.00
; HEADER_BLOCK_END

; MINX = 57.50
; MINY = 65.20
; MINZ = 0.00
; MAXX = 162.50
; MAXY = 154.80
; MAXZ = 6.00

; THUMBNAIL_BLOCK_START

;
; THUMBNAIL_BLOCK_END

; THUMBNAIL_BLOCK_START

;
; THUMBNAIL_BLOCK_END

; external perimeters extrusion width = 0.42mm
; perimeters extrusion width = 0.45mm
; infill extrusion width = 0.45mm
; solid infill extrusion width = 0.42mm
; top infill extrusion width = 0.42mm
; support material extrusion width = 0.40mm
; first layer extrusion width = 0.60mm

; EXECUTABLE_BLOCK_START
M73 P0 R73
M201 X5000 Y5000 Z500 E5000
M203 X500 Y500 Z30 E100
M204 P5000 R2500 T5000 ; sets acceleration (P, T) and retract acceleration (R), mm/sec^2
M205 X10.00 Y10.00 Z0.40 E5.00 ; sets the jerk limits, mm/sec
;TYPE:Custom
M220 S100 ;Reset Feedrate 
M221 S100 ;Reset Flowrate 
 
M140 S75 ;Set final bed temp 
G28 ;Home 
 
G92 E0 ;Reset Extruder 
G1 Z2.0 F3000 ;Move Z Axis up 
M104 S200 ;Set final nozzle temp 
G1 X-2.1 Y20 Z0.28 F5000.0 ;Move to start position 
M190 S75 ;Wait for bed temp to stabilize 
M109 S200 ;Wait for nozzle temp to stabilize 
G1 X-2.1 Y145.0 Z0.28 F1500.0 E15 ;Draw the first line 
G1 X-2.4 Y145.0 Z0.28 F5000.0 ;Move to side a little 
G1 X-2.4 Y20 Z0.28 F1500.0 E30 ;Draw the second line 
G92 E0  ;Reset Extruder 
G1 E-1.0000 F1800 ;Retract a bit 
G1 Z2.0 F3000 ;Move Z Axis up 
G1 E0.0000 F1800
G90
G21
M83 ; use relative distances for extrusion
" "
G1 E-1.6 F2400
M106 S0
;LAYER_CHANGE
;Z:0.2
;HEIGHT:0.2
;BEFORE_LAYER_CHANGE
;0.2
G92 E0

;_SET_FAN_SPEED_CHANGING_LAYER
M204 P125
M205 X10 Y10
; printing object Lateral Cassa Armonica id:1805590252800 copy 0
M204 T125
G1 Z.4 F9000
G1 X58.85 Y77.593
G1 Z.2
G1 E1.6 F1800
;TYPE:Support
;WIDTH:0.6
G1 F600
G1 X53.837 Y77.593 E.2206
G1 X53.837 Y70.98 E.29105
G1 X58.85 Y70.98 E.2206
G1 X58.85 Y77.51 E.28737
G1 X58.349 Y77.092 F9000
G1 F600
G1 X54.338 Y77.092 E.17647
G1 X54.338 Y71.481 E.24692
G1 X58.349 Y71.481 E.17647
G1 X58.349 Y77.092 E.24692
G1 X57.73 Y76.473 F9000
G1 F600
G1 X54.957 Y76.473 E.12199
G1 X54.957 Y72.1 E.19245
G1 X57.73 Y72.1 E.12199
G1 X57.73 Y76.473 E.19245
G1 X57.111 Y75.854 F9000
G1 F600
G1 X55.576 Y75.854 E.06752
G1 X55.576 Y72.719 E.13797
G1 X57.111 Y72.719 E.06752
G1 X57.111 Y75.854 E.13797
G1 E-1.6 F2400
;WIPE_START
G1 F600
G1 X57.111 Y73.854
;WIPE_END
G1 X57.287 Y81.485 Z.6 F9000
G1 X58.85 Y149.02 Z.6
G1 Z.2
G1 E1.6 F1800
G1 F600
G1 X53.837 Y149.02 E.2206
G1 X53.837 Y142.407 E.29105
G1 X58.85 Y142.407 E.2206
G1 X58.85 Y148.937 E.28737
G1 X58.349 Y142.908 F9000
G1 F600
G1 X58.349 Y148.519 E.24692
G1 X54.338 Y148.519 E.17647
G1 X54.338 Y142.908 E.24692
G1 X58.349 Y142.908 E.17647
G1 X57.73 Y143.527 F9000
G1 F600
G1 X57.73 Y147.9 E.19245
G1 X54.957 Y147.9 E.12199
G1 X54.957 Y143.527 E.19245
G1 X57.73 Y143.527 E.12199
G1 X57.111 Y144.146 F9000
G1 F600
G1 X57.111 Y147.281 E.13797
G1 X55.576 Y147.281 E.06752
G1 X55.576 Y144.146 E.13797
G1 X57.111 Y144.146 E.06752
G1 E-1.6 F2400
;WIPE_START
G1 F600
G1 X55.576 Y144.146
G1 X55.576 Y144.612
;WIPE_END
G1 X63.203 Y144.916 Z.6 F9000
G1 X166.163 Y149.02 Z.6
G1 Z.2
G1 E1.6 F1800
G1 F600
G1 X160.15 Y149.02 E.2646
G1 X160.15 Y142.407 E.29105
G1 X166.163 Y142.407 E.2646
G1 X166.163 Y148.937 E.28737
G1 X160.651 Y142.908 F9000
G1 F600
G1 X165.662 Y142.908 E.22048
G1 X165.662 Y148.519 E.24692
G1 X160.651 Y148.519 E.22048
G1 X160.651 Y142.908 E.24692
G1 X161.27 Y143.527 F9000
G1 F600
G1 X165.043 Y143.527 E.166
G1 X165.043 Y147.9 E.19245
G1 X161.27 Y147.9 E.166
G1 X161.27 Y143.527 E.19245
G1 X161.889 Y144.146 F9000
G1 F600
G1 X164.424 Y144.146 E.11152
G1 X164.424 Y147.281 E.13797
G1 X161.889 Y147.281 E.11152
G1 X161.889 Y144.146 E.13797
G1 X162.508 Y144.765 F9000
G1 F600
G1 X163.805 Y144.765 E.05705
G1 X163.805 Y146.662 E.08349
G1 X162.508 Y146.662 E.05705
G1 X162.508 Y144.765 E.08349
G1 E-1.6 F2400
;WIPE_START
G1 F600
G1 X162.508 Y146.662
G1 X162.611 Y146.662
;WIPE_END
G1 X163.003 Y139.04 Z.6 F9000
G1 X166.163 Y77.593 Z.6
G1 Z.2
G1 E1.6 F1800
G1 F600
G1 X160.15 Y77.593 E.2646
G1 X160.15 Y70.98 E.29105
G1 X166.163 Y70.98 E.2646
G1 X166.163 Y77.51 E.28737
G1 X160.651 Y77.092 F9000
M73 P1 R73
M73 P1 R73
G1 F600
G1 X160.651 Y71.481 E.24692
G1 X165.662 Y71.481 E.22048
G1 X165.662 Y77.092 E.24692
G1 X160.651 Y77.092 E.22048
G1 X161.27 Y76.473 F9000
G1 F600
G1 X161.27 Y72.1 E.19245
G1 X165.043 Y72.1 E.166
G1 X165.043 Y76.473 E.19245
G1 X161.27 Y76.473 E.166
G1 X161.889 Y75.854 F9000
G1 F600
G1 X161.889 Y72.719 E.13797
G1 X164.424 Y72.719 E.11152
G1 X164.424 Y75.854 E.13797
G1 X161.889 Y75.854 E.11152
G1 X162.508 Y75.235 F9000
G1 F600
G1 X162.508 Y73.338 E.08349
G1 X163.805 Y73.338 E.05705
G1 X163.805 Y75.235 E.08349
G1 X162.508 Y75.235 E.05705
G1 E-1.6 F2400
;WIPE_START
G1 F9000
G1 X163.805 Y75.235
G1 X163.805 Y74.532
;WIPE_END
G1 X158.482 Y80.002 Z.6
G1 X88.71 Y151.704 Z.6
G1 Z.2
G1 E1.6 F1800
;TYPE:Inner wall
;WIDTH:0.599999
G1 F600
G1 X90.244 Y153.236 E.09537
G1 X78.754 Y153.238 E.50561
G1 X80.969 Y151.026 E.13777
G1 X81.218 Y150.689 E.01842
G2 X81.351 Y149.769 I-1.383 J-.67 E.04157
G1 X81.184 Y149.296 E.02207
G1 X81.004 Y148.983 E.01585
G1 X80.684 Y148.679 E.01946
G1 X80.333 Y148.506 E.01719
G1 X79.897 Y148.436 E.01943
G1 X61.064 Y148.436 E.82876
G1 X61.064 Y129.379 E.83862
M73 P1 R72
M73 P1 R72
G1 X61.02 Y129.031 E.01541
G1 X60.835 Y128.614 E.02008
G1 X60.572 Y128.316 E.01747
G1 X60.305 Y128.138 E.01412
G1 X59.91 Y128.007 E.01832
G2 X59.064 Y127.986 I-.543 J4.884 E.0373
G1 X59.064 Y126.014 E.08676
G1 X59.91 Y125.993 E.03725
G1 X60.305 Y125.862 E.01832
G1 X60.572 Y125.684 E.01412
G1 X60.835 Y125.386 E.01747
G1 X61.001 Y125.036 E.01704
G1 X61.064 Y124.621 E.01845
G1 X61.064 Y71.564 E2.33481
G1 X75.729 Y71.563 E.64533
G1 X73.314 Y73.974 E.15019
G1 X73.079 Y74.286 E.0172
G2 X72.907 Y74.878 I1.219 J.673 E.02731
G1 X72.95 Y75.312 E.01922
G2 X73.311 Y76.057 I2.234 J-.621 E.03663
G1 X73.584 Y76.311 E.0164
G1 X73.966 Y76.5 E.01874
G1 X74.385 Y76.564 E.01867
G1 X94.615 Y76.564 E.89019
G1 X95.038 Y76.498 E.01884
G1 X95.423 Y76.305 E.01898
G1 X95.734 Y76 E.01915
G1 X95.989 Y75.493 E.025
G1 X96.084 Y75.136 E.01624
G1 X96.051 Y74.612 E.02311
G1 X95.925 Y74.294 E.01503
G1 X95.686 Y73.974 E.01757
G1 X93.272 Y71.564 E.15011
G1 X129.991 Y71.564 E1.61582
G1 X130.446 Y71.452 E.02061
G1 X130.828 Y71.207 E.01998
G1 X131.098 Y70.878 E.01871
G2 X131.372 Y70.081 I-1.996 J-1.134 E.03731
G1 X131.341 Y69.644 E.0193
G1 X131.218 Y69.311 E.01561
G1 X130.969 Y68.974 E.01842
G1 X128.754 Y66.762 E.13777
G1 X140.244 Y66.764 E.50561
G1 X138.031 Y68.974 E.13765
G1 X137.782 Y69.311 E.01842
G2 X137.649 Y70.231 I1.383 J.67 E.04157
G1 X137.816 Y70.704 E.02207
G1 X137.996 Y71.017 E.01585
G1 X138.316 Y71.321 E.01945
G1 X138.666 Y71.494 E.0172
G1 X139.103 Y71.564 E.01944
G1 X157.936 Y71.564 E.82876
G1 X157.936 Y90.957 E.85338
G1 X157.983 Y91.317 E.01599
G1 X158.171 Y91.732 E.02003
G1 X158.495 Y92.073 E.0207
G1 X158.841 Y92.262 E.01735
G1 X159.329 Y92.35 E.02179
G1 X160.936 Y92.35 E.07073
G1 X160.936 Y93.65 E.05724
G1 X159.329 Y93.65 E.07073
G1 X158.841 Y93.738 E.02179
G1 X158.495 Y93.927 E.01735
G1 X158.171 Y94.268 E.0207
G1 X158.008 Y94.601 E.01631
G1 X157.936 Y95.043 E.01971
G1 X157.936 Y148.436 E2.34957
G1 X143.27 Y148.438 E.64537
G1 X145.686 Y146.026 E.15024
G1 X145.921 Y145.714 E.01719
G2 X146.093 Y145.123 I-1.219 J-.673 E.02731
G1 X146.05 Y144.688 E.01922
G2 X145.689 Y143.943 I-2.234 J.621 E.03663
G1 X145.416 Y143.689 E.0164
G1 X145.034 Y143.5 E.01874
G1 X144.615 Y143.436 E.01867
G1 X124.385 Y143.436 E.89019
G1 X123.962 Y143.502 E.01885
M73 P2 R72
M73 P2 R72
G1 X123.577 Y143.695 E.01898
G1 X123.266 Y144 E.01915
G1 X123.011 Y144.507 E.025
G1 X122.916 Y144.864 E.01624
G1 X122.949 Y145.388 E.02311
G1 X123.075 Y145.706 E.01503
G1 X123.314 Y146.026 E.01757
G1 X125.729 Y148.438 E.15021
G1 X89.103 Y148.436 E1.61176
G1 X88.726 Y148.488 E.01674
G1 X88.316 Y148.679 E.01988
G1 X87.996 Y148.983 E.01946
G1 X87.816 Y149.296 E.01585
G1 X87.649 Y149.769 E.02207
G2 X87.782 Y150.689 I1.516 J.25 E.04157
G1 X88.031 Y151.026 E.01842
G1 X88.682 Y151.676 E.04051
G1 X88.694 Y150.901 F9000
G1 F600
G1 X91.251 Y153.454 E.15899
G1 X91.66 Y153.815 E.02401
G2 X90.601 Y153.793 I-2.013 J71.533 E.04661
G1 X77.884 Y153.795 E.55962
G1 X77.322 Y153.831 E.02478
G1 X77.749 Y153.454 E.02509
G1 X80.576 Y150.631 E.17577
G2 X80.799 Y150.23 I-.591 J-.591 E.02049
G1 X80.805 Y149.877 E.01552
G1 X80.669 Y149.509 E.01727
G1 X80.507 Y149.257 E.01319
G1 X80.226 Y149.06 E.01507
G1 X79.897 Y148.993 E.01478
G1 X60.507 Y148.993 E.85328
G1 X60.507 Y129.603 E.85328
G1 X60.476 Y129.152 E.01989
G1 X60.31 Y128.84 E.01554
G1 X60.052 Y128.634 E.01452
G1 X59.671 Y128.543 E.01722
G1 X58.507 Y128.543 E.05124
G1 X58.507 Y125.457 E.13579
G1 X59.671 Y125.457 E.05124
G1 X60.052 Y125.366 E.01722
G1 X60.31 Y125.16 E.01452
G1 X60.449 Y124.928 E.01189
G1 X60.507 Y124.621 E.01375
G1 X60.507 Y71.007 E2.35932
G1 X76.524 Y71.006 E.70484
G1 X77.135 Y70.971 E.02692
G1 X76.791 Y71.29 E.02063
G1 X73.707 Y74.368 E.19176
G2 X73.467 Y75.053 I.653 J.613 E.03288
G1 X73.613 Y75.491 E.02032
G1 X73.793 Y75.761 E.01424
G1 X74.078 Y75.948 E.01502
G1 X74.385 Y76.007 E.01378
G1 X94.648 Y76.007 E.89166
G1 X94.986 Y75.92 E.01538
G1 X95.254 Y75.709 E.01499
G1 X95.474 Y75.28 E.02125
G1 X95.537 Y74.921 E.016
G1 X95.436 Y74.56 E.0165
G1 X95.293 Y74.368 E.01054
G2 X91.881 Y70.986 I-111.208 J108.751 E.2114
G2 X92.981 Y71.007 I1.371 J-43.517 E.0484
G1 X129.956 Y71.007 E1.62707
G1 X130.301 Y70.903 E.01589
M73 P2 R71
M73 P2 R71
G1 X130.562 Y70.678 E.01512
G1 X130.757 Y70.28 E.01955
G1 X130.821 Y69.946 E.01494
G1 X130.725 Y69.571 E.01705
G1 X130.576 Y69.369 E.01105
G1 X127.73 Y66.527 E.17697
G1 X127.322 Y66.169 E.0239
G1 X127.91 Y66.205 E.02595
G1 X140.601 Y66.207 E.55845
G2 X141.66 Y66.185 I-.954 J-71.588 E.04661
G1 X141.251 Y66.546 E.02401
G1 X138.424 Y69.369 E.17577
G2 X138.182 Y70.033 I.665 J.618 E.03195
G1 X138.331 Y70.491 E.02121
G1 X138.493 Y70.743 E.01319
G1 X138.774 Y70.94 E.01507
G1 X139.103 Y71.007 E.01478
G1 X158.493 Y71.007 E.85328
G1 X158.493 Y90.957 E.8779
G1 X158.536 Y91.222 E.01182
G1 X158.705 Y91.513 E.01482
G1 X159.036 Y91.74 E.01765
G1 X159.329 Y91.792 E.01307
G1 X161.493 Y91.792 E.09524
G1 X161.493 Y94.208 E.10627
G1 X159.329 Y94.208 E.09524
G1 X159.036 Y94.26 E.01307
G1 X158.705 Y94.487 E.01765
G1 X158.565 Y94.703 E.01131
G1 X158.493 Y95.043 E.01532
G1 X158.493 Y148.993 E2.37408
G1 X142.399 Y148.995 E.7082
G1 X141.864 Y149.03 E.02359
G1 X142.209 Y148.71 E.02067
G1 X145.293 Y145.632 E.19176
G2 X145.533 Y144.947 I-.653 J-.613 E.03287
G1 X145.387 Y144.509 E.02032
G1 X145.207 Y144.239 E.01424
G1 X144.922 Y144.052 E.01502
G1 X144.615 Y143.993 E.01378
G1 X124.352 Y143.993 E.89166
G1 X124.014 Y144.08 E.01538
M73 P3 R71
M73 P3 R71
G1 X123.746 Y144.291 E.01499
G1 X123.526 Y144.72 E.02125
G1 X123.463 Y145.079 E.016
G1 X123.564 Y145.44 E.0165
G1 X123.707 Y145.632 E.01054
G1 X126.724 Y148.643 E.18756
G1 X127.135 Y149.029 E.02484
G1 X126.517 Y148.995 E.02726
G1 X89.039 Y148.993 E1.64924
G1 X88.699 Y149.097 E.01564
G1 X88.438 Y149.321 E.01512
G1 X88.243 Y149.72 E.01955
G1 X88.179 Y150.054 E.01494
G1 X88.275 Y150.429 E.01705
G1 X88.424 Y150.631 E.01105
G1 X88.666 Y150.873 E.01502
G1 X88.736 Y150.045 F9000
;TYPE:Outer wall
G1 F600
G1 X88.818 Y150.237 E.0092
G2 X91.657 Y153.072 I1213.621 J-1212.687 E.17657
G2 X92.795 Y154.002 I9.289 J-10.205 E.06466
G1 X93.293 Y154.5 E.03101
G1 X92.573 Y154.5 E.03166
G1 X91.616 Y154.369 E.04251
G2 X90.601 Y154.35 I-2.712 J116.203 E.04469
G1 X77.902 Y154.352 E.55884
G1 X76.915 Y154.415 E.04351
G1 X76.421 Y154.5 E.02204
G1 X75.707 Y154.5 E.03142
G1 X76.205 Y154.002 E.03101
G1 X76.621 Y153.704 E.02249
G1 X77.356 Y153.06 E.04301
G1 X80.182 Y150.237 E.17577
G1 X80.256 Y150.103 E.00674
G1 X80.242 Y149.934 E.0075
G1 X80.084 Y149.621 E.01542
G1 X79.9 Y149.55 E.00865
G1 X59.95 Y149.55 E.87793
G1 X59.95 Y129.348 E.88901
G1 X59.852 Y129.166 E.00909
G1 X59.671 Y129.1 E.00845
G1 X57.95 Y129.1 E.07575
G1 X57.95 Y124.9 E.18482
G1 X59.712 Y124.9 E.07754
G1 X59.884 Y124.801 E.00874
G1 X59.95 Y124.621 E.00842
G1 X59.95 Y70.45 E2.38383
G1 X76.509 Y70.448 E.72866
G1 X77.518 Y70.391 E.04451
G1 X78.027 Y70.3 E.02276
G1 X78.776 Y70.3 E.03293
G1 X78.302 Y70.774 E.02947
G1 X77.56 Y71.338 E.04102
G1 X77.185 Y71.684 E.02246
G1 X74.101 Y74.763 E.19176
G1 X74.029 Y74.887 E.00634
G1 X74.039 Y75.062 E.00771
G1 X74.206 Y75.385 E.01599
G1 X74.385 Y75.45 E.00839
G1 X94.675 Y75.45 E.89285
G1 X94.85 Y75.321 E.00954
G1 X94.981 Y74.947 E.01744
G1 X94.899 Y74.763 E.00887
G1 X91.815 Y71.684 E.19176
G1 X91.44 Y71.338 E.02247
G1 X90.698 Y70.774 E.04102
G1 X90.224 Y70.3 E.02947
G1 X90.991 Y70.303 E.03376
G1 X91.981 Y70.436 E.04394
G1 X92.977 Y70.45 E.04384
G1 X129.964 Y70.45 E1.62763
G1 X130.137 Y70.313 E.00972
G1 X130.264 Y69.955 E.01669
G1 X130.182 Y69.763 E.0092
G1 X127.349 Y66.934 E.17617
G1 X126.621 Y66.296 E.04261
G1 X126.205 Y65.998 E.02249
G1 X125.707 Y65.5 E.03101
G1 X126.421 Y65.5 E.03142
G1 X126.915 Y65.585 E.02204
G1 X127.91 Y65.648 E.0439
G1 X140.691 Y65.65 E.5624
G1 X141.616 Y65.631 E.04073
G1 X142.573 Y65.5 E.04251
G1 X143.293 Y65.5 E.03166
G1 X142.759 Y66.023 E.0329
G2 X141.644 Y66.94 I8.273 J11.198 E.06354
G1 X138.818 Y69.763 E.17577
G1 X138.744 Y69.897 E.00674
G1 X138.758 Y70.066 E.0075
G1 X138.916 Y70.379 E.01542
G1 X139.103 Y70.45 E.00878
G1 X159.05 Y70.45 E.87779
G1 X159.055 Y91.009 E.90471
G1 X159.162 Y91.18 E.00887
G1 X159.329 Y91.235 E.00773
G1 X162.05 Y91.235 E.11976
G1 X162.05 Y94.765 E.1553
G2 X159.304 Y94.766 I-.882 J1270.744 E.12083
G1 X159.121 Y94.858 E.00903
G1 X159.05 Y95.041 E.00863
G1 X159.05 Y149.55 E2.3987
G1 X142.417 Y149.552 E.73193
G1 X141.431 Y149.616 E.04349
M73 P3 R70
M73 P3 R70
G1 X140.937 Y149.7 E.02203
G1 X140.224 Y149.7 E.03138
G1 X140.698 Y149.226 E.02947
G1 X141.44 Y148.662 E.04102
G1 X141.815 Y148.316 E.02246
G1 X144.899 Y145.237 E.19176
G1 X144.971 Y145.113 E.00634
M73 P4 R70
M73 P4 R70
G1 X144.961 Y144.938 E.00771
G1 X144.794 Y144.615 E.01599
G1 X144.615 Y144.55 E.00839
G1 X124.325 Y144.55 E.89285
G1 X124.15 Y144.679 E.00954
G1 X124.019 Y145.053 E.01744
G1 X124.101 Y145.237 E.00887
G1 X127.185 Y148.316 E.19176
G1 X127.56 Y148.662 E.02247
G1 X128.302 Y149.226 E.04102
G1 X128.776 Y149.7 E.02947
G1 X128.061 Y149.7 E.03144
G2 X126.517 Y149.552 I-1.699 J9.572 E.06836
G1 X89.036 Y149.55 E1.64936
G1 X88.863 Y149.687 E.00972
G1 X88.75 Y150.007 E.01493
G1 E-1.6 F2400
;WIPE_START
G1 F9000
G1 X88.818 Y150.237
G1 X90.063 Y151.481
;WIPE_END
G1 Z.6
G1 X80.589 Y153.098
G1 Z.6
G1 Z.2
G1 E1.6 F1800
;TYPE:Bottom surface
;WIDTH:0.602463
G1 F1200
G1 X80.018 Y152.527 E.03571
G1 X80.414 Y152.132 E.02473
G1 X81.129 Y152.848 E.04475
G1 X81.921 Y152.848 E.03497
G1 X80.809 Y151.736 E.06946
G1 X81.205 Y151.341 E.02473
G1 X82.712 Y152.847 E.09416
G1 X83.503 Y152.847 E.03497
G1 X81.548 Y150.892 E.1222
G1 X81.722 Y150.446 E.02116
G1 X81.741 Y150.293 E.0068
G1 X84.294 Y152.847 E.15962
G1 X85.085 Y152.847 E.03497
G1 X61.443 Y129.205 E1.47781
G2 X60.482 Y127.789 I-1.832 J.21 E.07866
G1 X59.981 Y127.622 E.02332
G1 X59.849 Y127.611 E.00585
G1 X59.454 Y127.216 E.0247
G1 X59.454 Y126.424 E.03498
G1 X85.876 Y152.847 E1.65161
G1 X86.668 Y152.847 E.03497
G1 X60.144 Y126.323 E1.65793
G1 X60.482 Y126.211 E.01572
G1 X60.686 Y126.074 E.01088
G1 X87.459 Y152.847 E1.6735
G1 X88.25 Y152.846 E.03497
G1 X61.094 Y125.691 E1.69746
G2 X61.361 Y125.166 I-1.43 J-1.057 E.02613
G1 X89.041 Y152.846 E1.73024
G1 X89.302 Y152.846 E.01152
G1 X87.749 Y151.296 E.09699
G1 X87.437 Y150.872 E.02326
G1 X87.278 Y150.446 E.02009
G1 X87.257 Y150.27 E.00783
G1 X61.453 Y124.467 E1.61292
G1 X61.453 Y123.676 E.03498
G1 X87.313 Y149.536 E1.61647
G3 X87.543 Y148.974 I2.209 J.575 E.0269
G1 X61.453 Y122.884 E1.63082
G1 X61.453 Y122.093 E.03498
G1 X87.892 Y148.532 E1.65261
G3 X88.365 Y148.213 I.951 J.903 E.0254
G1 X61.453 Y121.302 E1.68218
G1 X61.453 Y120.511 E.03498
G1 X88.997 Y148.054 E1.72172
