;TIME:2175.07
;Filament used:2.65744m
;Layer height:0.200
; HEADER_BLOCK_START
; generated by Creality_Print V6.0.5.1840 on 2025-07-21 at 19:18:12
; total layer number: 77
; filament_density: 1.24
; filament_diameter: 1.75
; max_z_height: 15.00
; HEADER_BLOCK_END

; MINX = 89.00
; MINY = 56.61
; MINZ = 0.00
; MAXX = 131.00
; MAXY = 163.39
; MAXZ = 15.00

; THUMBNAIL_BLOCK_START

;
; THUMBNAIL_BLOCK_END

; THUMBNAIL_BLOCK_START

;
; THUMBNAIL_BLOCK_END

; external perimeters extrusion width = 0.42mm
; perimeters extrusion width = 0.45mm
; infill extrusion width = 0.45mm
; solid infill extrusion width = 0.42mm
; top infill extrusion width = 0.42mm
; support material extrusion width = 0.40mm
; first layer extrusion width = 0.60mm

; external perimeters extrusion width = 0.42mm
; perimeters extrusion width = 0.45mm
; infill extrusion width = 0.45mm
; solid infill extrusion width = 0.42mm
; top infill extrusion width = 0.42mm
; support material extrusion width = 0.40mm
; first layer extrusion width = 0.60mm

; external perimeters extrusion width = 0.42mm
; perimeters extrusion width = 0.45mm
; infill extrusion width = 0.45mm
; solid infill extrusion width = 0.42mm
; top infill extrusion width = 0.42mm
; support material extrusion width = 0.40mm
; first layer extrusion width = 0.60mm

; EXECUTABLE_BLOCK_START
M73 P0 R36
M201 X5000 Y5000 Z500 E5000
M203 X500 Y500 Z30 E100
M204 P5000 R2500 T5000 ; sets acceleration (P, T) and retract acceleration (R), mm/sec^2
M205 X10.00 Y10.00 Z0.40 E5.00 ; sets the jerk limits, mm/sec
;TYPE:Custom
M220 S100 ;Reset Feedrate 
M221 S100 ;Reset Flowrate 
 
M140 S75 ;Set final bed temp 
G28 ;Home 
 
G92 E0 ;Reset Extruder 
G1 Z2.0 F3000 ;Move Z Axis up 
M104 S200 ;Set final nozzle temp 
G1 X-2.1 Y20 Z0.28 F5000.0 ;Move to start position 
M190 S75 ;Wait for bed temp to stabilize 
M109 S200 ;Wait for nozzle temp to stabilize 
G1 X-2.1 Y145.0 Z0.28 F1500.0 E15 ;Draw the first line 
G1 X-2.4 Y145.0 Z0.28 F5000.0 ;Move to side a little 
G1 X-2.4 Y20 Z0.28 F1500.0 E30 ;Draw the second line 
G92 E0  ;Reset Extruder 
G1 E-1.0000 F1800 ;Retract a bit 
G1 Z2.0 F3000 ;Move Z Axis up 
G1 E0.0000 F1800
G90
G21
M83 ; use relative distances for extrusion
" "
G1 E-1.6 F2400
M106 S0
;LAYER_CHANGE
;Z:0.2
;HEIGHT:0.2
;BEFORE_LAYER_CHANGE
;0.2
G92 E0

;_SET_FAN_SPEED_CHANGING_LAYER
M204 P125
M205 X10 Y10
; printing object Porta Martello id:1705405847168 copy 0
M204 T125
G1 Z.4 F9000
G1 X87.929 Y68.259
G1 Z.2
G1 E1.6 F1800
;TYPE:Support interface
;WIDTH:0.6
G1 F600
G1 X93.643 Y68.259 E.25145
G1 X93.643 Y69.116 E.03772
G1 X87.929 Y69.116 E.25145
G1 X87.929 Y69.973 E.03772
G1 X93.643 Y69.973 E.25145
G1 X93.643 Y70.83 E.03772
G1 X87.929 Y70.83 E.25145
G1 X87.929 Y71.687 E.03772
G1 X93.643 Y71.687 E.25145
G1 X93.643 Y72.544 E.03772
M73 P0 R35
M73 P0 R35
G1 X87.929 Y72.544 E.25145
G1 X87.929 Y73.401 E.03772
G1 X88.471 Y73.401 E.02388
G1 X88.471 Y73.972 E.02512
G1 X87.929 Y73.972 E.02388
G1 X87.929 Y73.58 E.01726
G1 X87.45 Y74.451 F9000
;TYPE:Support
G1 F600
G1 X88.35 Y74.451 E.0396
G1 X88.35 Y76.729 E.10027
G1 X86.95 Y78.129 E.08712
G1 X86.95 Y72.567 E.24477
G3 X87.45 Y71.962 I4.102 J2.879 E.03459
G1 X87.45 Y74.367 E.10586
G1 X87.849 Y76.522 F9000
G1 F600
G1 X87.451 Y76.919 E.02472
G1 X87.451 Y74.952 E.08655
G1 X87.849 Y74.952 E.01748
G1 X87.849 Y76.522 E.06907
G1 E-1.6 F2400
;WIPE_START
G1 F600
G1 X87.849 Y74.952
G1 X87.451 Y74.952
G1 X87.451 Y74.985
;WIPE_END
G1 X92.9 Y73.245 Z.6 F9000
G1 Z.2
G1 E1.6 F1800
G1 F600
G3 X93.05 Y73.52 I-.063 J.213 E.01531
G1 X88.95 Y73.52 E.18041
G3 X89.1 Y73.245 I.213 J-.063 E.01531
G1 X92.863 Y73.199 E.1656
G1 X93.209 Y72.772 F9000
;TYPE:Support interface
G1 F600
G3 X93.379 Y73.047 I-.053 J.223 E.01581
G3 X93.529 Y73.401 I-.102 J.252 E.0188
G1 X93.643 Y73.401 E.00503
G1 X93.643 Y73.972 E.02512
G1 X93.529 Y73.972 E.00503
G1 X93.529 Y73.58 E.01726
G1 E-1.6 F2400
;WIPE_START
G1 F600
G1 X93.529 Y73.972
G1 X93.643 Y73.972
G1 X93.643 Y73.401
G1 X93.529 Y73.401
G1 X93.379 Y73.047
G1 X93.209 Y72.772
;WIPE_END
G1 X94.9 Y72.312 Z.6 F9000
G1 Z.2
G1 E1.6 F1800
;TYPE:Support
G1 F600
G2 X95.05 Y72.567 I.203 J.053 E.01448
G1 X95.05 Y78.129 E.24477
G1 X93.65 Y76.729 E.08712
M73 P1 R35
M73 P1 R35
G1 X93.65 Y74.451 E.10027
G1 X94.122 Y74.451 E.02075
G1 X94.122 Y71.533 E.12839
G1 X94.841 Y72.252 E.04476
G1 X94.549 Y76.919 F9000
G1 F600
G1 X94.151 Y76.522 E.02472
G1 X94.151 Y74.952 E.06907
G1 X94.549 Y74.952 E.01748
G1 X94.549 Y76.919 E.08655
G1 E-1.6 F2400
;WIPE_START
G1 F600
G1 X94.549 Y74.952
G1 X94.515 Y74.952
;WIPE_END
G1 X98.878 Y74.451 Z.6 F9000
G1 Z.2
G1 E1.6 F1800
G1 F600
G1 X99.35 Y74.451 E.02075
G1 X99.35 Y76.729 E.10027
G1 X97.95 Y78.129 E.08712
G1 X97.95 Y72.567 E.24477
G3 X98.878 Y71.533 I4.917 J3.482 E.06128
G1 X98.878 Y74.367 E.12471
G1 X98.451 Y76.919 F9000
G1 F600
G1 X98.451 Y74.952 E.08655
G1 X98.849 Y74.952 E.01748
G1 X98.849 Y76.522 E.06907
G1 X98.451 Y76.919 E.02472
G1 E-1.6 F2400
;WIPE_START
G1 F600
G1 X98.849 Y76.522
G1 X98.849 Y75.083
;WIPE_END
G1 X99.357 Y73.58 Z.6 F9000
G1 Z.2
G1 E1.6 F1800
;TYPE:Support interface
G1 F600
G1 X99.357 Y73.972 E.01726
G1 X99.471 Y73.972 E.00503
G1 X99.357 Y72.544 E.06304
G1 X105.071 Y72.544 E.25145
G1 X105.071 Y71.687 E.03772
G1 X99.357 Y71.687 E.25145
G1 X99.357 Y70.83 E.03772
G1 X105.071 Y70.83 E.25145
G1 X105.071 Y69.973 E.03772
G1 X99.357 Y69.973 E.25145
G1 X99.357 Y69.116 E.03772
G1 X105.071 Y69.116 E.25145
G1 X105.071 Y68.259 E.03772
G1 X99.357 Y68.259 E.25145
G1 E-1.6 F2400
;WIPE_START
G1 F600
G1 X101.357 Y68.259
;WIPE_END
G1 X104.267 Y72.83 Z.6 F9000
G1 Z.2
G1 E1.6 F1800
G1 F600
G3 X104.379 Y73.047 I-.053 J.165 E.01194
G3 X104.529 Y73.401 I-.102 J.252 E.0188
G1 X105.071 Y73.401 E.02388
G1 X105.071 Y73.972 E.02512
G1 X104.529 Y73.972 E.02388
G1 X104.529 Y73.58 E.01726
G1 X103.9 Y73.245 F9000
;TYPE:Support
G1 F600
G3 X104.05 Y73.52 I-.063 J.213 E.01531
G1 X99.95 Y73.52 E.18041
G3 X100.1 Y73.245 I.213 J-.063 E.01531
G1 X103.863 Y73.199 E.1656
G1 E-1.6 F2400
;WIPE_START
G1 F600
G1 X101.863 Y73.223
;WIPE_END
G1 X105.9 Y72.312 Z.6 F9000
G1 Z.2
G1 E1.6 F1800
G1 F600
G2 X106.05 Y72.567 I.203 J.053 E.01448
G1 X106.05 Y78.129 E.24477
G1 X104.65 Y76.729 E.08712
G1 X104.65 Y74.451 E.10027
G1 X105.55 Y74.451 E.0396
G1 X105.55 Y71.962 E.10954
G1 X105.841 Y72.252 E.0181
G1 X105.151 Y76.522 F9000
G1 F600
G1 X105.151 Y74.952 E.06907
G1 X105.549 Y74.952 E.01748
G1 X105.549 Y76.919 E.08655
G1 X105.151 Y76.522 E.02472
G1 E-1.6 F2400
;WIPE_START
G1 F9000
G1 X105.549 Y76.919
G1 X105.549 Y75.48
;WIPE_END
G1 X100.406 Y81.121 Z.6
G1 X93.341 Y88.87 Z.6
G1 Z.2
G1 E1.6 F1800
;TYPE:Inner wall
;WIDTH:0.599999
G1 F600
G1 X100.171 Y88.87 E.30059
G1 X100.477 Y88.836 E.01354
G1 X100.827 Y88.706 E.01641
G1 X101.18 Y88.438 E.01952
;WIDTH:0.642788
G1 X101.292 Y88.262 E.00989
;WIDTH:0.685577
G1 X101.404 Y88.085 E.0106
;WIDTH:0.728366
G1 X101.516 Y87.909 E.0113
;WIDTH:0.771155
G1 X101.628 Y87.733 E.01201
G1 X101.643 Y87.477 E.01472
;WIDTH:0.757301
G1 X101.643 Y75.813 E.65822
G1 X102.357 Y75.813 E.04031
G1 X102.357 Y76.17 E.02016
G1 X102.357 Y87.829 E.65791
G1 X102.377 Y87.924 E.00547
;WIDTH:0.717976
G1 X102.397 Y88.019 E.00517
;WIDTH:0.67865
G1 X102.416 Y88.114 E.00487
;WIDTH:0.639325
G1 X102.436 Y88.209 E.00457
;WIDTH:0.599999
G1 X102.436 Y100.336 E.53367
G1 X90.564 Y100.336 E.52242
G1 X90.564 Y88.209 E.53367
M73 P2 R35
;WIDTH:0.642789
M73 P2 R35
G1 X90.586 Y88.105 E.005
;WIDTH:0.685578
G1 X90.607 Y88.002 E.00535
;WIDTH:0.728368
G1 X90.628 Y87.899 E.00571
;WIDTH:0.771157
G1 X90.65 Y87.796 E.00607
G1 X90.643 Y87.477 E.01832
;WIDTH:0.757302
G1 X90.643 Y75.813 E.65822
G1 X91.357 Y75.813 E.04031
G1 X91.357 Y87.708 E.67122
G1 X91.404 Y87.784 E.00504
;WIDTH:0.717977
G1 X91.45 Y87.86 E.00477
;WIDTH:0.678651
G1 X91.497 Y87.937 E.00449
;WIDTH:0.639325
G1 X91.543 Y88.013 E.00421
;WIDTH:0.599999
G1 X91.82 Y88.438 E.02232
G1 X92.173 Y88.706 E.01952
G1 X92.523 Y88.836 E.01641
G1 X92.829 Y88.87 E.01354
G1 X93.301 Y88.87 E.02078
G1 X92.816 Y88.31 F9000
G1 F600
G1 X92.829 Y88.313 E.00057
G1 X100.171 Y88.313 E.32313
G1 X100.565 Y88.215 E.01784
G1 X100.777 Y88.054 E.01171
G1 X100.943 Y87.799 E.01339
G1 X101.007 Y87.477 E.01442
G1 X101.007 Y75.177 E.54126
G1 X102.993 Y75.177 E.08739
G1 X102.993 Y100.893 E1.13163
G1 X90.007 Y100.893 E.57145
G1 X90.007 Y75.177 E1.13163
G1 X91.993 Y75.177 E.08739
G1 X91.993 Y87.477 E.54126
G1 X92.057 Y87.799 E.01442
G1 X92.223 Y88.054 E.01339
G1 X92.435 Y88.215 E.01171
G1 X92.777 Y88.3 E.01551
G1 X92.55 Y87.561 F9000
;TYPE:Outer wall
G1 F600
G1 X92.697 Y87.723 E.00965
G1 X92.829 Y87.756 E.00595
G1 X96.703 Y87.756 E.17048
G1 X100.221 Y87.756 E.15481
G1 X100.373 Y87.669 E.00772
G1 X100.45 Y87.477 E.0091
G1 X100.45 Y74.62 E.56577
G1 X103.55 Y74.62 E.13642
G1 X103.55 Y101.45 E1.18066
G1 X89.45 Y101.45 E.62047
G1 X89.45 Y74.62 E1.18066
G1 X92.55 Y74.62 E.13642
M73 P3 R35
M73 P3 R35
G1 X92.55 Y87.521 E.56769
G1 E-1.6 F2400
;WIPE_START
G1 F9000
G1 X92.697 Y87.723
G1 X92.829 Y87.756
G1 X94.443 Y87.756
;WIPE_END
G1 Z.6
G1 X92.704 Y88.995
G1 Z.6
G1 Z.2
G1 E1.6 F1800
;TYPE:Bottom surface
;WIDTH:0.611131
G1 F1200
G1 X102.046 Y98.336 E.59297
G1 X102.046 Y97.533 E.03607
G1 X93.773 Y89.26 E.52512
G1 X94.577 Y89.26 E.03607
G1 X102.046 Y96.729 E.47411
G1 X102.046 Y95.926 E.03607
G1 X95.38 Y89.26 E.42311
G1 X96.184 Y89.26 E.03607
G1 X102.046 Y95.122 E.3721
G1 X102.046 Y94.318 E.03607
G1 X96.987 Y89.26 E.32109
G1 X97.791 Y89.26 E.03607
G1 X102.046 Y93.515 E.27008
G1 X102.046 Y92.711 E.03607
G1 X98.595 Y89.26 E.21907
G1 X99.398 Y89.26 E.03607
G1 X102.046 Y91.908 E.16807
G1 X102.046 Y91.104 E.03607
G1 X100.199 Y89.258 E.11721
G1 X100.564 Y89.217 E.01648
G1 X100.855 Y89.109 E.0139
G1 X102.046 Y90.301 E.07562
G1 X102.046 Y89.497 E.03607
G1 X101.346 Y88.797 E.04443
G1 X101.464 Y88.707 E.00668
G1 X101.699 Y88.347 E.0193
G1 X102.297 Y88.944 E.03791
G1 X102.157 Y88.335 F9000
;TYPE:Gap infill
;WIDTH:0.214804
G1 F600
G1 X102.019 Y88.128 E.00338
;WIDTH:0.238
G1 X101.881 Y87.921 E.00383
G1 E-1.6 F2400
;WIPE_START
G1 F9000
G1 X102.019 Y88.128
;WIPE_END
G1 X102.207 Y95.758 Z.6
G1 X102.297 Y99.391 Z.6
G1 Z.2
G1 E1.6 F1800
;TYPE:Bottom surface
;WIDTH:0.611131
G1 F1200
G1 X91.008 Y88.102 E.71658
G1 X90.954 Y88.231 E.00628
M73 P3 R34
M73 P3 R34
G1 X90.954 Y88.852 E.02786
G1 X102.046 Y99.946 E.70416
G1 X101.245 Y99.946 E.03594
G1 X90.954 Y89.655 E.65324
G1 X90.954 Y90.459 E.03607
G1 X100.442 Y99.946 E.60223
G1 X99.638 Y99.946 E.03607
G1 X90.954 Y91.262 E.55123
G1 X90.954 Y92.066 E.03607
G1 X98.834 Y99.946 E.50022
G1 X98.031 Y99.946 E.03607
G1 X90.954 Y92.869 E.44921
G1 X90.954 Y93.673 E.03607
G1 X97.227 Y99.946 E.3982
G1 X96.424 Y99.946 E.03607
G1 X90.954 Y94.477 E.34719
G1 X90.954 Y95.28 E.03607
G1 X95.62 Y99.946 E.29619
G1 X94.817 Y99.946 E.03607
G1 X90.954 Y96.084 E.24518
G1 X90.954 Y96.887 E.03607
G1 X94.013 Y99.946 E.19417
G1 X93.209 Y99.946 E.03607
G1 X90.954 Y97.691 E.14316
G1 X90.954 Y98.494 E.03607
G1 X92.406 Y99.946 E.09216
G1 X91.602 Y99.946 E.03607
G1 X90.703 Y99.047 E.05706
; stop printing object Porta Martello id:1705405847168 copy 0
; printing object Cilindro Porta Martello id:0 copy 0
G1 E-1.6 F2400
;WIPE_START
G1 F9000
G1 X91.602 Y99.946
G1 X92.331 Y99.946
;WIPE_END
G1 X95.958 Y106.662 Z.6
G1 X99.692 Y113.574 Z.6
G1 Z.2
G1 E1.6 F1800
;TYPE:Inner wall
;WIDTH:0.599999
G1 F600
G1 X99.714 Y113.537 E.00187
G1 X100.059 Y113.192 E.02148
G1 X100.477 Y112.94 E.02148
G1 X100.941 Y112.795 E.02142
G1 X101.434 Y112.766 E.02172
G1 X101.91 Y112.853 E.02128
G1 X102.355 Y113.053 E.02148
G1 X102.739 Y113.354 E.02148
G1 X103.04 Y113.739 E.02147
G1 X103.24 Y114.184 E.02148
G1 X103.328 Y114.664 E.02148
G1 X103.299 Y115.149 E.02142
G1 X103.151 Y115.621 E.02172
G1 X102.901 Y116.034 E.02128
G1 X102.556 Y116.379 E.02148
G1 X102.138 Y116.632 E.02147
G1 X101.672 Y116.777 E.02148
G1 X101.185 Y116.806 E.02148
G1 X100.705 Y116.719 E.02147
G1 X100.26 Y116.518 E.02148
G1 X99.876 Y116.217 E.02148
G1 X99.575 Y115.833 E.02148
G1 X99.375 Y115.388 E.02148
G1 X99.287 Y114.908 E.02147
G1 X99.316 Y114.421 E.02148
G1 X99.462 Y113.955 E.02148
G1 X99.671 Y113.608 E.01785
G1 X98.943 Y113.747 F9000
G1 F600
G1 X98.95 Y113.725 E.00103
G1 X99.272 Y113.191 E.02743
G1 X99.713 Y112.751 E.02743
G1 X100.246 Y112.428 E.02743
G1 X100.841 Y112.243 E.02739
G1 X101.469 Y112.206 E.02768
G1 X102.077 Y112.317 E.02721
G1 X102.645 Y112.573 E.02743
G1 X103.136 Y112.958 E.02743
G1 X103.52 Y113.448 E.02743
G1 X103.776 Y114.017 E.02743
G1 X103.888 Y114.63 E.02743
G1 X103.851 Y115.251 E.02739
G1 X103.663 Y115.851 E.02768
G1 X103.343 Y116.38 E.02721
G1 X102.902 Y116.821 E.02743
G1 X102.369 Y117.144 E.02743
G1 X101.774 Y117.329 E.02743
G1 X101.151 Y117.367 E.02743
M73 P4 R34
M73 P4 R34
G1 X100.538 Y117.254 E.02743
G1 X99.97 Y116.998 E.02743
G1 X99.479 Y116.614 E.02743
G1 X99.095 Y116.123 E.02743
G1 X98.839 Y115.555 E.02743
G1 X98.727 Y114.942 E.02743
G1 X98.764 Y114.32 E.02743
G1 X98.931 Y113.785 E.02464
G1 X98.212 Y114.219 F9000
;TYPE:Outer wall
G1 F600
G1 X98.438 Y113.494 E.03338
G1 X98.83 Y112.845 E.03338
G1 X99.367 Y112.309 E.03338
G1 X100.016 Y111.916 E.03338
G1 X100.74 Y111.691 E.03337
G1 X101.503 Y111.646 E.03363
G1 X102.244 Y111.782 E.03314
G1 X102.935 Y112.093 E.03338
G1 X103.533 Y112.561 E.03338
G1 X104 Y113.158 E.03338
G1 X104.312 Y113.85 E.03338
G1 X104.448 Y114.596 E.03338
G1 X104.403 Y115.353 E.03337
G1 X104.174 Y116.082 E.03363
G1 X103.785 Y116.726 E.03314
G1 X103.248 Y117.263 E.03338
G1 X102.599 Y117.655 E.03338
G1 X101.875 Y117.881 E.03338
G1 X101.118 Y117.927 E.03338
G1 X100.371 Y117.79 E.03338
G1 X99.68 Y117.479 E.03338
G1 X99.082 Y117.011 E.03338
G1 X98.615 Y116.414 E.03338
G1 X98.303 Y115.722 E.03338
G1 X98.167 Y114.976 E.03338
G1 X98.21 Y114.259 E.03162
G1 E-1.6 F2400
;WIPE_START
G1 F9000
G1 X98.438 Y113.494
G1 X98.83 Y112.845
G1 X99.144 Y112.531
;WIPE_END
G1 X100.876 Y116.608 Z.6
G1 Z.2
G1 E1.6 F1800
;TYPE:Bottom surface
;WIDTH:0.680292
G1 F1200
G1 X99.959 Y115.691 E.06532
G3 X99.679 Y114.884 I1.587 J-1.003 E.04337
G1 X99.7 Y114.531 E.01783
G1 X101.563 Y116.393 E.13259
G1 X101.602 Y116.391 E.00197
G1 X101.977 Y116.274 E.0198
G1 X102.206 Y116.135 E.01347
G1 X99.958 Y113.887 E.16006
G1 X100.023 Y113.78 E.00633
G1 X100.301 Y113.501 E.0198
G1 X100.409 Y113.436 E.00633
G1 X102.657 Y115.684 E.16006
G1 X102.793 Y115.459 E.01327
G1 X102.915 Y115.041 E.02192
G1 X101.053 Y113.179 E.13257
G1 X101.41 Y113.158 E.01803
G1 X101.793 Y113.228 E.01959
G1 X102.152 Y113.39 E.0198
G1 X103.13 Y114.355 E.0692
; stop printing object Cilindro Porta Martello id:0 copy 0
; printing object Martello id:1705409966336 copy 0
G1 E-1.6 F2400
;WIPE_START
G1 F9000
G1 X102.152 Y113.39
G1 X101.793 Y113.228
G1 X101.565 Y113.186
;WIPE_END
G1 X105.755 Y119.566 Z.6
G1 X129.436 Y155.62 Z.6
G1 Z.2
G1 E1.6 F1800
;TYPE:Inner wall
;WIDTH:0.599999
G1 F600
G1 X129.436 Y161.288 E.2494
G1 X129.363 Y161.606 E.01436
G1 X129.211 Y161.756 E.00939
G1 X128.897 Y161.826 E.01414
G1 X118.14 Y161.826 E.47337
G1 X117.789 Y161.756 E.01577
G1 X117.634 Y161.601 E.00962
G1 X117.564 Y161.288 E.01415
G1 X117.564 Y152.694 E.37815
;WIDTH:0.640318
G1 X117.584 Y152.595 E.00479
;WIDTH:0.680637
G1 X117.604 Y152.496 E.00511
;WIDTH:0.720956
G1 X117.625 Y152.396 E.00544
;WIDTH:0.761275
G1 X117.645 Y152.297 E.00576
;WIDTH:0.801594
G1 X117.665 Y152.197 E.00608
G1 X117.643 Y151.401 E.0477
;WIDTH:0.757302
G1 X117.643 Y135.259 E.91093
;WIDTH:0.801594
G1 X117.665 Y134.583 E.04052
G1 X117.645 Y134.484 E.00608
;WIDTH:0.761275
G1 X117.625 Y134.384 E.00576
;WIDTH:0.720956
G1 X117.604 Y134.285 E.00544
;WIDTH:0.680637
G1 X117.584 Y134.185 E.00511
;WIDTH:0.640318
G1 X117.564 Y134.086 E.00479
;WIDTH:0.599999
G1 X117.564 Y131.347 E.12053
G1 X117.594 Y130.276 E.04715
G1 X117.701 Y130.092 E.00939
G1 X117.871 Y129.99 E.0087
G1 X119.004 Y129.875 E.05008
G2 X121.78 Y127.134 I-.724 J-3.51 E.18151
G1 X121.864 Y126.402 E.03246
G1 X121.864 Y62.24 E2.82344
G1 X125.136 Y62.24 E.14397
G1 X125.136 Y126.496 E2.82759
G1 X125.222 Y127.127 E.02803
M73 P5 R34
M73 P5 R34
G2 X127.104 Y129.569 I3.552 J-.793 E.1401
G1 X127.725 Y129.819 E.02947
G2 X129.211 Y130.024 I2.973 J-16.056 E.06603
G1 X129.366 Y130.179 E.00962
