;TIME:4377.80
;Filament used:8.55022m
;Layer height:0.200
; HEADER_BLOCK_START
; generated by Creality_Print V6.0.5.1840 on 2025-06-28 at 18:10:52
; total layer number: 34
; filament_density: 1.24
; filament_diameter: 1.75
; max_z_height: 6.00
; HEADER_BLOCK_END

; MINX = 58.00
; MINY = 65.20
; MINZ = 0.00
; MAXX = 162.00
; MAXY = 154.80
; MAXZ = 6.00

; THUMBNAIL_BLOCK_START

;
; THUMBNAIL_BLOCK_END

; THUMBNAIL_BLOCK_START

;
; THUMBNAIL_BLOCK_END

; external perimeters extrusion width = 0.42mm
; perimeters extrusion width = 0.45mm
; infill extrusion width = 0.45mm
; solid infill extrusion width = 0.42mm
; top infill extrusion width = 0.42mm
; support material extrusion width = 0.40mm
; first layer extrusion width = 0.60mm

; EXECUTABLE_BLOCK_START
M73 P0 R72
M201 X5000 Y5000 Z500 E5000
M203 X500 Y500 Z30 E100
M204 P5000 R2500 T5000 ; sets acceleration (P, T) and retract acceleration (R), mm/sec^2
M205 X10.00 Y10.00 Z0.40 E5.00 ; sets the jerk limits, mm/sec
;TYPE:Custom
M220 S100 ;Reset Feedrate 
M221 S100 ;Reset Flowrate 
 
M140 S75 ;Set final bed temp 
G28 ;Home 
 
G92 E0 ;Reset Extruder 
G1 Z2.0 F3000 ;Move Z Axis up 
M104 S200 ;Set final nozzle temp 
G1 X-2.1 Y20 Z0.28 F5000.0 ;Move to start position 
M190 S75 ;Wait for bed temp to stabilize 
M109 S200 ;Wait for nozzle temp to stabilize 
G1 X-2.1 Y145.0 Z0.28 F1500.0 E15 ;Draw the first line 
G1 X-2.4 Y145.0 Z0.28 F5000.0 ;Move to side a little 
G1 X-2.4 Y20 Z0.28 F1500.0 E30 ;Draw the second line 
G92 E0  ;Reset Extruder 
G1 E-1.0000 F1800 ;Retract a bit 
G1 Z2.0 F3000 ;Move Z Axis up 
G1 E0.0000 F1800
G90
G21
M83 ; use relative distances for extrusion
" "
G1 E-1.6 F2400
M106 S0
;LAYER_CHANGE
;Z:0.2
;HEIGHT:0.2
;BEFORE_LAYER_CHANGE
;0.2
G92 E0

;_SET_FAN_SPEED_CHANGING_LAYER
M204 P125
M205 X10 Y10
; printing object Lateral Cassa Armonica id:78532712521924886 copy 0
M204 T125
G1 Z.4 F9000
G1 X59.35 Y100.45
G1 Z.2
G1 E1.6 F1800
;TYPE:Support
;WIDTH:0.6
G1 F600
G1 X53.837 Y100.45 E.2426
G1 X53.837 Y85.265 E.66823
G1 X59.35 Y85.265 E.2426
G1 X59.35 Y100.367 E.66455
G1 X58.849 Y99.949 F9000
G1 F600
G1 X54.338 Y99.949 E.19847
G1 X54.338 Y85.766 E.6241
G1 X58.849 Y85.766 E.19847
G1 X58.849 Y99.949 E.6241
G1 X58.23 Y99.33 F9000
G1 F600
G1 X54.957 Y99.33 E.144
G1 X54.957 Y86.385 E.56963
G1 X58.23 Y86.385 E.144
G1 X58.23 Y99.33 E.56963
G1 X57.611 Y98.711 F9000
G1 F600
G1 X55.576 Y98.711 E.08952
G1 X55.576 Y87.004 E.51515
G1 X57.611 Y87.004 E.08952
G1 X57.611 Y98.711 E.51515
G1 X56.992 Y98.092 F9000
G1 F600
G1 X56.195 Y98.092 E.03504
G1 X56.195 Y87.623 E.46067
G1 X56.992 Y87.623 E.03504
G1 X56.992 Y98.092 E.46067
G1 E-1.6 F2400
;WIPE_START
G1 F600
G1 X56.992 Y96.092
;WIPE_END
G1 X64.187 Y98.639 Z.6 F9000
G1 X166.163 Y134.735 Z.6
G1 Z.2
G1 E1.6 F1800
G1 F600
G1 X160.65 Y134.735 E.2426
G1 X160.65 Y119.55 E.66823
G1 X166.163 Y119.55 E.2426
G1 X166.163 Y134.652 E.66455
G1 X161.151 Y120.051 F9000
G1 F600
G1 X165.662 Y120.051 E.19847
G1 X165.662 Y134.234 E.6241
G1 X161.151 Y134.234 E.19847
G1 X161.151 Y120.051 E.6241
G1 X161.77 Y120.67 F9000
G1 F600
G1 X165.043 Y120.67 E.144
G1 X165.043 Y133.615 E.56963
G1 X161.77 Y133.615 E.144
G1 X161.77 Y120.67 E.56963
G1 X162.389 Y121.289 F9000
G1 F600
G1 X164.424 Y121.289 E.08952
G1 X164.424 Y132.996 E.51515
M73 P1 R72
M73 P1 R72
G1 X162.389 Y132.996 E.08952
G1 X162.389 Y121.289 E.51515
G1 X163.008 Y121.908 F9000
G1 F600
G1 X163.805 Y121.908 E.03504
G1 X163.805 Y132.377 E.46067
G1 X163.008 Y132.377 E.03504
G1 X163.008 Y121.908 E.46067
G1 E-1.6 F2400
;WIPE_START
G1 F9000
G1 X163.008 Y123.908
;WIPE_END
G1 X158.224 Y117.961 Z.6
G1 X124.924 Y76.564 Z.6
G1 Z.2
G1 E1.6 F1800
;TYPE:Inner wall
;WIDTH:0.599999
G1 F600
G1 X145.181 Y76.564 E.89141
G1 X145.627 Y76.466 E.02009
G1 X146.01 Y76.238 E.01963
G1 X146.269 Y75.95 E.01702
G1 X146.489 Y75.493 E.02234
G1 X146.586 Y75.116 E.01714
G1 X146.547 Y74.598 E.02286
G1 X146.421 Y74.286 E.01477
G1 X146.186 Y73.974 E.0172
G1 X143.771 Y71.563 E.15019
G1 X158.436 Y71.564 E.64533
G1 X158.436 Y148.436 E3.38276
G1 X139.603 Y148.436 E.82876
M73 P1 R71
M73 P1 R71
G1 X139.226 Y148.488 E.01675
G1 X138.816 Y148.679 E.01989
G1 X138.496 Y148.984 E.01945
G1 X138.316 Y149.296 E.01584
G1 X138.149 Y149.769 E.02207
G2 X138.282 Y150.689 I1.516 J.25 E.04157
G1 X138.531 Y151.026 E.01842
G1 X140.746 Y153.238 E.13777
G1 X129.256 Y153.236 E.50561
G1 X131.469 Y151.026 E.13765
G1 X131.718 Y150.689 E.01842
G2 X131.851 Y149.769 I-1.383 J-.67 E.04157
G1 X131.684 Y149.296 E.02207
G1 X131.504 Y148.984 E.01584
G1 X131.184 Y148.679 E.01945
G1 X130.834 Y148.506 E.0172
G1 X130.397 Y148.436 E.01944
G1 X93.772 Y148.436 E1.6117
G1 X96.186 Y146.026 E.15011
G1 X96.425 Y145.706 E.01757
G1 X96.551 Y145.388 E.01503
G1 X96.584 Y144.864 E.02311
G1 X96.489 Y144.507 E.01624
G1 X96.234 Y144 E.025
G1 X95.959 Y143.721 E.01723
G1 X95.563 Y143.51 E.01975
G1 X95.115 Y143.436 E.01999
G1 X74.819 Y143.436 E.89313
G1 X74.373 Y143.534 E.02009
G1 X73.99 Y143.762 E.01963
G1 X73.731 Y144.05 E.01702
G1 X73.511 Y144.507 E.02234
G1 X73.414 Y144.885 E.01714
G1 X73.453 Y145.402 E.02286
G1 X73.579 Y145.714 E.01477
G1 X73.814 Y146.026 E.01719
G1 X76.23 Y148.438 E.15024
G1 X61.564 Y148.436 E.64537
G1 X61.564 Y71.564 E3.38277
G1 X80.49 Y71.564 E.83283
G1 X80.946 Y71.452 E.02067
G1 X81.329 Y71.207 E.01998
G1 X81.598 Y70.878 E.01871
G2 X81.872 Y70.081 I-1.996 J-1.134 E.03731
G1 X81.841 Y69.644 E.0193
G1 X81.718 Y69.311 E.01561
G1 X81.469 Y68.974 E.01842
G1 X79.254 Y66.762 E.13777
G1 X90.744 Y66.764 E.50561
G1 X88.531 Y68.974 E.13765
G1 X88.282 Y69.311 E.01842
G2 X88.149 Y70.231 I1.383 J.67 E.04157
G1 X88.316 Y70.704 E.02207
G1 X88.496 Y71.016 E.01584
G1 X88.816 Y71.321 E.01945
G1 X89.166 Y71.494 E.0172
G1 X89.603 Y71.564 E.01944
G1 X126.228 Y71.564 E1.6117
G1 X123.814 Y73.974 E.15011
M73 P2 R71
M73 P2 R71
G1 X123.575 Y74.294 E.01757
G1 X123.449 Y74.612 E.01503
G1 X123.416 Y75.136 E.02311
G1 X123.511 Y75.493 E.01624
G1 X123.766 Y76 E.025
G1 X124.041 Y76.279 E.01723
G1 X124.437 Y76.49 E.01975
G1 X124.884 Y76.564 E.01995
G1 X124.621 Y75.95 F9000
G1 F600
G1 X124.885 Y76.007 E.01189
G1 X145.156 Y76.007 E.89199
G1 X145.479 Y75.923 E.01473
G1 X145.759 Y75.703 E.01566
G1 X145.979 Y75.267 E.02148
G1 X146.036 Y74.91 E.01591
G1 X145.934 Y74.556 E.01625
G1 X145.793 Y74.368 E.01032
G1 X142.789 Y71.369 E.18679
G1 X142.365 Y70.971 E.0256
G1 X142.999 Y71.006 E.02796
G1 X158.993 Y71.007 E.7038
G1 X158.993 Y148.993 E3.43179
G1 X139.523 Y148.993 E.85677
G1 X139.199 Y149.097 E.015
G1 X138.938 Y149.322 E.01512
G1 X138.743 Y149.72 E.01955
G1 X138.679 Y150.054 E.01494
G1 X138.775 Y150.429 E.01705
G1 X138.924 Y150.631 E.01105
G1 X141.77 Y153.473 E.17697
G1 X142.178 Y153.831 E.02389
G1 X141.59 Y153.795 E.02595
G1 X128.899 Y153.793 E.55845
G2 X127.84 Y153.815 I.953 J71.551 E.04661
G1 X128.249 Y153.454 E.02401
G1 X131.076 Y150.631 E.17577
G2 X131.299 Y150.23 I-.591 J-.591 E.02049
G1 X131.305 Y149.877 E.01552
G1 X131.169 Y149.509 E.01727
G1 X131.007 Y149.257 E.01319
G1 X130.726 Y149.06 E.01507
G1 X130.397 Y148.993 E.01478
G1 X93.474 Y148.993 E1.62484
G1 X92.381 Y149.014 E.04807
G1 X92.709 Y148.71 E.01964
G1 X95.793 Y145.632 E.19176
G2 X96.031 Y144.935 I-.654 J-.613 E.03341
G1 X95.887 Y144.509 E.01979
G1 X95.724 Y144.257 E.01321
G1 X95.458 Y144.067 E.0144
G1 X95.115 Y143.993 E.01544
G1 X74.844 Y143.993 E.89199
G1 X74.521 Y144.077 E.01473
G1 X74.241 Y144.297 E.01566
G1 X74.021 Y144.733 E.02148
G1 X73.964 Y145.09 E.01591
G1 X74.066 Y145.444 E.01625
G1 X74.207 Y145.632 E.01032
G1 X77.267 Y148.687 E.19029
G1 X77.636 Y149.03 E.02214
G1 X77.074 Y148.995 E.02476
G1 X61.007 Y148.993 E.70703
G1 X61.007 Y71.007 E3.43179
G1 X80.477 Y71.007 E.85677
M73 P2 R70
M73 P2 R70
G1 X80.801 Y70.903 E.015
G1 X81.062 Y70.678 E.01512
G1 X81.257 Y70.28 E.01955
G1 X81.321 Y69.946 E.01494
G1 X81.225 Y69.571 E.01705
G1 X81.076 Y69.369 E.01105
G1 X78.23 Y66.527 E.17697
G1 X77.822 Y66.169 E.0239
G1 X78.41 Y66.205 E.02595
G1 X91.101 Y66.207 E.55845
G2 X92.16 Y66.185 I-.953 J-71.534 E.04661
G1 X91.751 Y66.546 E.02401
G1 X88.924 Y69.369 E.17577
G2 X88.682 Y70.033 I.665 J.618 E.03195
G1 X88.831 Y70.491 E.02121
G1 X88.993 Y70.743 E.01319
G1 X89.274 Y70.94 E.01507
G1 X89.603 Y71.007 E.01478
G1 X126.526 Y71.007 E1.62484
G1 X127.619 Y70.986 E.04807
M73 P3 R70
M73 P3 R70
G1 X127.291 Y71.29 E.01964
G1 X124.207 Y74.368 E.19176
G2 X123.969 Y75.065 I.654 J.613 E.03341
G1 X124.113 Y75.491 E.01979
G1 X124.276 Y75.743 E.01321
G1 X124.542 Y75.933 E.0144
G1 X124.582 Y75.942 E.00179
G1 X124.529 Y75.034 F9000
;TYPE:Outer wall
G1 F600
G1 X124.701 Y75.38 E.01697
G1 X124.885 Y75.45 E.0087
G1 X145.195 Y75.45 E.89373
G1 X145.36 Y75.304 E.0097
G1 X145.48 Y74.943 E.01672
G1 X145.399 Y74.763 E.00872
G1 X142.315 Y71.684 E.19176
G1 X141.94 Y71.338 E.02246
G1 X141.198 Y70.774 E.04102
G1 X140.724 Y70.3 E.02947
G1 X141.446 Y70.3 E.03176
G2 X142.999 Y70.448 I1.669 J-9.262 E.06875
G1 X159.55 Y70.45 E.72831
G1 X159.55 Y149.55 E3.48082
G1 X139.536 Y149.55 E.88074
G1 X139.363 Y149.687 E.00972
G1 X139.236 Y150.045 E.01669
G1 X139.318 Y150.237 E.0092
G1 X142.151 Y153.066 E.17617
G1 X142.879 Y153.704 E.04261
G1 X143.295 Y154.002 E.02249
G1 X143.793 Y154.5 E.03101
G1 X143.079 Y154.5 E.03142
G1 X142.585 Y154.415 E.02204
G1 X141.59 Y154.352 E.0439
G1 X128.809 Y154.35 E.5624
G1 X127.884 Y154.369 E.04073
G1 X126.927 Y154.5 E.04251
G1 X126.207 Y154.5 E.03166
G1 X126.741 Y153.977 E.0329
G2 X127.856 Y153.06 I-8.273 J-11.198 E.06354
G1 X130.682 Y150.237 E.17577
G1 X130.756 Y150.103 E.00674
G1 X130.742 Y149.934 E.0075
G1 X130.584 Y149.621 E.01542
G1 X130.397 Y149.55 E.00878
G1 X93.477 Y149.55 E1.62468
G1 X92.447 Y149.566 E.04533
G1 X91.472 Y149.7 E.04334
G1 X90.724 Y149.7 E.03288
G1 X91.198 Y149.226 E.02947
G1 X91.94 Y148.662 E.04102
G1 X92.315 Y148.316 E.02247
G1 X95.399 Y145.237 E.19176
G2 X95.471 Y144.966 I-.197 J-.197 E.01296
G1 X95.299 Y144.62 E.01697
G1 X95.115 Y144.55 E.0087
G1 X74.805 Y144.55 E.89373
G1 X74.64 Y144.696 E.0097
G1 X74.52 Y145.057 E.01672
G1 X74.601 Y145.237 E.00872
G1 X77.685 Y148.316 E.19176
G1 X78.06 Y148.662 E.02247
G1 X78.802 Y149.226 E.04102
G1 X79.276 Y149.7 E.02947
G1 X78.538 Y149.696 E.03244
G2 X77.074 Y149.552 I-2.01 J12.968 E.06479
G1 X60.45 Y149.55 E.73154
G1 X60.45 Y70.45 E3.48082
G1 X80.464 Y70.45 E.88074
G1 X80.637 Y70.313 E.00972
G1 X80.764 Y69.955 E.01669
G1 X80.682 Y69.763 E.0092
G1 X77.849 Y66.934 E.17617
G1 X77.121 Y66.296 E.04261
G1 X76.705 Y65.998 E.02249
G1 X76.207 Y65.5 E.03101
G1 X76.921 Y65.5 E.03142
G1 X77.415 Y65.585 E.02204
G1 X78.41 Y65.648 E.0439
G1 X91.191 Y65.65 E.5624
G1 X92.116 Y65.631 E.04073
G1 X93.073 Y65.5 E.04251
G1 X93.793 Y65.5 E.03166
G1 X93.259 Y66.023 E.0329
G2 X92.144 Y66.94 I8.274 J11.198 E.06354
G1 X89.318 Y69.763 E.17577
G1 X89.244 Y69.897 E.00674
G1 X89.258 Y70.066 E.0075
G1 X89.416 Y70.379 E.01542
G1 X89.603 Y70.45 E.00878
G1 X126.523 Y70.45 E1.62468
G1 X127.553 Y70.434 E.04533
M73 P4 R69
M73 P4 R69
G1 X128.528 Y70.3 E.04334
G1 X129.276 Y70.3 E.03288
G1 X128.802 Y70.774 E.02947
G1 X128.06 Y71.338 E.04102
G1 X127.685 Y71.684 E.02247
G1 X124.601 Y74.763 E.19176
G2 X124.521 Y74.995 I.197 J.197 E.01121
G1 E-1.6 F2400
;WIPE_START
G1 F9000
G1 X124.701 Y75.38
G1 X124.885 Y75.45
G1 X126.264 Y75.45
;WIPE_END
G1 Z.6
G1 X123.125 Y75.217
G1 Z.6
G1 Z.2
G1 E1.6 F1800
;TYPE:Gap infill
;WIDTH:0.114209
G1 F600
G3 X123.044 Y75.055 I1.976 J-1.084 E.00102
G1 E-1.6 F2400
;WIPE_START
G1 F9000
G1 X123.125 Y75.217
;WIPE_END
G1 X125.306 Y72.288 Z.6
G1 Z.2
G1 E1.6 F1800
;TYPE:Bottom surface
;WIDTH:0.602464
G1 F1200
G1 X124.972 Y71.954 E.02086
G1 X124.181 Y71.954 E.03498
G1 X124.733 Y72.506 E.03449
G1 X124.337 Y72.901 E.02473
G1 X123.389 Y71.954 E.0592
G1 X122.598 Y71.954 E.03498
G1 X123.941 Y73.296 E.08391
G1 X123.545 Y73.692 E.02473
G1 X121.807 Y71.954 E.10863
G1 X121.016 Y71.954 E.03498
G1 X123.214 Y74.152 E.13739
G1 X123.071 Y74.513 E.01715
G1 X123.034 Y74.763 E.01119
G1 X120.224 Y71.954 E.17561
G1 X119.433 Y71.954 E.03498
G1 X158.046 Y110.567 E2.41363
G1 X158.046 Y109.776 E.03498
G1 X125.221 Y76.951 E2.05184
G1 X126.012 Y76.951 E.03498
G1 X158.046 Y108.984 E2.00236
G1 X158.046 Y108.193 E.03498
G1 X126.804 Y76.951 E1.95289
G1 X127.595 Y76.951 E.03498
G1 X158.046 Y107.402 E1.90342
G1 X158.046 Y106.61 E.03498
G1 X128.387 Y76.951 E1.85395
G1 X129.178 Y76.951 E.03498
G1 X158.046 Y105.819 E1.80447
G1 X158.046 Y105.028 E.03498
G1 X129.97 Y76.951 E1.755
G1 X130.761 Y76.952 E.03498
G1 X158.046 Y104.237 E1.70553
G1 X158.046 Y103.445 E.03498
G1 X131.552 Y76.952 E1.65606
G1 X132.344 Y76.952 E.03498
G1 X158.046 Y102.654 E1.60659
G1 X158.046 Y101.863 E.03498
G1 X133.135 Y76.952 E1.55711
G1 X133.927 Y76.952 E.03498
G1 X158.046 Y101.071 E1.50764
G1 X158.046 Y100.28 E.03498
G1 X134.718 Y76.952 E1.45817
G1 X135.51 Y76.952 E.03498
G1 X158.046 Y99.489 E1.4087
G1 X158.046 Y98.697 E.03498
G1 X136.301 Y76.953 E1.35922
G1 X137.093 Y76.953 E.03498
G1 X158.046 Y97.906 E1.30975
G1 X158.046 Y97.115 E.03498
G1 X137.884 Y76.953 E1.26028
G1 X138.676 Y76.953 E.03498
G1 X158.046 Y96.323 E1.21081
G1 X158.046 Y95.532 E.03498
M73 P5 R69
M73 P5 R69
G1 X139.467 Y76.953 E1.16134
G1 X140.258 Y76.953 E.03498
G1 X158.046 Y94.741 E1.11186
G1 X158.046 Y93.949 E.03498
G1 X141.05 Y76.953 E1.06239
G1 X141.841 Y76.954 E.03498
G1 X158.046 Y93.158 E1.01292
G1 X158.046 Y92.367 E.03498
G1 X142.633 Y76.954 E.96345
G1 X143.424 Y76.954 E.03498
G1 X158.046 Y91.575 E.91397
G1 X158.046 Y90.784 E.03498
G1 X144.216 Y76.954 E.8645
G1 X145.007 Y76.954 E.03498
G1 X158.046 Y89.993 E.81503
G1 X158.046 Y89.202 E.03498
G1 X145.695 Y76.851 E.77202
G1 X145.772 Y76.829 E.00353
G1 X146.139 Y76.631 E.01842
G1 X146.208 Y76.573 E.00402
G1 X158.046 Y88.41 E.73995
G1 X158.046 Y87.619 E.03498
G1 X146.594 Y76.167 E.71585
G2 X146.846 Y75.628 I-1.865 J-1.202 E.02638
G1 X158.046 Y86.828 E.70007
G1 X158.046 Y86.036 E.03498
G1 X146.979 Y74.97 E.69176
G1 X146.982 Y74.854 E.00513
G1 X146.924 Y74.495 E.01606
G1 X146.763 Y74.096 E.019
G1 X146.467 Y73.704 E.02172
G1 X144.714 Y71.953 E.10954
G1 X144.754 Y71.953 E.00177
G1 X158.046 Y85.245 E.83087
G1 X158.046 Y84.454 E.03498
G1 X145.545 Y71.953 E.7814
G1 X146.336 Y71.953 E.03498
G1 X158.046 Y83.662 E.73194
G1 X158.046 Y82.871 E.03498
G1 X147.128 Y71.953 E.68247
G1 X147.919 Y71.953 E.03498
G1 X158.046 Y82.08 E.633
G1 X158.046 Y81.288 E.03498
M73 P5 R68
M73 P5 R68
G1 X148.711 Y71.953 E.58353
G1 X149.502 Y71.953 E.03498
G1 X158.046 Y80.497 E.53406
G1 X158.046 Y79.706 E.03498
G1 X150.293 Y71.953 E.4846
G1 X151.085 Y71.953 E.03498
G1 X158.046 Y78.914 E.43513
G1 X158.046 Y78.123 E.03498
G1 X151.876 Y71.953 E.38566
G1 X152.668 Y71.953 E.03498
G1 X158.046 Y77.332 E.33619
G1 X158.046 Y76.541 E.03498
G1 X153.459 Y71.954 E.28672
G1 X154.25 Y71.954 E.03498
G1 X158.046 Y75.749 E.23726
G1 X158.046 Y74.958 E.03498
G1 X155.042 Y71.954 E.18779
G1 X155.833 Y71.954 E.03498
G1 X158.046 Y74.167 E.13832
G1 X158.046 Y73.375 E.03498
G1 X156.624 Y71.954 E.08885
G1 X157.416 Y71.954 E.03498
G1 X158.297 Y72.835 E.05505
G1 E-1.6 F2400
;WIPE_START
G1 F9000
G1 X157.416 Y71.954
G1 X156.661 Y71.954
;WIPE_END
G1 X156.976 Y79.58 Z.6
G1 X158.297 Y111.609 Z.6
G1 Z.2
G1 E1.6 F1800
G1 F1200
G1 X118.642 Y71.954 E2.47876
G1 X117.85 Y71.954 E.03498
G1 X158.046 Y112.15 E2.51256
G1 X158.046 Y112.941 E.03498
G1 X117.059 Y71.954 E2.56202
G1 X116.268 Y71.954 E.03498
G1 X158.046 Y113.732 E2.61148
G1 X158.046 Y114.524 E.03498
G1 X115.476 Y71.954 E2.66095
G1 X114.685 Y71.954 E.03498
G1 X158.046 Y115.315 E2.71041
G1 X158.046 Y116.106 E.03498
M73 P6 R68
M73 P6 R68
G1 X113.894 Y71.954 E2.75987
G1 X113.102 Y71.954 E.03498
G1 X158.046 Y116.898 E2.80934
G1 X158.046 Y117.689 E.03498
G1 X112.311 Y71.954 E2.8588
G1 X111.52 Y71.954 E.03498
G1 X158.046 Y118.48 E2.90826
G1 X158.046 Y119.272 E.03498
G1 X110.728 Y71.954 E2.95773
G1 X109.937 Y71.954 E.03498
G1 X158.046 Y120.063 E3.00719
G1 X158.046 Y120.854 E.03498
G1 X109.146 Y71.954 E3.05665
G1 X108.355 Y71.954 E.03498
G1 X158.046 Y121.645 E3.10612
G1 X158.046 Y122.437 E.03498
G1 X107.563 Y71.954 E3.15558
G1 X106.772 Y71.954 E.03498
G1 X158.046 Y123.228 E3.20504
G1 X158.046 Y124.019 E.03498
M73 P6 R67
M73 P6 R67
G1 X105.981 Y71.954 E3.25451
