;TIME:3883.39
;Filament used:7.93382m
;Layer height:0.200
; HEADER_BLOCK_START
; generated by Creality_Print V6.0.5.1840 on 2025-07-23 at 14:50:27
; total layer number: 30
; filament_density: 1.24
; filament_diameter: 1.75
; max_z_height: 6.00
; HEADER_BLOCK_END

; MINX = 56.00
; MINY = 65.20
; MINZ = 0.00
; MAXX = 164.00
; MAXY = 154.80
; MAXZ = 6.05

; THUMBNAIL_BLOCK_START

;
; THUMBNAIL_BLOCK_END

; THUMBNAIL_BLOCK_START

;
; THUMBNAIL_BLOCK_END

; external perimeters extrusion width = 0.42mm
; perimeters extrusion width = 0.45mm
; infill extrusion width = 0.45mm
; solid infill extrusion width = 0.42mm
; top infill extrusion width = 0.42mm
; support material extrusion width = 0.40mm
; first layer extrusion width = 0.60mm

; EXECUTABLE_BLOCK_START
M73 P0 R64
M201 X5000 Y5000 Z500 E5000
M203 X500 Y500 Z30 E100
M204 P5000 R2500 T5000 ; sets acceleration (P, T) and retract acceleration (R), mm/sec^2
M205 X10.00 Y10.00 Z0.40 E5.00 ; sets the jerk limits, mm/sec
;TYPE:Custom
M220 S100 ;Reset Feedrate 
M221 S100 ;Reset Flowrate 
 
M140 S75 ;Set final bed temp 
G28 ;Home 
 
G92 E0 ;Reset Extruder 
G1 Z2.0 F3000 ;Move Z Axis up 
M104 S200 ;Set final nozzle temp 
G1 X-2.1 Y20 Z0.28 F5000.0 ;Move to start position 
M190 S75 ;Wait for bed temp to stabilize 
M109 S200 ;Wait for nozzle temp to stabilize 
G1 X-2.1 Y145.0 Z0.28 F1500.0 E15 ;Draw the first line 
G1 X-2.4 Y145.0 Z0.28 F5000.0 ;Move to side a little 
G1 X-2.4 Y20 Z0.28 F1500.0 E30 ;Draw the second line 
G92 E0  ;Reset Extruder 
G1 E-1.0000 F1800 ;Retract a bit 
G1 Z2.0 F3000 ;Move Z Axis up 
G1 E0.0000 F1800
G90
G21
M83 ; use relative distances for extrusion
" "
G1 E-1.6 F2400
M106 S0
;LAYER_CHANGE
;Z:0.2
;HEIGHT:0.2
;BEFORE_LAYER_CHANGE
;0.2
G92 E0

;_SET_FAN_SPEED_CHANGING_LAYER
M204 P125
M205 X10 Y10
; printing object Lateral Cassa Armonica id:0 copy 0
M204 T125
G1 Z.4 F9000
G1 X96.189 Y73.978
G1 Z.2
G1 E1.6 F1800
;TYPE:Inner wall
;WIDTH:0.599999
G1 F600
G1 X96.186 Y73.974 E.00019
G1 X93.772 Y71.564 E.15011
G1 X130.522 Y71.559 E1.61716
G1 X130.946 Y71.452 E.01926
G1 X131.329 Y71.207 E.01998
G1 X131.598 Y70.878 E.01871
G2 X131.872 Y70.081 I-1.996 J-1.134 E.03731
G1 X131.841 Y69.644 E.0193
G1 X131.718 Y69.311 E.01561
G1 X131.469 Y68.974 E.01842
G1 X129.254 Y66.762 E.13777
G1 X140.744 Y66.764 E.50561
G1 X138.531 Y68.974 E.13765
G1 X138.282 Y69.311 E.01842
G2 X138.149 Y70.231 I1.383 J.67 E.04157
G1 X138.316 Y70.704 E.02207
G1 X138.496 Y71.016 E.01584
G1 X138.816 Y71.321 E.01945
G1 X139.166 Y71.494 E.0172
G1 X139.603 Y71.564 E.01944
G1 X158.436 Y71.564 E.82876
G1 X158.436 Y87.732 E.71147
G1 X158.591 Y88.211 E.02215
G1 X158.859 Y88.572 E.01982
G1 X159.221 Y88.826 E.01944
G2 X159.829 Y88.965 I.607 J-1.253 E.02765
G1 X162.436 Y88.965 E.11474
G1 X162.436 Y92.65 E.16218
G1 X159.707 Y92.656 E.12008
G1 X159.221 Y92.79 E.02218
G1 X159.01 Y92.917 E.01085
G1 X158.681 Y93.254 E.02072
G1 X158.501 Y93.622 E.01802
G1 X158.436 Y94.043 E.01877
G1 X158.436 Y100.371 E.27848
G1 X158.488 Y100.75 E.0168
G1 X158.691 Y101.174 E.0207
G1 X158.991 Y101.475 E.01869
G1 X158.691 Y101.776 E.01869
G1 X158.488 Y102.2 E.0207
G1 X158.436 Y102.579 E.0168
G1 X158.436 Y106.038 E.15224
G1 X158.486 Y106.407 E.01638
G1 X158.681 Y106.827 E.02036
G1 X158.987 Y107.142 E.01934
G1 X158.681 Y107.457 E.01934
G1 X158.486 Y107.876 E.02036
G1 X158.436 Y108.245 E.01638
G1 X158.436 Y111.705 E.15224
G1 X158.486 Y112.075 E.01645
G1 X158.682 Y112.495 E.02041
G1 X158.988 Y112.808 E.01924
G1 X158.682 Y113.121 E.01924
G1 X158.486 Y113.541 E.02041
G1 X158.436 Y113.912 E.01645
G1 X158.436 Y117.371 E.15224
G1 X158.489 Y117.753 E.01696
G1 X158.694 Y118.18 E.02082
G1 X158.992 Y118.475 E.01845
G1 X158.694 Y118.77 E.01845
G1 X158.489 Y119.197 E.02082
G1 X158.436 Y119.579 E.01696
G1 X158.436 Y148.436 E1.26988
G1 X143.771 Y148.437 E.64533
G1 X146.186 Y146.026 E.15019
G1 X146.421 Y145.714 E.0172
G2 X146.593 Y145.122 I-1.219 J-.673 E.02731
G1 X146.55 Y144.688 E.01922
G2 X146.189 Y143.943 I-2.234 J.621 E.03663
G1 X145.916 Y143.689 E.0164
G1 X145.534 Y143.5 E.01874
G1 X145.115 Y143.436 E.01867
G1 X124.885 Y143.436 E.89019
G1 X124.462 Y143.502 E.01885
G1 X124.077 Y143.695 E.01898
G1 X123.766 Y144 E.01915
G1 X123.511 Y144.507 E.025
G1 X123.416 Y144.864 E.01624
G1 X123.449 Y145.388 E.02311
G1 X123.575 Y145.706 E.01503
G1 X123.814 Y146.026 E.01757
G1 X126.229 Y148.438 E.15021
G1 X89.603 Y148.436 E1.61176
G1 X89.226 Y148.488 E.01675
G1 X88.816 Y148.679 E.01989
G1 X88.496 Y148.984 E.01945
G1 X88.316 Y149.296 E.01584
G1 X88.149 Y149.769 E.02207
G2 X88.282 Y150.689 I1.516 J.25 E.04157
G1 X88.531 Y151.026 E.01842
G1 X90.744 Y153.236 E.13765
G1 X79.254 Y153.238 E.50561
G1 X81.469 Y151.026 E.13777
M73 P1 R64
M73 P1 R64
G1 X81.718 Y150.689 E.01842
G2 X81.851 Y149.769 I-1.383 J-.67 E.04157
G1 X81.684 Y149.296 E.02207
G1 X81.504 Y148.984 E.01584
G1 X81.184 Y148.679 E.01945
G1 X80.834 Y148.506 E.0172
G1 X80.397 Y148.436 E.01944
G1 X61.564 Y148.436 E.82876
G1 X61.564 Y132.268 E.71147
G1 X61.409 Y131.789 E.02215
M73 P1 R63
M73 P1 R63
G1 X61.141 Y131.428 E.01982
G1 X60.779 Y131.174 E.01944
G2 X60.171 Y131.035 I-.607 J1.253 E.02765
G1 X57.564 Y131.035 E.11474
G1 X57.564 Y127.35 E.16218
G1 X60.171 Y127.35 E.11474
G2 X60.99 Y127.083 I-.057 J-1.568 E.03838
G1 X61.319 Y126.746 E.02072
G1 X61.499 Y126.378 E.01802
G1 X61.564 Y125.957 E.01877
G1 X61.564 Y119.629 E.27848
G1 X61.512 Y119.25 E.0168
G1 X61.309 Y118.826 E.0207
G1 X61.009 Y118.525 E.01869
G1 X61.309 Y118.224 E.01869
G1 X61.512 Y117.8 E.0207
G1 X61.564 Y117.421 E.0168
G1 X61.564 Y113.962 E.15224
G1 X61.514 Y113.593 E.01638
G1 X61.319 Y113.173 E.02036
G1 X61.013 Y112.858 E.01934
G1 X61.319 Y112.543 E.01934
G1 X61.514 Y112.124 E.02036
G1 X61.564 Y111.755 E.01638
G1 X61.564 Y108.295 E.15224
G1 X61.514 Y107.925 E.01645
G1 X61.318 Y107.505 E.02041
G1 X61.012 Y107.192 E.01924
G1 X61.318 Y106.879 E.01924
G1 X61.514 Y106.459 E.02041
G1 X61.564 Y106.088 E.01645
G1 X61.564 Y102.629 E.15224
G1 X61.511 Y102.247 E.01696
G1 X61.306 Y101.82 E.02082
G1 X61.008 Y101.525 E.01845
G1 X61.306 Y101.23 E.01845
G1 X61.511 Y100.803 E.02082
G1 X61.564 Y100.421 E.01696
G1 X61.564 Y71.564 E1.26988
G1 X76.229 Y71.563 E.64533
G1 X73.814 Y73.974 E.15019
G1 X73.579 Y74.286 E.0172
G2 X73.407 Y74.878 I1.219 J.673 E.02731
G1 X73.45 Y75.312 E.01922
G2 X73.811 Y76.057 I2.234 J-.621 E.03663
G1 X74.084 Y76.311 E.0164
G1 X74.466 Y76.5 E.01874
G1 X74.885 Y76.564 E.01867
G1 X95.115 Y76.564 E.89019
G1 X95.538 Y76.498 E.01884
G1 X95.923 Y76.305 E.01898
G1 X96.234 Y76 E.01915
G1 X96.489 Y75.493 E.025
G1 X96.584 Y75.136 E.01624
G1 X96.551 Y74.612 E.02311
G1 X96.425 Y74.294 E.01503
G1 X96.213 Y74.01 E.01563
G1 X95.958 Y74.64 F9000
G1 F600
G1 X95.936 Y74.56 E.00362
G1 X95.793 Y74.368 E.01054
G2 X92.381 Y70.986 I-111.208 J108.751 E.2114
G1 X93.481 Y71.007 E.0484
G1 X130.472 Y71.004 E1.62779
G1 X130.801 Y70.903 E.01516
G1 X131.062 Y70.678 E.01512
G1 X131.257 Y70.28 E.01955
G1 X131.321 Y69.946 E.01494
G1 X131.225 Y69.571 E.01705
G1 X131.076 Y69.369 E.01105
G1 X128.23 Y66.527 E.17697
G1 X127.822 Y66.169 E.0239
G1 X128.41 Y66.205 E.02595
G1 X141.101 Y66.207 E.55845
G1 X142.16 Y66.185 E.04661
G1 X141.751 Y66.546 E.02401
G1 X138.924 Y69.369 E.17577
G2 X138.682 Y70.033 I.665 J.618 E.03195
G1 X138.831 Y70.491 E.02121
G1 X138.993 Y70.743 E.01319
G1 X139.274 Y70.94 E.01507
G1 X139.596 Y71.007 E.01451
G1 X158.993 Y71.007 E.85355
G1 X158.993 Y87.572 E.72895
G1 X159.023 Y87.794 E.00984
G1 X159.184 Y88.104 E.01539
G1 X159.464 Y88.324 E.01567
G1 X159.829 Y88.408 E.01645
G1 X162.993 Y88.408 E.13925
G1 X162.993 Y93.208 E.21121
G1 X159.829 Y93.208 E.13925
G1 X159.464 Y93.291 E.01645
G1 X159.247 Y93.443 E.01166
G1 X159.056 Y93.724 E.01496
G1 X158.993 Y94.043 E.0143
G1 X158.993 Y100.401 E.27978
G1 X159.072 Y100.727 E.01477
G1 X159.345 Y101.053 E.01871
G1 X159.829 Y101.202 E.02224
;WIDTH:0.589381
G1 X162.998 Y101.202 E.13682
G1 X162.998 Y101.748 E.02359
G1 X159.829 Y101.748 E.13682
;WIDTH:0.599999
G1 X159.345 Y101.897 E.02224
G1 X159.146 Y102.097 E.01244
G2 X158.993 Y102.579 I.683 J.482 E.02259
G1 X158.993 Y106.061 E.15327
G1 X159.069 Y106.386 E.01467
G1 X159.337 Y106.714 E.01863
G1 X159.829 Y106.868 E.02269
;WIDTH:0.589381
G1 X162.998 Y106.868 E.13682
G1 X162.998 Y107.415 E.02359
G1 X159.829 Y107.415 E.13682
;WIDTH:0.599999
G1 X159.337 Y107.57 E.02269
G1 X159.14 Y107.772 E.01243
G2 X158.993 Y108.245 I.689 J.473 E.02213
G1 X158.993 Y111.731 E.15342
G1 X159.069 Y112.054 E.01458
G1 X159.338 Y112.381 E.01864
G1 X159.829 Y112.535 E.02262
;WIDTH:0.589381
G1 X162.998 Y112.535 E.13682
G1 X162.998 Y113.082 E.02359
G1 X159.829 Y113.082 E.13682
;WIDTH:0.599999
G1 X159.338 Y113.235 E.02262
G1 X159.141 Y113.437 E.01243
G2 X158.993 Y113.912 I.688 J.474 E.0222
G1 X158.993 Y117.403 E.15365
G1 X159.074 Y117.73 E.0148
G1 X159.349 Y118.055 E.01874
G1 X159.829 Y118.202 E.02208
;WIDTH:0.589381
G1 X162.998 Y118.202 E.13682
G1 X162.998 Y118.748 E.02359
G1 X159.829 Y118.748 E.13682
;WIDTH:0.599999
G1 X159.349 Y118.895 E.02208
G1 X159.148 Y119.094 E.01244
G1 X159.041 Y119.298 E.01015
G1 X158.993 Y119.579 E.01252
G1 X158.993 Y148.993 E1.29439
G1 X142.976 Y148.994 E.70484
G1 X142.365 Y149.029 E.02692
M73 P2 R63
M73 P2 R63
G1 X142.709 Y148.71 E.02063
G1 X145.793 Y145.632 E.19176
G2 X146.033 Y144.947 I-.653 J-.613 E.03288
G1 X145.887 Y144.509 E.02032
G1 X145.707 Y144.239 E.01424
G1 X145.422 Y144.052 E.01502
G1 X145.115 Y143.993 E.01378
G1 X124.851 Y143.993 E.89172
G1 X124.514 Y144.08 E.01531
G1 X124.246 Y144.291 E.01499
G1 X124.026 Y144.72 E.02125
G1 X123.963 Y145.079 E.016
G1 X124.064 Y145.44 E.0165
G1 X124.207 Y145.632 E.01054
G1 X127.224 Y148.643 E.18756
G1 X127.635 Y149.029 E.02484
G1 X127.017 Y148.995 E.02726
G1 X89.528 Y148.996 E1.6497
G1 X89.199 Y149.097 E.01517
G1 X88.938 Y149.322 E.01512
G1 X88.743 Y149.72 E.01955
G1 X88.679 Y150.054 E.01494
G1 X88.775 Y150.429 E.01705
G1 X88.924 Y150.631 E.01105
G1 X91.751 Y153.454 E.17577
G1 X92.16 Y153.815 E.02401
G1 X91.101 Y153.793 E.04661
G1 X78.384 Y153.795 E.55962
G1 X77.822 Y153.831 E.02478
G1 X78.249 Y153.454 E.02509
G1 X81.076 Y150.631 E.17577
G2 X81.299 Y150.23 I-.591 J-.591 E.02049
G1 X81.305 Y149.877 E.01552
G1 X81.169 Y149.509 E.01727
G1 X81.007 Y149.257 E.01319
G1 X80.726 Y149.06 E.01507
G1 X80.404 Y148.993 E.01451
G1 X61.007 Y148.993 E.85355
G1 X61.007 Y132.428 E.72895
G1 X60.977 Y132.206 E.00984
G1 X60.816 Y131.896 E.01539
G1 X60.536 Y131.676 E.01567
G1 X60.171 Y131.592 E.01645
G1 X57.007 Y131.592 E.13925
G1 X57.007 Y126.792 E.21121
G1 X60.171 Y126.792 E.13925
G1 X60.536 Y126.709 E.01645
G1 X60.753 Y126.557 E.01166
G1 X60.944 Y126.276 E.01496
G1 X61.007 Y125.957 E.0143
G1 X61.007 Y119.599 E.27978
G1 X60.928 Y119.273 E.01477
G1 X60.655 Y118.947 E.01871
G1 X60.171 Y118.798 E.02224
;WIDTH:0.58938
G1 X57.002 Y118.798 E.13682
G1 X57.002 Y118.252 E.02359
G1 X60.171 Y118.252 E.13682
;WIDTH:0.599999
G1 X60.655 Y118.103 E.02224
G1 X60.854 Y117.903 E.01244
G2 X61.007 Y117.421 I-.683 J-.482 E.02259
G1 X61.007 Y113.939 E.15327
G1 X60.931 Y113.614 E.01467
G1 X60.663 Y113.286 E.01863
G1 X60.171 Y113.132 E.02269
;WIDTH:0.589381
G1 X57.002 Y113.132 E.13682
G1 X57.002 Y112.585 E.02359
G1 X60.171 Y112.585 E.13682
;WIDTH:0.599999
G1 X60.663 Y112.43 E.02269
G1 X60.86 Y112.228 E.01243
G2 X61.007 Y111.755 I-.689 J-.473 E.02213
G1 X61.007 Y108.269 E.15342
G1 X60.931 Y107.946 E.01458
G1 X60.662 Y107.619 E.01864
G1 X60.171 Y107.465 E.02262
;WIDTH:0.589381
G1 X57.002 Y107.465 E.13682
G1 X57.002 Y106.918 E.02359
G1 X60.171 Y106.918 E.13682
;WIDTH:0.599999
G1 X60.662 Y106.765 E.02262
G1 X60.859 Y106.563 E.01243
G2 X61.007 Y106.088 I-.688 J-.474 E.0222
G1 X61.007 Y102.597 E.15365
G1 X60.926 Y102.27 E.0148
G1 X60.651 Y101.945 E.01874
G1 X60.171 Y101.798 E.02208
;WIDTH:0.589381
G1 X57.002 Y101.798 E.13682
G1 X57.002 Y101.252 E.02359
G1 X60.171 Y101.252 E.13682
;WIDTH:0.599999
G1 X60.651 Y101.105 E.02208
G1 X60.852 Y100.906 E.01244
G1 X60.959 Y100.702 E.01015
G1 X61.007 Y100.421 E.01252
G1 X61.007 Y71.007 E1.29439
G1 X77.024 Y71.006 E.70484
G1 X77.635 Y70.971 E.02692
G1 X77.291 Y71.29 E.02063
G1 X74.207 Y74.368 E.19176
G2 X73.967 Y75.053 I.653 J.613 E.03288
G1 X74.113 Y75.491 E.02032
G1 X74.293 Y75.761 E.01424
G1 X74.578 Y75.948 E.01502
G1 X74.885 Y76.007 E.01378
G1 X95.149 Y76.007 E.89172
G1 X95.486 Y75.92 E.01531
M73 P2 R62
M73 P2 R62
G1 X95.754 Y75.709 E.01499
G1 X95.974 Y75.28 E.02125
G1 X96.037 Y74.921 E.016
G1 X95.969 Y74.678 E.01112
G1 X95.35 Y75.321 F9000
;TYPE:Outer wall
G1 F600
G1 X95.481 Y74.947 E.01744
G1 X95.399 Y74.763 E.00887
G1 X92.315 Y71.684 E.19176
G1 X91.94 Y71.338 E.02247
G1 X91.198 Y70.774 E.04102
G1 X90.724 Y70.3 E.02947
G1 X91.491 Y70.303 E.03376
G1 X92.481 Y70.436 E.04394
G1 X93.477 Y70.45 E.04384
G1 X129.629 Y70.45 E1.59085
G1 X130.48 Y70.437 E.03748
G1 X130.637 Y70.313 E.00882
G1 X130.764 Y69.955 E.01669
G1 X130.682 Y69.763 E.0092
G1 X127.849 Y66.934 E.17617
G1 X127.121 Y66.296 E.04261
G1 X126.705 Y65.998 E.02249
G1 X126.207 Y65.5 E.03101
G1 X126.921 Y65.5 E.03142
G1 X127.415 Y65.585 E.02204
G1 X128.41 Y65.648 E.0439
G1 X141.191 Y65.65 E.5624
G1 X142.116 Y65.631 E.04073
G1 X143.073 Y65.5 E.04251
G1 X143.793 Y65.5 E.03166
G1 X143.259 Y66.023 E.0329
G2 X142.144 Y66.94 I8.274 J11.199 E.06354
G1 X139.318 Y69.763 E.17577
G1 X139.244 Y69.897 E.00674
G1 X139.258 Y70.066 E.0075
G1 X139.416 Y70.379 E.01542
G1 X139.6 Y70.45 E.00869
G1 X159.55 Y70.45 E.87788
G1 X159.55 Y87.62 E.75555
G1 X159.665 Y87.798 E.00932
M73 P3 R62
M73 P3 R62
G1 X159.829 Y87.851 E.00758
G1 X163.55 Y87.851 E.16376
G1 X163.55 Y93.765 E.26024
G1 X159.763 Y93.772 E.16665
G1 X159.614 Y93.866 E.00775
G1 X159.55 Y94.043 E.00829
G1 X159.555 Y100.426 E.2809
G1 X159.667 Y100.599 E.00904
G1 X159.829 Y100.65 E.00744
G1 X163.55 Y100.65 E.16376
G1 X163.55 Y102.3 E.07261
G1 X159.806 Y102.3 E.16475
G1 X159.601 Y102.418 E.01041
G1 X159.55 Y102.579 E.00741
G1 X159.55 Y106.079 E.15403
G1 X159.665 Y106.263 E.00956
G1 X159.829 Y106.317 E.00759
G1 X163.55 Y106.317 E.16376
G1 X163.55 Y107.967 E.07261
G1 X159.829 Y107.967 E.16376
G1 X159.665 Y108.02 E.00759
G1 X159.599 Y108.088 E.00414
G1 X159.55 Y108.243 E.00715
G1 X159.55 Y111.746 E.15415
G1 X159.665 Y111.93 E.00958
G1 X159.829 Y111.983 E.00756
G1 X163.55 Y111.983 E.16376
G1 X163.55 Y113.633 E.07261
G1 X159.829 Y113.633 E.16376
G1 X159.665 Y113.686 E.00756
G1 X159.599 Y113.754 E.00414
G1 X159.55 Y113.912 E.00729
G1 X159.55 Y117.418 E.15431
G1 X159.669 Y117.599 E.00952
G1 X159.829 Y117.65 E.00738
G1 X163.55 Y117.65 E.16376
G1 X163.55 Y119.3 E.07261
G1 X159.806 Y119.3 E.16475
G1 X159.602 Y119.417 E.01036
G1 X159.55 Y119.579 E.00747
G1 X159.55 Y149.55 E1.3189
G1 X142.991 Y149.552 E.72866
G1 X141.982 Y149.609 E.04451
G1 X141.473 Y149.7 E.02276
G1 X140.724 Y149.7 E.03293
G1 X141.198 Y149.226 E.02947
G1 X141.94 Y148.662 E.04102
G1 X142.315 Y148.316 E.02246
G1 X145.399 Y145.237 E.19176
G1 X145.471 Y145.113 E.00634
G1 X145.461 Y144.938 E.00771
G1 X145.294 Y144.615 E.01599
G1 X145.115 Y144.55 E.00839
G1 X124.825 Y144.55 E.89285
G1 X124.65 Y144.679 E.00954
G1 X124.519 Y145.053 E.01744
G1 X124.601 Y145.237 E.00887
G1 X127.685 Y148.316 E.19176
G1 X128.06 Y148.662 E.02247
G1 X128.802 Y149.226 E.04102
G1 X129.276 Y149.7 E.02947
G1 X128.561 Y149.7 E.03144
G1 X128.063 Y149.614 E.02225
G1 X127.017 Y149.552 E.04613
G1 X90.37 Y149.55 E1.61264
G1 X89.52 Y149.563 E.03743
G1 X89.363 Y149.687 E.00882
G1 X89.236 Y150.045 E.01669
G1 X89.318 Y150.237 E.0092
G1 X92.157 Y153.072 E.17657
G2 X93.295 Y154.002 I9.289 J-10.205 E.06466
G1 X93.793 Y154.5 E.03101
G1 X93.073 Y154.5 E.03166
G1 X92.116 Y154.369 E.04251
G1 X91.101 Y154.35 E.04469
G1 X78.402 Y154.352 E.55884
G1 X77.415 Y154.415 E.04351
G1 X76.921 Y154.5 E.02204
G1 X76.207 Y154.5 E.03142
G1 X76.705 Y154.002 E.03101
G1 X77.121 Y153.704 E.02249
G1 X77.856 Y153.06 E.04301
G1 X80.682 Y150.237 E.17577
G1 X80.756 Y150.103 E.00674
G1 X80.742 Y149.934 E.0075
G1 X80.584 Y149.621 E.01542
G1 X80.4 Y149.55 E.00869
G1 X60.45 Y149.55 E.87788
G1 X60.45 Y132.38 E.75555
G1 X60.335 Y132.202 E.00932
G1 X60.171 Y132.149 E.00758
G1 X56.45 Y132.149 E.16376
G1 X56.45 Y126.235 E.26024
G1 X60.237 Y126.228 E.16665
