;TIME:2841.68
;Filament used:4.71671m
;Layer height:0.200
; HEADER_BLOCK_START
; generated by Creality_Print V6.0.5.1840 on 2025-06-29 at 20:05:10
; total layer number: 30
; filament_density: 1.24
; filament_diameter: 1.75
; max_z_height: 6.00
; HEADER_BLOCK_END

; MINX = 70.20
; MINY = 65.20
; MINZ = 0.00
; MAXX = 149.80
; MAXY = 154.80
; MAXZ = 6.00

; THUMBNAIL_BLOCK_START

;
; THUMBNAIL_BLOCK_END

; THUMBNAIL_BLOCK_START

;
; THUMBNAIL_BLOCK_END

; external perimeters extrusion width = 0.42mm
; perimeters extrusion width = 0.45mm
; infill extrusion width = 0.45mm
; solid infill extrusion width = 0.42mm
; top infill extrusion width = 0.42mm
; support material extrusion width = 0.40mm
; first layer extrusion width = 0.60mm

; EXECUTABLE_BLOCK_START
M73 P0 R47
M201 X5000 Y5000 Z500 E5000
M203 X500 Y500 Z30 E100
M204 P5000 R2500 T5000 ; sets acceleration (P, T) and retract acceleration (R), mm/sec^2
M205 X10.00 Y10.00 Z0.40 E5.00 ; sets the jerk limits, mm/sec
;TYPE:Custom
M220 S100 ;Reset Feedrate 
M221 S100 ;Reset Flowrate 
 
M140 S75 ;Set final bed temp 
G28 ;Home 
 
G92 E0 ;Reset Extruder 
G1 Z2.0 F3000 ;Move Z Axis up 
M104 S200 ;Set final nozzle temp 
G1 X-2.1 Y20 Z0.28 F5000.0 ;Move to start position 
M190 S75 ;Wait for bed temp to stabilize 
M109 S200 ;Wait for nozzle temp to stabilize 
G1 X-2.1 Y145.0 Z0.28 F1500.0 E15 ;Draw the first line 
G1 X-2.4 Y145.0 Z0.28 F5000.0 ;Move to side a little 
G1 X-2.4 Y20 Z0.28 F1500.0 E30 ;Draw the second line 
G92 E0  ;Reset Extruder 
G1 E-1.0000 F1800 ;Retract a bit 
G1 Z2.0 F3000 ;Move Z Axis up 
G1 E0.0000 F1800
G90
G21
M83 ; use relative distances for extrusion
" "
G1 E-1.6 F2400
M106 S0
;LAYER_CHANGE
;Z:0.2
;HEIGHT:0.2
;BEFORE_LAYER_CHANGE
;0.2
G92 E0

;_SET_FAN_SPEED_CHANGING_LAYER
M204 P125
M205 X10 Y10
; printing object Top Cassa Armonica id:13976471428673830912 copy 0
M204 T125
G1 Z.4 F9000
G1 X143.044 Y115.773
G1 Z.2
G1 E1.6 F1800
;TYPE:Inner wall
;WIDTH:0.496963
G1 F600
G1 X142.868 Y115.65 E.00769
G1 X143.103 Y115.487 E.01025
G1 X143.49 Y114.753 E.02976
G2 X143.5 Y116.779 I71.997 J.655 E.07266
G1 X143.103 Y115.813 E.03743
G1 X143.077 Y115.795 E.00112
G1 E-1.6 F2400
;WIPE_START
G1 F9000
G1 X142.868 Y115.65
G1 X143.103 Y115.487
G1 X143.49 Y114.753
G1 X143.493 Y115.383
;WIPE_END
G1 X143.493 Y109.759 Z.6
G1 Z.2
G1 E1.6 F1800
G1 F600
G1 X143.5 Y111.129 E.04911
G1 X143.103 Y110.163 E.03743
G1 X142.868 Y110 E.01025
G1 X143.103 Y109.837 E.01025
G1 X143.49 Y109.103 E.02976
G1 X143.493 Y109.719 E.02211
G1 E-1.6 F2400
;WIPE_START
G1 F9000
G1 X143.5 Y111.129
G1 X143.275 Y110.582
;WIPE_END
G1 X143.493 Y104.109 Z.6
G1 Z.2
G1 E1.6 F1800
G1 F600
G1 X143.5 Y105.479 E.04911
G1 X143.103 Y104.513 E.03743
G1 X142.868 Y104.35 E.01025
G1 X143.103 Y104.187 E.01025
G1 X143.49 Y103.453 E.02976
G1 X143.493 Y104.069 E.02211
G1 E-1.6 F2400
;WIPE_START
G1 F9000
G1 X143.5 Y105.479
G1 X143.275 Y104.932
;WIPE_END
G1 X142.505 Y98.496 Z.6
G1 Z.2
G1 E1.6 F1800
;WIDTH:0.5993
G1 F600
G1 X143.436 Y98.03 E.04574
G1 X143.436 Y99.154 E.04941
G1 X143.457 Y99.379 E.00992
;WIDTH:0.556761
G1 X143.479 Y99.604 E.00916
;WIDTH:0.514222
G1 X143.5 Y99.829 E.0084
G1 X143.465 Y99.607 E.00834
;WIDTH:0.556761
G1 X143.43 Y99.386 E.00909
;WIDTH:0.5993
G1 X143.395 Y99.165 E.00984
G1 X142.994 Y98.705 E.02684
G1 X142.445 Y98.526 E.02535
G1 X142.47 Y98.514 E.00119
G1 E-1.6 F2400
;WIPE_START
G1 F9000
G1 X143.436 Y98.03
G1 X143.436 Y98.95
;WIPE_END
G1 X143.323 Y91.318 Z.6
G1 X143.035 Y71.851 Z.6
G1 Z.2
G1 E1.6 F1800
;WIDTH:0.485243
G1 F600
G1 X142.171 Y71.5 E.03256
G1 X143.493 Y71.508 E.04618
G2 X143.5 Y72.829 I107.173 J.11 E.04614
G1 X143.116 Y71.884 E.03562
G1 X143.072 Y71.866 E.00166
G1 E-1.6 F2400
;WIPE_START
G1 F9000
G1 X142.171 Y71.5
G1 X143.199 Y71.506
;WIPE_END
G1 X137.164 Y76.178 Z.6
G1 X82.614 Y118.401 Z.6
G1 Z.2
G1 E1.6 F1800
;WIDTH:0.599999
G1 F600
G1 X82.614 Y116.779 E.07141
G1 X82.562 Y116.4 E.01681
G1 X82.359 Y115.975 E.0207
G1 X82.034 Y115.65 E.02023
G1 X82.359 Y115.325 E.02023
G1 X82.562 Y114.9 E.0207
G1 X82.614 Y114.521 E.01681
G1 X82.614 Y111.129 E.14931
G1 X82.562 Y110.75 E.01681
M73 P0 R46
M73 P0 R46
G1 X82.359 Y110.325 E.0207
G1 X82.034 Y110 E.02023
G1 X82.359 Y109.675 E.02023
G1 X82.562 Y109.25 E.0207
G1 X82.614 Y108.871 E.01681
G1 X82.614 Y105.479 E.14931
G1 X82.562 Y105.1 E.01681
G1 X82.359 Y104.675 E.0207
G1 X82.034 Y104.35 E.02023
G1 X82.359 Y104.025 E.02023
G1 X82.562 Y103.6 E.0207
G1 X82.614 Y103.221 E.01681
G1 X82.614 Y99.829 E.14931
G1 X82.543 Y99.389 E.01959
G1 X82.339 Y98.997 E.01945
G1 X82.057 Y98.714 E.01757
G1 X81.649 Y98.503 E.02022
G1 X81.221 Y98.436 E.01904
G1 X77.829 Y98.436 E.14931
G1 X77.293 Y98.543 E.02404
G1 X76.714 Y98.993 E.03225
G1 X76.643 Y99.271 E.01265
;WIDTH:0.557228
G1 X76.571 Y99.55 E.01168
;WIDTH:0.514456
G1 X76.5 Y99.829 E.01071
G1 X76.521 Y99.533 E.01103
;WIDTH:0.557228
G1 X76.543 Y99.238 E.01203
;WIDTH:0.599999
G1 X76.564 Y98.943 E.01303
G1 X76.564 Y94.999 E.17355
G1 X76.503 Y94.592 E.01809
G1 X76.301 Y94.185 E.02002
G1 X75.916 Y93.822 E.02329
G1 X75.516 Y93.65 E.01918
G1 X75.05 Y93.612 E.02056
G1 X74.549 Y93.753 E.02293
G1 X71.764 Y95.146 E.13699
G1 X71.764 Y90.854 E.18883
G1 X74.549 Y92.247 E.13699
G1 X75.05 Y92.388 E.02293
G1 X75.516 Y92.35 E.02056
G1 X75.916 Y92.178 E.01918
G1 X76.301 Y91.815 E.02329
G1 X76.488 Y91.455 E.01784
G1 X76.564 Y91.001 E.02027
G1 X76.564 Y77.107 E.6114
G1 X76.546 Y76.889 E.00963
;WIDTH:0.563938
G1 X76.528 Y76.671 E.00901
;WIDTH:0.527877
G1 X76.51 Y76.453 E.00838
G1 X76.578 Y76.654 E.00815
;WIDTH:0.563938
G1 X76.646 Y76.856 E.00875
;WIDTH:0.599999
G1 X76.714 Y77.057 E.00936
G1 X77.293 Y77.507 E.03225
G1 X77.829 Y77.614 E.02404
G1 X81.345 Y77.614 E.15474
G1 X81.746 Y77.512 E.01822
G1 X82.099 Y77.303 E.01802
M73 P1 R46
M73 P1 R46
G1 X82.367 Y77.013 E.01739
G1 X82.572 Y76.56 E.0219
G1 X82.614 Y76.221 E.01501
G1 X82.614 Y72.829 E.14931
G1 X82.507 Y72.293 E.02404
G1 X82.057 Y71.714 E.03225
G1 X81.779 Y71.643 E.01265
;WIDTH:0.557228
G1 X81.5 Y71.571 E.01168
;WIDTH:0.514456
G1 X81.221 Y71.5 E.01071
G1 X81.517 Y71.521 E.01103
;WIDTH:0.557228
G1 X81.812 Y71.543 E.01203
;WIDTH:0.599999
G1 X82.107 Y71.564 E.01303
G1 X87.469 Y71.564 E.23596
G1 X86.127 Y74.248 E.13204
G1 X85.857 Y74.898 E.03099
G1 X85.83 Y75.171 E.01208
G1 X85.913 Y75.644 E.02113
G2 X86.556 Y76.394 I1.4 J-.55 E.04429
G1 X86.841 Y76.511 E.01356
G1 X87.223 Y76.564 E.01696
G1 X97.777 Y76.564 E.46447
G1 X98.13 Y76.519 E.01563
G1 X98.542 Y76.336 E.01985
G1 X98.864 Y76.043 E.01912
G1 X99.085 Y75.652 E.01978
G1 X99.163 Y75.313 E.01533
G1 X99.129 Y74.834 E.02111
G1 X99.023 Y74.549 E.01339
G1 X97.531 Y71.564 E.14683
G1 X125.501 Y71.564 E1.23083
G1 X125.895 Y71.507 E.01753
G1 X126.294 Y71.316 E.01945
G1 X126.66 Y70.944 E.02298
G1 X126.843 Y70.544 E.01935
G1 X126.888 Y70.05 E.02183
G1 X126.747 Y69.549 E.02293
G1 X125.354 Y66.764 E.13699
G1 X129.646 Y66.764 E.18883
G1 X128.253 Y69.549 E.13699
G1 X128.112 Y70.05 E.02293
G1 X128.157 Y70.544 E.02183
G1 X128.34 Y70.944 E.01935
G1 X128.706 Y71.316 E.02298
G1 X129.059 Y71.493 E.01734
G1 X129.499 Y71.564 E.01964
G1 X137.893 Y71.564 E.36937
G1 X138.111 Y71.546 E.00963
;WIDTH:0.563938
G1 X138.329 Y71.528 E.00901
;WIDTH:0.527877
G1 X138.547 Y71.51 E.00838
G1 X138.346 Y71.578 E.00815
;WIDTH:0.563938
G1 X138.144 Y71.646 E.00875
;WIDTH:0.599999
G1 X137.943 Y71.714 E.00936
G1 X137.493 Y72.293 E.03225
G1 X137.386 Y72.829 E.02404
G1 X137.386 Y76.356 E.15522
G1 X137.504 Y76.783 E.01952
G1 X137.705 Y77.108 E.01681
G1 X138.027 Y77.394 E.01896
G1 X138.421 Y77.567 E.01894
G1 X138.779 Y77.614 E.01587
G1 X142.171 Y77.614 E.14931
G1 X142.707 Y77.507 E.02404
G1 X143.286 Y77.057 E.03225
G1 X143.354 Y76.856 E.00936
;WIDTH:0.563938
G1 X143.422 Y76.654 E.00875
;WIDTH:0.527876
G1 X143.49 Y76.453 E.00815
G1 X143.472 Y76.671 E.00838
;WIDTH:0.563938
G1 X143.454 Y76.889 E.00901
;WIDTH:0.599999
G1 X143.436 Y77.107 E.00963
G1 X143.436 Y87.969 E.47798
G1 X140.451 Y86.477 E.14683
G2 X139.872 Y86.331 I-.623 J1.246 E.0265
G1 X139.396 Y86.399 E.02116
G1 X138.974 Y86.623 E.02103
G1 X138.685 Y86.927 E.01845
G1 X138.503 Y87.294 E.01802
G1 X138.436 Y87.723 E.0191
G1 X138.436 Y97.522 E.43121
G1 X138.451 Y98.476 E.042
G1 X138.261 Y98.536 E.00876
G1 X137.864 Y98.778 E.02049
G1 X137.582 Y99.116 E.01938
G1 X137.45 Y99.411 E.01419
G1 X137.386 Y99.829 E.01859
G1 X137.386 Y103.221 E.14931
G1 X137.438 Y103.6 E.01681
G1 X137.641 Y104.025 E.0207
G1 X137.966 Y104.35 E.02023
G1 X137.641 Y104.675 E.02023
G1 X137.438 Y105.1 E.0207
G1 X137.386 Y105.479 E.01681
G1 X137.386 Y108.871 E.14931
G1 X137.438 Y109.25 E.01681
G1 X137.641 Y109.675 E.0207
G1 X137.966 Y110 E.02023
G1 X137.641 Y110.325 E.02023
G1 X137.438 Y110.75 E.0207
G1 X137.386 Y111.129 E.01681
G1 X137.386 Y114.521 E.14931
G1 X137.438 Y114.9 E.01681
G1 X137.641 Y115.325 E.0207
G1 X137.966 Y115.65 E.02023
G1 X137.641 Y115.975 E.02023
G1 X137.438 Y116.4 E.0207
G1 X137.386 Y116.779 E.01681
G1 X137.386 Y120.171 E.14931
G1 X137.457 Y120.611 E.01959
G1 X137.661 Y121.003 E.01945
G1 X137.943 Y121.286 E.01757
G1 X138.351 Y121.497 E.02022
G1 X138.779 Y121.564 E.01904
G1 X142.171 Y121.564 E.14931
G1 X142.707 Y121.457 E.02404
G1 X143.286 Y121.007 E.03225
G1 X143.354 Y120.806 E.00936
;WIDTH:0.563938
G1 X143.422 Y120.604 E.00875
;WIDTH:0.527876
G1 X143.49 Y120.403 E.00815
G1 X143.472 Y120.621 E.00838
;WIDTH:0.563938
G1 X143.454 Y120.839 E.00901
;WIDTH:0.599999
G1 X143.436 Y121.057 E.00963
G1 X143.436 Y125.001 E.17355
G1 X143.497 Y125.408 E.01809
G1 X143.699 Y125.815 E.02002
G1 X144.084 Y126.178 E.02329
G1 X144.484 Y126.35 E.01918
G1 X144.95 Y126.388 E.02056
G1 X145.451 Y126.247 E.02293
G1 X148.236 Y124.854 E.13699
G1 X148.236 Y129.146 E.18883
G1 X145.451 Y127.753 E.13699
G1 X144.95 Y127.612 E.02293
G1 X144.484 Y127.65 E.02056
G1 X144.084 Y127.822 E.01918
G1 X143.699 Y128.185 E.02329
G1 X143.512 Y128.545 E.01784
G1 X143.436 Y128.999 E.02027
G1 X143.436 Y142.893 E.6114
G1 X143.457 Y143.188 E.01303
;WIDTH:0.557227
G1 X143.479 Y143.483 E.01203
;WIDTH:0.514455
G1 X143.5 Y143.779 E.01103
G1 X143.429 Y143.5 E.01071
;WIDTH:0.557227
G1 X143.357 Y143.221 E.01168
;WIDTH:0.599999
G1 X143.286 Y142.943 E.01265
G1 X142.707 Y142.493 E.03225
G1 X142.171 Y142.386 E.02404
G1 X138.655 Y142.386 E.15474
G1 X138.254 Y142.488 E.01822
G1 X137.901 Y142.697 E.01802
G1 X137.633 Y142.987 E.01739
G1 X137.428 Y143.44 E.0219
G1 X137.386 Y143.779 E.01501
G1 X137.386 Y147.171 E.14931
G1 X137.493 Y147.707 E.02404
G1 X137.943 Y148.286 E.03225
G1 X138.221 Y148.357 E.01265
;WIDTH:0.557228
G1 X138.5 Y148.429 E.01168
;WIDTH:0.514456
G1 X138.779 Y148.5 E.01071
G1 X138.483 Y148.479 E.01103
;WIDTH:0.557228
G1 X138.188 Y148.457 E.01203
;WIDTH:0.599999
G1 X137.893 Y148.436 E.01303
G1 X132.531 Y148.436 E.23596
G1 X133.873 Y145.752 E.13204
G1 X134.143 Y145.102 E.03099
G1 X134.17 Y144.829 E.01208
G1 X134.087 Y144.356 E.02113
G2 X133.444 Y143.606 I-1.4 J.55 E.04429
G1 X133.159 Y143.489 E.01356
G1 X132.777 Y143.436 E.01696
G1 X122.223 Y143.436 E.46447
G1 X121.87 Y143.481 E.01563
G1 X121.458 Y143.664 E.01985
G1 X121.136 Y143.957 E.01912
G1 X120.915 Y144.348 E.01978
G1 X120.837 Y144.687 E.01533
G1 X120.871 Y145.166 E.02111
G1 X120.977 Y145.451 E.01339
G1 X122.469 Y148.436 E.14683
G1 X94.499 Y148.436 E1.23083
G1 X94.105 Y148.493 E.01753
G1 X93.706 Y148.684 E.01945
G1 X93.34 Y149.056 E.02298
G1 X93.157 Y149.456 E.01935
G1 X93.112 Y149.95 E.02183
G1 X93.253 Y150.451 E.02293
G1 X94.646 Y153.236 E.13699
G1 X90.354 Y153.236 E.18883
G1 X91.747 Y150.451 E.13699
G1 X91.888 Y149.95 E.02293
G1 X91.843 Y149.456 E.02183
G1 X91.66 Y149.056 E.01935
G1 X91.294 Y148.684 E.02298
G1 X90.941 Y148.507 E.01734
G1 X90.501 Y148.436 E.01964
G1 X82.107 Y148.436 E.36937
G1 X81.889 Y148.454 E.00963
M73 P2 R46
;WIDTH:0.563938
M73 P2 R46
G1 X81.671 Y148.472 E.00901
;WIDTH:0.527877
G1 X81.453 Y148.49 E.00838
G1 X81.654 Y148.422 E.00815
;WIDTH:0.563938
G1 X81.856 Y148.354 E.00875
;WIDTH:0.599999
G1 X82.057 Y148.286 E.00936
G1 X82.507 Y147.707 E.03225
G1 X82.614 Y147.171 E.02404
G1 X82.614 Y143.644 E.15522
G1 X82.496 Y143.217 E.01952
G1 X82.295 Y142.892 E.01681
G1 X81.973 Y142.606 E.01896
G1 X81.579 Y142.433 E.01894
G1 X81.221 Y142.386 E.01587
G1 X77.829 Y142.386 E.14931
G1 X77.293 Y142.493 E.02404
G1 X76.714 Y142.943 E.03225
G1 X76.643 Y143.221 E.01265
;WIDTH:0.557228
G1 X76.571 Y143.5 E.01168
;WIDTH:0.514456
G1 X76.5 Y143.779 E.01071
G1 X76.521 Y143.483 E.01103
;WIDTH:0.557228
G1 X76.543 Y143.188 E.01203
;WIDTH:0.599999
G1 X76.564 Y142.893 E.01303
G1 X76.564 Y132.031 E.47798
G1 X79.549 Y133.523 E.14683
G2 X80.128 Y133.669 I.623 J-1.246 E.0265
G1 X80.604 Y133.601 E.02116
G1 X81.026 Y133.377 E.02103
G1 X81.315 Y133.073 E.01845
G1 X81.497 Y132.706 E.01802
G1 X81.564 Y132.277 E.0191
G1 X81.564 Y122.478 E.43121
G1 X81.549 Y121.524 E.042
G1 X81.739 Y121.464 E.00876
G1 X82.136 Y121.222 E.02049
G1 X82.418 Y120.884 E.01938
G1 X82.55 Y120.589 E.01419
G1 X82.614 Y120.171 E.01859
G1 X82.614 Y118.441 E.07614
G1 E-1.6 F2400
;WIPE_START
G1 F9000
G1 X82.614 Y116.779
G1 X82.568 Y116.444
;WIPE_END
G1 X90.2 Y116.507 Z.6
G1 X143.007 Y116.943 Z.6
G1 Z.2
G1 E1.6 F1800
G1 F600
G1 X143.007 Y120.171 E.14207
G1 X142.995 Y120.316 E.00638
G1 X142.84 Y120.673 E.01712
G1 X142.493 Y120.943 E.01935
G1 X142.171 Y121.007 E.01442
G1 X138.779 Y121.007 E.14931
G1 X138.477 Y120.951 E.0135
G1 X138.201 Y120.776 E.01438
G1 X138.005 Y120.488 E.01533
G1 X137.943 Y120.171 E.01418
G1 X137.943 Y116.779 E.14931
G1 X138.022 Y116.423 E.01604
G1 X138.296 Y116.097 E.01872
;WIDTH:0.61438
G1 X138.779 Y115.936 E.02298
G1 X142.171 Y115.936 E.15316
G1 X142.535 Y116.026 E.01689
;WIDTH:0.599999
G1 X142.752 Y116.177 E.01164
G1 X143.007 Y116.779 E.02875
G1 X143.007 Y116.903 E.00548
G1 X142.365 Y116.578 F9000
;TYPE:Outer wall
G1 F600
G1 X142.45 Y116.779 E.00958
G1 X142.45 Y120.171 E.14931
G1 X142.394 Y120.339 E.00775
G1 X142.251 Y120.45 E.00799
G1 X138.779 Y120.45 E.15281
G1 X138.598 Y120.384 E.00845
G1 X138.502 Y120.208 E.0088
G3 X138.5 Y116.779 I516.757 J-2.082 E.15093
G1 X138.551 Y116.618 E.00742
G1 X138.756 Y116.5 E.01041
G1 X142.171 Y116.5 E.15029
G1 X142.328 Y116.563 E.00742
G1 E-1.6 F2400
;WIPE_START
G1 F9000
G1 X142.45 Y116.779
G1 X142.45 Y118.531
;WIPE_END
G1 X143.5 Y116.779 Z.6
G1 Z.2
G1 E1.6 F1800
;TYPE:Inner wall
;WIDTH:0.471682
G1 F600
G1 X143.5 Y120.171 E.11492
;WIDTH:0.491814
G1 X143.49 Y120.403 E.00821
G1 E-1.6 F2400
;WIPE_START
G1 F9000
G1 X143.5 Y120.171
G1 X143.5 Y118.403
;WIPE_END
G1 X138.113 Y114.986 Z.6
G1 Z.2
G1 E1.6 F1800
;WIDTH:0.599999
G1 F600
G1 X138.022 Y114.877 E.00624
G1 X137.943 Y114.537 E.01537
G1 X137.943 Y111.129 E.15
G1 X138.022 Y110.773 E.01604
G1 X138.296 Y110.447 E.01872
;WIDTH:0.614381
G1 X138.779 Y110.286 E.02298
G1 X142.171 Y110.286 E.15316
G1 X142.535 Y110.376 E.01689
;WIDTH:0.599999
G1 X142.752 Y110.527 E.01164
G1 X143.007 Y111.129 E.02875
G1 X143.007 Y114.521 E.14931
G1 X142.995 Y114.666 E.00638
G1 X142.752 Y115.123 E.02277
G1 X142.535 Y115.274 E.01164
;WIDTH:0.61438
G1 X142.171 Y115.364 E.01689
G1 X138.779 Y115.364 E.15316
G1 X138.296 Y115.203 E.02298
;WIDTH:0.599999
G1 X138.139 Y115.017 E.01072
G1 X138.779 Y114.8 F9000
;TYPE:Outer wall
G1 F600
G1 X138.618 Y114.749 E.00744
G1 X138.5 Y114.568 E.00949
G1 X138.5 Y111.129 E.15136
G1 X138.551 Y110.968 E.00742
G1 X138.756 Y110.85 E.01041
G1 X142.171 Y110.85 E.15029
G1 X142.365 Y110.928 E.00918
G1 X142.45 Y111.129 E.00958
G1 X142.45 Y114.521 E.14931
G1 X142.365 Y114.722 E.00958
G1 X142.171 Y114.8 E.00918
G1 X138.819 Y114.8 E.14755
G1 E-1.6 F2400
;WIPE_START
G1 F9000
G1 X138.618 Y114.749
G1 X138.5 Y114.568
G1 X138.5 Y112.991
;WIPE_END
G1 X143.5 Y111.129 Z.6
G1 Z.2
G1 E1.6 F1800
;TYPE:Inner wall
;WIDTH:0.471682
G1 F600
G1 X143.5 Y114.521 E.11492
;WIDTH:0.491814
G1 X143.49 Y114.753 E.00821
G1 E-1.6 F2400
;WIPE_START
G1 F9000
G1 X143.5 Y114.521
G1 X143.5 Y112.753
;WIPE_END
G1 X138.113 Y109.336 Z.6
G1 Z.2
G1 E1.6 F1800
;WIDTH:0.599999
G1 F600
G1 X138.022 Y109.227 E.00624
G1 X137.943 Y108.887 E.01537
G1 X137.943 Y105.479 E.15
G1 X138.022 Y105.123 E.01604
G1 X138.296 Y104.797 E.01872
;WIDTH:0.614381
G1 X138.779 Y104.636 E.02298
G1 X142.171 Y104.636 E.15316
G1 X142.535 Y104.726 E.01689
