;TIME:1176.14
;Filament used:0.93061m
;Layer height:0.200
; HEADER_BLOCK_START
; generated by Creality_Print V6.0.5.1840 on 2025-07-26 at 19:55:31
; total layer number: 75
; filament_density: 1.24
; filament_diameter: 1.75
; max_z_height: 15.00
; HEADER_BLOCK_END

; MINX = 96.86
; MINY = 104.18
; MINZ = 0.00
; MAXX = 124.51
; MAXY = 115.82
; MAXZ = 15.00

; THUMBNAIL_BLOCK_START

;
; THUMBNAIL_BLOCK_END

; THUMBNAIL_BLOCK_START

;
; THUMBNAIL_BLOCK_END

; external perimeters extrusion width = 0.42mm
; perimeters extrusion width = 0.45mm
; infill extrusion width = 0.45mm
; solid infill extrusion width = 0.42mm
; top infill extrusion width = 0.42mm
; first layer extrusion width = 0.60mm

; external perimeters extrusion width = 0.42mm
; perimeters extrusion width = 0.45mm
; infill extrusion width = 0.45mm
; solid infill extrusion width = 0.42mm
; top infill extrusion width = 0.42mm
; first layer extrusion width = 0.60mm

; EXECUTABLE_BLOCK_START
M73 P0 R19
M201 X5000 Y5000 Z500 E5000
M203 X500 Y500 Z30 E100
M204 P5000 R2500 T5000 ; sets acceleration (P, T) and retract acceleration (R), mm/sec^2
M205 X10.00 Y10.00 Z0.40 E5.00 ; sets the jerk limits, mm/sec
;TYPE:Custom
M220 S100 ;Reset Feedrate 
M221 S100 ;Reset Flowrate 
 
M140 S75 ;Set final bed temp 
G28 ;Home 
 
G92 E0 ;Reset Extruder 
G1 Z2.0 F3000 ;Move Z Axis up 
M104 S200 ;Set final nozzle temp 
G1 X-2.1 Y20 Z0.28 F5000.0 ;Move to start position 
M190 S75 ;Wait for bed temp to stabilize 
M109 S200 ;Wait for nozzle temp to stabilize 
G1 X-2.1 Y145.0 Z0.28 F1500.0 E15 ;Draw the first line 
G1 X-2.4 Y145.0 Z0.28 F5000.0 ;Move to side a little 
G1 X-2.4 Y20 Z0.28 F1500.0 E30 ;Draw the second line 
G92 E0  ;Reset Extruder 
G1 E-1.0000 F1800 ;Retract a bit 
G1 Z2.0 F3000 ;Move Z Axis up 
G1 E0.0000 F1800
G90
G21
M83 ; use relative distances for extrusion
" "
G1 E-1.6 F2400
M106 S0
;LAYER_CHANGE
;Z:0.2
;HEIGHT:0.2
;BEFORE_LAYER_CHANGE
;0.2
G92 E0

;_SET_FAN_SPEED_CHANGING_LAYER
M204 P125
M205 X10 Y10
; printing object Porta Tubo id:437700263266027024 copy 0
M204 T125
G1 Z.4 F9000
G1 X115.263 Y108.359
G1 Z.2
M73 P1 R19
M73 P1 R19
G1 E1.6 F1800
;TYPE:Inner wall
;WIDTH:0.599999
G1 F600
G1 X115.263 Y106.197 E.09511
G1 X122.551 Y106.197 E.32073
G1 X122.551 Y110.09 E.17132
G1 X122.487 Y110.069 E.00299
G2 X119.595 Y110.09 I-.936 J70.456 E.12727
G1 X119.207 Y110.219 E.01798
G1 X119.007 Y110.365 E.01089
G2 X118.623 Y110.142 I-.661 J.697 E.0197
G1 X118.178 Y110.069 E.01984
G1 X115.527 Y110.069 E.11667
G1 X115.263 Y110.157 E.01226
G1 X115.263 Y108.399 E.07738
G1 E-1.6 F2400
;WIPE_START
G1 F9000
G1 X115.263 Y106.399
;WIPE_END
G1 X114.759 Y111.339 Z.6
G1 Z.2
G1 E1.6 F1800
G1 F600
G1 X114.698 Y111.462 E.00603
G2 X114.706 Y105.64 I-340.722 J-3.325 E.25618
G1 X123.108 Y105.64 E.36975
G1 X123.108 Y110.733 E.22412
G1 X123.129 Y110.879 E.00648
;WIDTH:0.557168
G1 X123.151 Y111.025 E.00598
;WIDTH:0.514336
G1 X123.172 Y111.17 E.00548
;WIDTH:0.471504
G1 X123.194 Y111.316 E.00499
;WIDTH:0.428672
G1 X123.215 Y111.462 E.00449
G1 X123.17 Y111.328 E.0043
;WIDTH:0.471504
G1 X123.124 Y111.194 E.00478
;WIDTH:0.514336
G1 X123.079 Y111.061 E.00526
;WIDTH:0.557168
G1 X123.033 Y110.927 E.00574
;WIDTH:0.599999
G1 X122.988 Y110.793 E.00621
G1 X122.487 Y110.626 E.02326
G1 X119.835 Y110.626 E.11667
G1 X119.568 Y110.67 E.0119
G1 X119.241 Y110.874 E.01698
G1 X119.007 Y111.462 E.02784
G1 X118.772 Y110.874 E.02784
G1 X118.555 Y110.716 E.01182
G1 X118.178 Y110.626 E.01706
G1 X115.527 Y110.626 E.11667
G1 X115.026 Y110.793 E.02326
G1 X114.776 Y111.303 E.02496
G1 E-1.6 F2400
;WIPE_START
G1 F9000
G1 X114.698 Y111.462
G1 X114.701 Y109.639
;WIPE_END
G1 X121.386 Y113.321 Z.6
G1 X123.202 Y114.321 Z.6
G1 Z.2
G1 E1.6 F1800
;WIDTH:0.504242
G1 F600
G1 X123.247 Y114.133 E.00705
G1 X123.489 Y114.481 E.01543
G1 X123.546 Y114.644 E.0063
G1 X123.476 Y114.799 E.00622
G1 X123.317 Y114.864 E.00626
G1 X123.156 Y114.801 E.0063
G1 X123.085 Y114.648 E.00615
G2 X123.193 Y114.36 I-2.051 J-.929 E.01121
G1 E-1.6 F2400
;WIPE_START
G1 F9000
G1 X123.247 Y114.133
G1 X123.489 Y114.481
G1 X123.546 Y114.644
G1 X123.476 Y114.799
G1 X123.317 Y114.864
G1 X123.156 Y114.801
G1 X123.085 Y114.648
G1 X123.193 Y114.36
;WIPE_END
G1 X118.908 Y114.838 Z.6
G1 Z.2
G1 E1.6 F1800
;WIDTH:0.504318
G1 F600
G1 X118.795 Y114.73 E.00572
G1 X118.787 Y114.557 E.00631
;WIDTH:0.548244
G1 X118.897 Y114.32 E.01045
;WIDTH:0.59217
G1 X119.007 Y114.082 E.01136
G1 X119.117 Y114.32 E.01136
;WIDTH:0.548228
G1 X119.227 Y114.557 E.01045
;WIDTH:0.504318
G1 X119.217 Y114.733 E.00643
G1 X119.09 Y114.85 E.0063
G1 X118.944 Y114.85 E.00531
G1 E-1.6 F2400
;WIPE_START
G1 F9000
G1 X118.795 Y114.73
G1 X118.787 Y114.557
G1 X118.897 Y114.32
G1 X119.007 Y114.082
G1 X119.117 Y114.32
G1 X119.227 Y114.557
G1 X119.217 Y114.733
G1 X119.09 Y114.85
G1 X118.944 Y114.85
;WIPE_END
G1 X114.913 Y114.673 Z.6
G1 Z.2
G1 E1.6 F1800
;WIDTH:0.504737
G1 F600
G1 X114.91 Y114.73 E.0021
G1 X114.785 Y114.849 E.00631
G1 X114.612 Y114.849 E.00631
G1 X114.487 Y114.73 E.00631
G1 X114.478 Y114.557 E.00631
;WIDTH:0.548454
G1 X114.588 Y114.32 E.01045
;WIDTH:0.59217
G1 X114.698 Y114.082 E.01136
G1 X114.808 Y114.32 E.01136
;WIDTH:0.548454
G1 X114.919 Y114.557 E.01045
;WIDTH:0.504737
G1 X114.915 Y114.633 E.00275
G1 E-1.6 F2400
;WIPE_START
G1 F9000
G1 X114.91 Y114.73
G1 X114.785 Y114.849
G1 X114.612 Y114.849
G1 X114.487 Y114.73
G1 X114.478 Y114.557
G1 X114.588 Y114.32
G1 X114.698 Y114.082
G1 X114.808 Y114.32
G1 X114.919 Y114.557
G1 X114.915 Y114.633
;WIPE_END
G1 X115.553 Y111.183 Z.6
G1 Z.2
G1 E1.6 F1800
;TYPE:Outer wall
;WIDTH:0.599999
G1 F600
G1 X115.527 Y111.183 E.00114
G1 X115.36 Y111.239 E.00775
G1 X115.248 Y111.462 E.01096
G1 X115.248 Y114.01 E.11214
G3 X115.443 Y114.575 I-3.508 J1.521 E.02631
G1 X115.377 Y114.944 E.01649
G1 X115.141 Y115.234 E.01649
G1 X114.793 Y115.374 E.01649
G1 X114.421 Y115.326 E.01649
G1 X114.119 Y115.104 E.01649
G1 X113.964 Y114.764 E.01649
G1 X113.974 Y114.482 E.01238
G1 X114.148 Y114.01 E.02217
G1 X114.148 Y105.083 E.39283
G1 X123.665 Y105.083 E.41878
M73 P2 R19
M73 P2 R19
G1 X123.665 Y113.866 E.38647
G3 X124.02 Y114.389 I-2.673 J2.196 E.02788
G1 X124.055 Y114.668 E.01237
G1 X123.994 Y114.943 E.01239
G1 X123.759 Y115.233 E.01644
G1 X123.41 Y115.374 E.01654
G1 X123.038 Y115.326 E.01649
G1 X122.736 Y115.104 E.01649
G1 X122.581 Y114.765 E.01644
G1 X122.591 Y114.481 E.0125
G1 X122.765 Y114.01 E.02211
G1 X122.765 Y111.462 E.11214
G1 X122.654 Y111.239 E.01096
G1 X122.487 Y111.183 E.00775
G2 X119.787 Y111.187 I-.936 J266.757 E.11879
G1 X119.637 Y111.266 E.00745
G1 X119.557 Y111.462 E.00932
G1 X119.557 Y114.01 E.11214
G3 X119.751 Y114.575 I-3.546 J1.534 E.02631
G1 X119.683 Y114.948 E.01669
G1 X119.45 Y115.234 E.01622
G1 X119.101 Y115.374 E.01653
G1 X118.73 Y115.326 E.01649
G1 X118.425 Y115.1 E.01669
G1 X118.272 Y114.764 E.01627
G1 X118.282 Y114.482 E.01238
G1 X118.457 Y114.01 E.02216
G1 X118.457 Y111.462 E.11214
G1 X118.376 Y111.266 E.00932
G2 X118.178 Y111.183 I-.198 J.196 E.0097
G1 X115.593 Y111.183 E.11377
G1 E-1.6 F2400
;WIPE_START
G1 F9000
G1 X115.527 Y111.183
G1 X115.36 Y111.239
G1 X115.248 Y111.462
G1 X115.248 Y112.97
;WIPE_END
G1 X122.748 Y111.55 Z.6
G1 X123.215 Y111.462 Z.6
G1 Z.2
G1 E1.6 F1800
;TYPE:Inner wall
;WIDTH:0.38584
G1 F600
G1 X123.215 Y113.803 E.06342
;WIDTH:0.396882
G1 X123.221 Y113.93 E.00355
G1 E-1.6 F2400
;WIPE_START
G1 F9000
G1 X123.215 Y113.803
G1 X123.215 Y111.93
;WIPE_END
G1 X119.007 Y114.082 Z.6
G1 Z.2
G1 E1.6 F1800
;WIDTH:0.59217
G1 F600
G1 X119.007 Y111.462 E.11371
G1 E-1.6 F2400
;WIPE_START
G1 F9000
G1 X119.007 Y113.462
;WIPE_END
G1 X114.698 Y114.082 Z.6
G1 Z.2
G1 E1.6 F1800
G1 F600
G1 X114.698 Y111.462 E.11371
G1 E-1.6 F2400
;WIPE_START
G1 F9000
G1 X114.698 Y113.462
;WIPE_END
G1 Z.6
G1 X115.402 Y108.749
G1 Z.6
G1 Z.2
G1 E1.6 F1800
;TYPE:Bottom surface
;WIDTH:0.625705
G1 F1200
G1 X116.332 Y109.679 E.06054
G1 X117.156 Y109.679 E.03794
G1 X115.653 Y108.176 E.09787
G1 X115.653 Y107.351 E.03794
G1 X117.98 Y109.679 E.15153
G3 X118.615 Y109.732 I.103 J2.576 E.02939
G1 X119.003 Y109.878 E.01908
G1 X115.712 Y106.587 E.21422
G1 X116.537 Y106.587 E.03794
G1 X119.651 Y109.701 E.20273
G1 X119.828 Y109.679 E.00825
G1 X120.453 Y109.679 E.02874
G1 X117.361 Y106.587 E.20129
G1 X118.185 Y106.587 E.03794
G1 X121.277 Y109.679 E.20129
G1 X122.101 Y109.679 E.03794
G1 X119.009 Y106.587 E.20129
G1 X119.833 Y106.587 E.03794
G1 X122.161 Y108.915 E.15154
G1 X122.161 Y108.091 E.03794
G1 X120.658 Y106.587 E.09788
G1 X121.482 Y106.587 E.03794
G1 X122.412 Y107.517 E.06054
; stop printing object Porta Tubo id:437700263266027024 copy 0
; printing object Porta Tubo (1) id:4675067366210535424 copy 0
G1 E-1.6 F2400
;WIPE_START
G1 F9000
G1 X121.482 Y106.587
G1 X120.797 Y106.587
M73 P3 R19
;WIPE_END
M73 P3 R19
G1 X113.178 Y107.039 Z.6
G1 X98.618 Y107.902 Z.6
G1 Z.2
G1 E1.6 F1800
;TYPE:Inner wall
;WIDTH:0.599999
G1 F600
G1 X98.618 Y105.74 E.09511
G1 X105.906 Y105.74 E.32073
M73 P3 R18
M73 P3 R18
G1 X105.906 Y109.634 E.17132
G1 X105.842 Y109.612 E.00299
G2 X102.95 Y109.633 I-.936 J70.456 E.12727
G1 X102.562 Y109.762 E.01798
G1 X102.362 Y109.908 E.01089
G2 X101.979 Y109.685 I-.661 J.697 E.0197
G1 X101.534 Y109.612 E.01984
G1 X98.882 Y109.612 E.11667
G1 X98.618 Y109.7 E.01226
G1 X98.618 Y107.942 E.07738
G1 E-1.6 F2400
;WIPE_START
G1 F9000
G1 X98.618 Y105.942
;WIPE_END
G1 X98.114 Y110.882 Z.6
G1 Z.2
G1 E1.6 F1800
G1 F600
G1 X98.054 Y111.005 E.00603
G2 X98.061 Y105.183 I-340.674 J-3.325 E.25618
G1 X106.463 Y105.183 E.36975
G1 X106.463 Y110.276 E.22412
G1 X106.485 Y110.422 E.00648
;WIDTH:0.557168
G1 X106.506 Y110.568 E.00598
;WIDTH:0.514336
G1 X106.528 Y110.713 E.00548
;WIDTH:0.471504
G1 X106.549 Y110.859 E.00499
;WIDTH:0.428672
G1 X106.571 Y111.005 E.00449
G1 X106.525 Y110.871 E.0043
;WIDTH:0.471504
G1 X106.48 Y110.737 E.00478
;WIDTH:0.514336
G1 X106.434 Y110.604 E.00526
;WIDTH:0.557168
G1 X106.389 Y110.47 E.00574
;WIDTH:0.599999
G1 X106.343 Y110.336 E.00621
G1 X105.842 Y110.169 E.02326
G1 X103.191 Y110.169 E.11667
G1 X102.924 Y110.213 E.0119
G1 X102.597 Y110.417 E.01698
G1 X102.362 Y111.005 E.02784
G1 X102.128 Y110.417 E.02784
G1 X101.911 Y110.259 E.01182
G1 X101.534 Y110.169 E.01706
G1 X98.882 Y110.169 E.11667
G1 X98.381 Y110.336 E.02326
G1 X98.132 Y110.846 E.02496
G1 E-1.6 F2400
;WIPE_START
G1 F9000
G1 X98.054 Y111.005
G1 X98.056 Y109.182
;WIPE_END
G1 X104.742 Y112.864 Z.6
G1 X106.557 Y113.864 Z.6
G1 Z.2
G1 E1.6 F1800
;WIDTH:0.504242
G1 F600
G1 X106.603 Y113.676 E.00705
G1 X106.844 Y114.024 E.01543
G1 X106.901 Y114.187 E.0063
G1 X106.831 Y114.343 E.00622
G1 X106.672 Y114.408 E.00626
G1 X106.511 Y114.344 E.0063
G1 X106.441 Y114.191 E.00615
G2 X106.548 Y113.903 I-2.051 J-.929 E.01121
G1 E-1.6 F2400
;WIPE_START
G1 F9000
G1 X106.603 Y113.676
G1 X106.844 Y114.024
G1 X106.901 Y114.187
G1 X106.831 Y114.343
G1 X106.672 Y114.408
G1 X106.511 Y114.344
G1 X106.441 Y114.191
G1 X106.548 Y113.903
;WIPE_END
G1 X102.264 Y114.382 Z.6
G1 Z.2
G1 E1.6 F1800
;WIDTH:0.504318
G1 F600
G1 X102.15 Y114.273 E.00572
G1 X102.142 Y114.1 E.00631
;WIDTH:0.548244
G1 X102.252 Y113.863 E.01045
;WIDTH:0.59217
G1 X102.362 Y113.626 E.01136
G1 X102.472 Y113.863 E.01136
;WIDTH:0.548228
G1 X102.582 Y114.1 E.01045
;WIDTH:0.504318
G1 X102.572 Y114.276 E.00643
G1 X102.445 Y114.394 E.0063
G1 X102.299 Y114.393 E.00531
G1 E-1.6 F2400
;WIPE_START
G1 F9000
G1 X102.15 Y114.273
G1 X102.142 Y114.1
G1 X102.252 Y113.863
G1 X102.362 Y113.626
G1 X102.472 Y113.863
G1 X102.582 Y114.1
G1 X102.572 Y114.276
G1 X102.445 Y114.394
G1 X102.299 Y114.393
;WIPE_END
G1 X98.268 Y114.215 Z.6
G1 Z.2
G1 E1.6 F1800
;WIDTH:0.504505
G1 F600
G1 X98.266 Y114.273 E.00213
G1 X98.14 Y114.393 E.00631
G1 X97.967 Y114.393 E.00631
G1 X97.842 Y114.273 E.00631
G1 X97.834 Y114.101 E.00631
;WIDTH:0.548337
G1 X97.944 Y113.863 E.01045
;WIDTH:0.592168
G1 X98.054 Y113.626 E.01136
G1 X98.164 Y113.863 E.01136
;WIDTH:0.548337
G1 X98.274 Y114.101 E.01045
;WIDTH:0.504505
G1 X98.27 Y114.175 E.00272
G1 E-1.6 F2400
;WIPE_START
G1 F9000
G1 X98.266 Y114.273
G1 X98.14 Y114.393
G1 X97.967 Y114.393
G1 X97.842 Y114.273
G1 X97.834 Y114.101
G1 X97.944 Y113.863
G1 X98.054 Y113.626
G1 X98.164 Y113.863
G1 X98.274 Y114.101
G1 X98.27 Y114.175
;WIPE_END
G1 X98.908 Y110.726 Z.6
G1 Z.2
G1 E1.6 F1800
;TYPE:Outer wall
;WIDTH:0.599999
G1 F600
G1 X98.882 Y110.726 E.00114
G1 X98.715 Y110.782 E.00775
G1 X98.604 Y111.005 E.01096
G1 X98.604 Y113.553 E.11214
G3 X98.798 Y114.118 I-3.527 J1.527 E.02631
G1 X98.733 Y114.487 E.01649
G1 X98.496 Y114.778 E.01649
G1 X98.149 Y114.917 E.01644
G1 X97.777 Y114.869 E.01653
G1 X97.475 Y114.647 E.01649
G1 X97.319 Y114.307 E.01649
G1 X97.329 Y114.026 E.01238
G1 X97.504 Y113.553 E.02217
G1 X97.504 Y104.626 E.39283
G1 X107.021 Y104.626 E.41878
M73 P4 R18
M73 P4 R18
G1 X107.021 Y113.409 E.38647
G3 X107.376 Y113.932 I-2.673 J2.196 E.02788
G1 X107.41 Y114.211 E.01237
G1 X107.35 Y114.486 E.01239
G1 X107.114 Y114.776 E.01644
G1 X106.766 Y114.917 E.01654
G1 X106.394 Y114.87 E.01649
G1 X106.092 Y114.648 E.01649
G1 X105.936 Y114.308 E.01644
G1 X105.946 Y114.024 E.0125
G1 X106.121 Y113.553 E.02211
G1 X106.121 Y111.005 E.11214
G1 X106.009 Y110.782 E.01096
G1 X105.842 Y110.726 E.00775
G2 X103.143 Y110.73 I-.936 J266.757 E.11879
G1 X102.993 Y110.809 E.00745
G1 X102.912 Y111.005 E.00932
G1 X102.912 Y113.553 E.11214
G3 X103.106 Y114.118 I-3.546 J1.534 E.02631
G1 X103.038 Y114.491 E.01669
G1 X102.805 Y114.777 E.01622
G1 X102.457 Y114.917 E.01653
G1 X102.085 Y114.869 E.01649
G1 X101.781 Y114.643 E.01669
G1 X101.627 Y114.307 E.01627
G1 X101.637 Y114.025 E.01238
G1 X101.812 Y113.553 E.02216
G1 X101.812 Y111.005 E.11214
G1 X101.732 Y110.809 E.00932
G2 X101.534 Y110.726 I-.198 J.196 E.0097
G1 X98.948 Y110.726 E.11377
G1 E-1.6 F2400
;WIPE_START
G1 F9000
G1 X98.882 Y110.726
G1 X98.715 Y110.782
G1 X98.604 Y111.005
G1 X98.604 Y112.514
;WIPE_END
G1 X106.103 Y111.093 Z.6
G1 X106.571 Y111.005 Z.6
G1 Z.2
G1 E1.6 F1800
;TYPE:Inner wall
;WIDTH:0.38584
G1 F600
G1 X106.571 Y113.346 E.06342
;WIDTH:0.396882
G1 X106.576 Y113.473 E.00355
G1 E-1.6 F2400
;WIPE_START
G1 F9000
G1 X106.571 Y113.346
G1 X106.571 Y111.473
;WIPE_END
G1 X102.362 Y113.626 Z.6
G1 Z.2
G1 E1.6 F1800
;WIDTH:0.59217
G1 F600
G1 X102.362 Y111.005 E.11371
G1 E-1.6 F2400
;WIPE_START
G1 F9000
G1 X102.362 Y113.005
;WIPE_END
G1 X98.054 Y113.626 Z.6
G1 Z.2
G1 E1.6 F1800
;WIDTH:0.592168
G1 F600
G1 X98.054 Y111.005 E.11371
G1 E-1.6 F2400
;WIPE_START
G1 F9000
G1 X98.054 Y113.005
;WIPE_END
G1 X98.757 Y108.292 Z.6
G1 Z.2
G1 E1.6 F1800
;TYPE:Bottom surface
;WIDTH:0.625705
G1 F1200
G1 X99.687 Y109.222 E.06054
G1 X100.511 Y109.222 E.03794
G1 X99.008 Y107.719 E.09787
G1 X99.008 Y106.895 E.03794
G1 X101.335 Y109.222 E.15153
G3 X101.97 Y109.276 I.103 J2.576 E.02939
G1 X102.358 Y109.421 E.01908
G1 X99.068 Y106.13 E.21422
G1 X99.892 Y106.13 E.03794
G1 X103.006 Y109.244 E.20273
G1 X103.184 Y109.222 E.00825
G1 X103.808 Y109.222 E.02874
G1 X100.716 Y106.13 E.20129
G1 X101.54 Y106.13 E.03794
G1 X104.632 Y109.222 E.20129
G1 X105.456 Y109.222 E.03794
G1 X102.365 Y106.13 E.20129
G1 X103.189 Y106.13 E.03794
G1 X105.516 Y108.458 E.15154
G1 X105.516 Y107.634 E.03794
G1 X104.013 Y106.13 E.09788
G1 X104.837 Y106.13 E.03794
G1 X105.767 Y107.06 E.06054
; stop printing object Porta Tubo (1) id:4675067366210535424 copy 0
;TIME_ELAPSED:58.537308

;LAYER_CHANGE
;Z:0.4
;HEIGHT:0.2
;BEFORE_LAYER_CHANGE
;0.4
G92 E0

G1 E-1.6 F2400
;WIPE_START
G1 F9000
G1 X104.837 Y106.13
G1 X104.152 Y106.13
;WIPE_END
;_SET_FAN_SPEED_CHANGING_LAYER
M204 P2500
; printing object Porta Tubo id:437700263266027024 copy 0
M204 T2500
G1 X110.242 Y110.731 Z.6
G1 X114.69 Y114.09 Z.6
M73 P5 R18
M73 P5 R18
G1 Z.4
G1 E1.6 F1800
M204 P2000
;TYPE:Inner wall
;WIDTH:0.439158
G1 F5400
G1 X114.698 Y114.061 E.00097
G1 X114.726 Y114.21 E.00475
;WIDTH:0.43467
G1 X114.871 Y114.548 E.01139
;WIDTH:0.427658
G1 X114.875 Y114.714 E.00504
G1 X114.747 Y114.819 E.00504
G1 X114.584 Y114.789 E.00504
G1 X114.506 Y114.643 E.00504
G1 X114.595 Y114.407 E.00764
;WIDTH:0.439158
G1 X114.678 Y114.129 E.00911
G1 E-1.6 F2400
;WIPE_START
G1 F9000
G1 X114.698 Y114.061
G1 X114.726 Y114.21
G1 X114.871 Y114.548
G1 X114.875 Y114.714
