;TIME:3458.87
;Filament used:4.58642m
;Layer height:0.200
; HEADER_BLOCK_START
; generated by Creality_Print V6.0.5.1840 on 2025-06-24 at 17:22:05
; total layer number: 53
; filament_density: 1.24
; filament_diameter: 1.75
; max_z_height: 10.60
; HEADER_BLOCK_END

; MINX = 74.00
; MINY = 82.15
; MINZ = 0.00
; MAXX = 146.00
; MAXY = 137.85
; MAXZ = 10.50

; THUMBNAIL_BLOCK_START

;
; THUMBNAIL_BLOCK_END

; THUMBNAIL_BLOCK_START

;
; THUMBNAIL_BLOCK_END

; external perimeters extrusion width = 0.42mm
; perimeters extrusion width = 0.45mm
; infill extrusion width = 0.45mm
; solid infill extrusion width = 0.42mm
; top infill extrusion width = 0.42mm
; support material extrusion width = 0.40mm
; first layer extrusion width = 0.60mm

; external perimeters extrusion width = 0.42mm
; perimeters extrusion width = 0.45mm
; infill extrusion width = 0.45mm
; solid infill extrusion width = 0.42mm
; top infill extrusion width = 0.42mm
; support material extrusion width = 0.40mm
; first layer extrusion width = 0.60mm

; external perimeters extrusion width = 0.42mm
; perimeters extrusion width = 0.45mm
; infill extrusion width = 0.45mm
; solid infill extrusion width = 0.42mm
; top infill extrusion width = 0.42mm
; support material extrusion width = 0.40mm
; first layer extrusion width = 0.60mm

; external perimeters extrusion width = 0.42mm
; perimeters extrusion width = 0.45mm
; infill extrusion width = 0.45mm
; solid infill extrusion width = 0.42mm
; top infill extrusion width = 0.42mm
; support material extrusion width = 0.40mm
; first layer extrusion width = 0.60mm

; external perimeters extrusion width = 0.42mm
; perimeters extrusion width = 0.45mm
; infill extrusion width = 0.45mm
; solid infill extrusion width = 0.42mm
; top infill extrusion width = 0.42mm
; support material extrusion width = 0.40mm
; first layer extrusion width = 0.60mm

; external perimeters extrusion width = 0.42mm
; perimeters extrusion width = 0.45mm
; infill extrusion width = 0.45mm
; solid infill extrusion width = 0.42mm
; top infill extrusion width = 0.42mm
; support material extrusion width = 0.40mm
; first layer extrusion width = 0.60mm

; EXECUTABLE_BLOCK_START
M73 P0 R57
M201 X5000 Y5000 Z500 E5000
M203 X500 Y500 Z30 E100
M204 P5000 R2500 T5000 ; sets acceleration (P, T) and retract acceleration (R), mm/sec^2
M205 X10.00 Y10.00 Z0.40 E5.00 ; sets the jerk limits, mm/sec
;TYPE:Custom
M220 S100 ;Reset Feedrate 
M221 S100 ;Reset Flowrate 
 
M140 S75 ;Set final bed temp 
G28 ;Home 
 
G92 E0 ;Reset Extruder 
G1 Z2.0 F3000 ;Move Z Axis up 
M104 S200 ;Set final nozzle temp 
G1 X-2.1 Y20 Z0.28 F5000.0 ;Move to start position 
M190 S75 ;Wait for bed temp to stabilize 
M109 S200 ;Wait for nozzle temp to stabilize 
G1 X-2.1 Y145.0 Z0.28 F1500.0 E15 ;Draw the first line 
G1 X-2.4 Y145.0 Z0.28 F5000.0 ;Move to side a little 
G1 X-2.4 Y20 Z0.28 F1500.0 E30 ;Draw the second line 
G92 E0  ;Reset Extruder 
G1 E-1.0000 F1800 ;Retract a bit 
G1 Z2.0 F3000 ;Move Z Axis up 
G1 E0.0000 F1800
G90
G21
M83 ; use relative distances for extrusion
" "
G1 E-1.6 F2400
M106 S0
;LAYER_CHANGE
;Z:0.2
;HEIGHT:0.2
;BEFORE_LAYER_CHANGE
;0.2
G92 E0

;_SET_FAN_SPEED_CHANGING_LAYER
M204 P125
M205 X10 Y10
; printing object Separatore id:5880101982426386839 copy 0
M204 T125
G1 Z.4 F9000
G1 X87.648 Y136.286
G1 Z.2
G1 E1.6 F1800
;TYPE:Inner wall
;WIDTH:0.599999
G1 F600
G1 X75.564 Y136.286 E.53175
G1 X75.564 Y117.564 E.82385
G1 X88.436 Y117.564 E.56642
G1 X88.436 Y136.286 E.82385
G1 X87.688 Y136.286 E.03291
G1 X88.393 Y136.843 F9000
G1 F600
G1 X75.007 Y136.843 E.58905
G1 X75.007 Y117.007 E.87288
G1 X88.993 Y117.007 E.61545
G1 X88.993 Y136.843 E.87288
G1 X88.433 Y136.843 E.02464
G1 E-1.6 F2400
;WIPE_START
G1 F9000
G1 X86.433 Y136.843
;WIPE_END
G1 X89.55 Y137.4 Z.6
G1 Z.2
G1 E1.6 F1800
;TYPE:Outer wall
G1 F600
G1 X74.45 Y137.4 E.66448
G1 X74.45 Y116.45 E.92191
G1 X89.55 Y116.45 E.66448
G1 X89.55 Y137.36 E.92015
G1 E-1.6 F2400
;WIPE_START
G1 F9000
G1 X87.55 Y137.365
;WIPE_END
G1 Z.6
G1 X75.703 Y135.004
G1 Z.6
M73 P1 R57
M73 P1 R57
G1 Z.2
G1 E1.6 F1800
;TYPE:Bottom surface
;WIDTH:0.607657
G1 F1200
G1 X76.595 Y135.896 E.05625
G1 X77.394 Y135.896 E.03563
G1 X75.954 Y134.456 E.09082
G1 X75.954 Y133.658 E.03563
G1 X78.192 Y135.896 E.1412
G1 X78.991 Y135.896 E.03563
G1 X75.954 Y132.859 E.19159
G1 X75.954 Y132.06 E.03563
G1 X79.79 Y135.896 E.24197
G1 X80.588 Y135.896 E.03563
G1 X75.954 Y131.262 E.29236
G1 X75.954 Y130.463 E.03563
G1 X81.387 Y135.896 E.34275
G1 X82.186 Y135.896 E.03563
G1 X75.954 Y129.664 E.39313
G1 X75.954 Y128.866 E.03563
G1 X82.984 Y135.896 E.44352
G1 X83.783 Y135.896 E.03563
G1 X75.954 Y128.067 E.49391
G1 X75.954 Y127.268 E.03563
G1 X84.582 Y135.896 E.54429
G1 X85.38 Y135.896 E.03563
M73 P1 R56
M73 P1 R56
G1 X75.954 Y126.47 E.59468
G1 X75.954 Y125.671 E.03563
G1 X86.179 Y135.896 E.64506
G1 X86.978 Y135.896 E.03563
G1 X75.954 Y124.872 E.69545
G1 X75.954 Y124.074 E.03563
G1 X87.776 Y135.896 E.74584
G1 X88.046 Y135.896 E.01203
G1 X88.046 Y135.367 E.0236
G1 X75.954 Y123.275 E.76285
G1 X75.954 Y122.476 E.03563
G1 X88.046 Y134.568 E.76285
G1 X88.046 Y133.77 E.03563
G1 X75.954 Y121.678 E.76285
G1 X75.954 Y120.879 E.03563
G1 X88.046 Y132.971 E.76285
G1 X88.046 Y132.172 E.03563
G1 X75.954 Y120.081 E.76285
G1 X75.954 Y119.282 E.03563
G1 X88.046 Y131.374 E.76285
G1 X88.046 Y130.575 E.03563
G1 X75.954 Y118.483 E.76285
G1 X75.954 Y117.954 E.0236
G1 X76.224 Y117.954 E.01203
G1 X88.046 Y129.776 E.74584
G1 X88.046 Y128.978 E.03563
G1 X77.022 Y117.954 E.69546
G1 X77.821 Y117.954 E.03563
G1 X88.046 Y128.179 E.64507
G1 X88.046 Y127.38 E.03563
G1 X78.62 Y117.954 E.59468
G1 X79.418 Y117.954 E.03563
G1 X88.046 Y126.582 E.5443
G1 X88.046 Y125.783 E.03563
G1 X80.217 Y117.954 E.49391
G1 X81.016 Y117.954 E.03563
G1 X88.046 Y124.984 E.44353
G1 X88.046 Y124.186 E.03563
G1 X81.814 Y117.954 E.39314
G1 X82.613 Y117.954 E.03563
G1 X88.046 Y123.387 E.34275
G1 X88.046 Y122.588 E.03563
G1 X83.412 Y117.954 E.29237
G1 X84.21 Y117.954 E.03563
G1 X88.046 Y121.79 E.24198
G1 X88.046 Y120.991 E.03563
G1 X85.009 Y117.954 E.1916
G1 X85.808 Y117.954 E.03563
G1 X88.046 Y120.192 E.14121
G1 X88.046 Y119.394 E.03563
G1 X86.606 Y117.954 E.09082
G1 X87.405 Y117.954 E.03563
G1 X88.297 Y118.846 E.05625
; stop printing object Separatore id:5880101982426386839 copy 0
; printing object Separatore id:6785339320353447463 copy 0
G1 E-1.6 F2400
;WIPE_START
G1 F9000
G1 X87.405 Y117.954
G1 X86.666 Y117.954
;WIPE_END
G1 X93.116 Y122.034 Z.6
G1 X115.648 Y136.286 Z.6
G1 Z.2
G1 E1.6 F1800
;TYPE:Inner wall
;WIDTH:0.599999
G1 F600
G1 X103.564 Y136.286 E.53175
G1 X103.564 Y117.564 E.82385
G1 X116.436 Y117.564 E.56642
G1 X116.436 Y136.286 E.82385
G1 X115.688 Y136.286 E.03291
G1 X116.393 Y136.843 F9000
G1 F600
G1 X103.007 Y136.843 E.58905
G1 X103.007 Y117.007 E.87288
G1 X116.993 Y117.007 E.61545
G1 X116.993 Y136.843 E.87288
M73 P2 R56
M73 P2 R56
G1 X116.433 Y136.843 E.02464
G1 E-1.6 F2400
;WIPE_START
G1 F9000
G1 X114.433 Y136.843
;WIPE_END
G1 X117.55 Y137.4 Z.6
G1 Z.2
G1 E1.6 F1800
;TYPE:Outer wall
G1 F600
G1 X102.45 Y137.4 E.66448
G1 X102.45 Y116.45 E.92191
G1 X117.55 Y116.45 E.66448
G1 X117.55 Y137.36 E.92015
G1 E-1.6 F2400
;WIPE_START
G1 F9000
G1 X115.55 Y137.365
;WIPE_END
G1 X108.065 Y135.874 Z.6
G1 X103.703 Y135.004 Z.6
G1 Z.2
G1 E1.6 F1800
;TYPE:Bottom surface
;WIDTH:0.607657
G1 F1200
G1 X104.595 Y135.896 E.05625
G1 X105.394 Y135.896 E.03563
G1 X103.954 Y134.456 E.09082
G1 X103.954 Y133.658 E.03563
G1 X106.192 Y135.896 E.1412
G1 X106.991 Y135.896 E.03563
G1 X103.954 Y132.859 E.19159
G1 X103.954 Y132.06 E.03563
G1 X107.79 Y135.896 E.24197
G1 X108.588 Y135.896 E.03563
G1 X103.954 Y131.262 E.29236
G1 X103.954 Y130.463 E.03563
G1 X109.387 Y135.896 E.34275
G1 X110.186 Y135.896 E.03563
G1 X103.954 Y129.664 E.39313
G1 X103.954 Y128.866 E.03563
G1 X110.984 Y135.896 E.44352
G1 X111.783 Y135.896 E.03563
G1 X103.954 Y128.067 E.49391
G1 X103.954 Y127.268 E.03563
G1 X112.582 Y135.896 E.54429
G1 X113.38 Y135.896 E.03563
G1 X103.954 Y126.47 E.59468
G1 X103.954 Y125.671 E.03563
G1 X114.179 Y135.896 E.64506
G1 X114.978 Y135.896 E.03563
G1 X103.954 Y124.872 E.69545
G1 X103.954 Y124.074 E.03563
G1 X115.776 Y135.896 E.74584
G1 X116.046 Y135.896 E.01203
G1 X116.046 Y135.367 E.0236
G1 X103.954 Y123.275 E.76285
G1 X103.954 Y122.476 E.03563
G1 X116.046 Y134.568 E.76285
G1 X116.046 Y133.77 E.03563
G1 X103.954 Y121.678 E.76285
G1 X103.954 Y120.879 E.03563
G1 X116.046 Y132.971 E.76285
G1 X116.046 Y132.172 E.03563
G1 X103.954 Y120.081 E.76285
G1 X103.954 Y119.282 E.03563
G1 X116.046 Y131.374 E.76285
G1 X116.046 Y130.575 E.03563
G1 X103.954 Y118.483 E.76285
G1 X103.954 Y117.954 E.0236
G1 X104.224 Y117.954 E.01203
G1 X116.046 Y129.776 E.74584
G1 X116.046 Y128.978 E.03563
G1 X105.022 Y117.954 E.69546
G1 X105.821 Y117.954 E.03563
G1 X116.046 Y128.179 E.64507
G1 X116.046 Y127.38 E.03563
G1 X106.62 Y117.954 E.59468
G1 X107.418 Y117.954 E.03563
G1 X116.046 Y126.582 E.5443
G1 X116.046 Y125.783 E.03563
M73 P2 R55
M73 P2 R55
G1 X108.217 Y117.954 E.49391
G1 X109.016 Y117.954 E.03563
G1 X116.046 Y124.984 E.44353
G1 X116.046 Y124.186 E.03563
G1 X109.814 Y117.954 E.39314
G1 X110.613 Y117.954 E.03563
G1 X116.046 Y123.387 E.34275
G1 X116.046 Y122.588 E.03563
G1 X111.412 Y117.954 E.29237
G1 X112.21 Y117.954 E.03563
G1 X116.046 Y121.79 E.24198
G1 X116.046 Y120.991 E.03563
G1 X113.009 Y117.954 E.1916
G1 X113.808 Y117.954 E.03563
G1 X116.046 Y120.192 E.14121
G1 X116.046 Y119.394 E.03563
G1 X114.606 Y117.954 E.09082
G1 X115.405 Y117.954 E.03563
G1 X116.297 Y118.846 E.05625
; stop printing object Separatore id:6785339320353447463 copy 0
; printing object Separatore id:6332720651389917151 copy 0
G1 E-1.6 F2400
;WIPE_START
G1 F9000
M73 P3 R55
M73 P3 R55
G1 X115.405 Y117.954
G1 X114.666 Y117.954
;WIPE_END
G1 X121.116 Y122.034 Z.6
G1 X143.648 Y136.286 Z.6
G1 Z.2
G1 E1.6 F1800
;TYPE:Inner wall
;WIDTH:0.599999
G1 F600
G1 X131.564 Y136.286 E.53175
G1 X131.564 Y117.564 E.82385
G1 X144.436 Y117.564 E.56642
G1 X144.436 Y136.286 E.82385
G1 X143.688 Y136.286 E.03291
G1 X144.393 Y136.843 F9000
G1 F600
G1 X131.007 Y136.843 E.58905
G1 X131.007 Y117.007 E.87288
G1 X144.993 Y117.007 E.61545
G1 X144.993 Y136.843 E.87288
G1 X144.433 Y136.843 E.02464
G1 E-1.6 F2400
;WIPE_START
G1 F9000
G1 X142.433 Y136.843
;WIPE_END
G1 X145.55 Y137.4 Z.6
G1 Z.2
G1 E1.6 F1800
;TYPE:Outer wall
G1 F600
G1 X130.45 Y137.4 E.66448
G1 X130.45 Y116.45 E.92191
G1 X145.55 Y116.45 E.66448
G1 X145.55 Y137.36 E.92015
G1 E-1.6 F2400
;WIPE_START
G1 F9000
G1 X143.55 Y137.365
;WIPE_END
G1 X136.065 Y135.874 Z.6
G1 X131.703 Y135.004 Z.6
G1 Z.2
G1 E1.6 F1800
;TYPE:Bottom surface
;WIDTH:0.607657
G1 F1200
G1 X132.595 Y135.896 E.05625
G1 X133.394 Y135.896 E.03563
G1 X131.954 Y134.456 E.09082
G1 X131.954 Y133.658 E.03563
G1 X134.192 Y135.896 E.1412
G1 X134.991 Y135.896 E.03563
G1 X131.954 Y132.859 E.19159
G1 X131.954 Y132.06 E.03563
G1 X135.79 Y135.896 E.24197
G1 X136.588 Y135.896 E.03563
G1 X131.954 Y131.262 E.29236
G1 X131.954 Y130.463 E.03563
G1 X137.387 Y135.896 E.34275
G1 X138.186 Y135.896 E.03563
G1 X131.954 Y129.664 E.39313
G1 X131.954 Y128.866 E.03563
G1 X138.984 Y135.896 E.44352
G1 X139.783 Y135.896 E.03563
G1 X131.954 Y128.067 E.49391
G1 X131.954 Y127.268 E.03563
G1 X140.582 Y135.896 E.54429
G1 X141.38 Y135.896 E.03563
G1 X131.954 Y126.47 E.59468
G1 X131.954 Y125.671 E.03563
G1 X142.179 Y135.896 E.64506
G1 X142.978 Y135.896 E.03563
G1 X131.954 Y124.872 E.69545
G1 X131.954 Y124.074 E.03563
G1 X143.776 Y135.896 E.74584
G1 X144.046 Y135.896 E.01203
G1 X144.046 Y135.367 E.0236
G1 X131.954 Y123.275 E.76285
G1 X131.954 Y122.476 E.03563
G1 X144.046 Y134.568 E.76285
G1 X144.046 Y133.77 E.03563
G1 X131.954 Y121.678 E.76285
G1 X131.954 Y120.879 E.03563
G1 X144.046 Y132.971 E.76285
G1 X144.046 Y132.172 E.03563
M73 P4 R55
M73 P4 R55
G1 X131.954 Y120.081 E.76285
G1 X131.954 Y119.282 E.03563
G1 X144.046 Y131.374 E.76285
G1 X144.046 Y130.575 E.03563
G1 X131.954 Y118.483 E.76285
G1 X131.954 Y117.954 E.0236
G1 X132.224 Y117.954 E.01203
G1 X144.046 Y129.776 E.74584
G1 X144.046 Y128.978 E.03563
G1 X133.022 Y117.954 E.69546
G1 X133.821 Y117.954 E.03563
G1 X144.046 Y128.179 E.64507
G1 X144.046 Y127.38 E.03563
G1 X134.62 Y117.954 E.59468
G1 X135.418 Y117.954 E.03563
G1 X144.046 Y126.582 E.5443
G1 X144.046 Y125.783 E.03563
G1 X136.217 Y117.954 E.49391
G1 X137.016 Y117.954 E.03563
G1 X144.046 Y124.984 E.44353
G1 X144.046 Y124.186 E.03563
G1 X137.814 Y117.954 E.39314
G1 X138.613 Y117.954 E.03563
G1 X144.046 Y123.387 E.34275
G1 X144.046 Y122.588 E.03563
G1 X139.412 Y117.954 E.29237
G1 X140.21 Y117.954 E.03563
G1 X144.046 Y121.79 E.24198
G1 X144.046 Y120.991 E.03563
G1 X141.009 Y117.954 E.1916
G1 X141.808 Y117.954 E.03563
G1 X144.046 Y120.192 E.14121
G1 X144.046 Y119.394 E.03563
G1 X142.606 Y117.954 E.09082
G1 X143.405 Y117.954 E.03563
G1 X144.297 Y118.846 E.05625
; stop printing object Separatore id:6332720651389917151 copy 0
; printing object Separatore id:7237957989316977775 copy 0
G1 E-1.6 F2400
;WIPE_START
G1 F9000
G1 X143.405 Y117.954
G1 X142.666 Y117.954
;WIPE_END
G1 X143.148 Y110.337 Z.6
G1 X143.648 Y102.436 Z.6
G1 Z.2
G1 E1.6 F1800
;TYPE:Inner wall
;WIDTH:0.599999
G1 F600
G1 X131.564 Y102.436 E.53175
G1 X131.564 Y83.714 E.82385
G1 X144.436 Y83.714 E.56642
G1 X144.436 Y102.436 E.82385
G1 X143.688 Y102.436 E.03291
G1 X144.393 Y102.993 F9000
G1 F600
G1 X131.007 Y102.993 E.58905
G1 X131.007 Y83.157 E.87288
G1 X144.993 Y83.157 E.61545
M73 P4 R54
M73 P4 R54
G1 X144.993 Y102.993 E.87288
G1 X144.433 Y102.993 E.02464
G1 E-1.6 F2400
;WIPE_START
G1 F9000
G1 X142.433 Y102.993
;WIPE_END
G1 X145.55 Y103.55 Z.6
G1 Z.2
G1 E1.6 F1800
;TYPE:Outer wall
G1 F600
G1 X130.45 Y103.55 E.66448
G1 X130.45 Y82.6 E.92191
G1 X145.55 Y82.6 E.66448
G1 X145.55 Y103.51 E.92015
G1 E-1.6 F2400
;WIPE_START
G1 F9000
G1 X143.55 Y103.515
;WIPE_END
G1 X136.065 Y102.024 Z.6
G1 X131.703 Y101.154 Z.6
G1 Z.2
M73 P5 R54
M73 P5 R54
G1 E1.6 F1800
;TYPE:Bottom surface
;WIDTH:0.607657
G1 F1200
G1 X132.595 Y102.046 E.05625
G1 X133.394 Y102.046 E.03563
G1 X131.954 Y100.606 E.09082
G1 X131.954 Y99.808 E.03563
G1 X134.192 Y102.046 E.1412
G1 X134.991 Y102.046 E.03563
G1 X131.954 Y99.009 E.19159
G1 X131.954 Y98.21 E.03563
G1 X135.79 Y102.046 E.24197
G1 X136.588 Y102.046 E.03563
G1 X131.954 Y97.412 E.29236
G1 X131.954 Y96.613 E.03563
G1 X137.387 Y102.046 E.34275
G1 X138.186 Y102.046 E.03563
G1 X131.954 Y95.814 E.39313
G1 X131.954 Y95.016 E.03563
G1 X138.984 Y102.046 E.44352
G1 X139.783 Y102.046 E.03563
G1 X131.954 Y94.217 E.49391
G1 X131.954 Y93.418 E.03563
G1 X140.582 Y102.046 E.54429
G1 X141.38 Y102.046 E.03563
G1 X131.954 Y92.62 E.59468
G1 X131.954 Y91.821 E.03563
G1 X142.179 Y102.046 E.64506
G1 X142.978 Y102.046 E.03563
G1 X131.954 Y91.022 E.69545
G1 X131.954 Y90.224 E.03563
G1 X143.776 Y102.046 E.74584
G1 X144.046 Y102.046 E.01203
G1 X144.046 Y101.517 E.0236
G1 X131.954 Y89.425 E.76285
G1 X131.954 Y88.626 E.03563
G1 X144.046 Y100.718 E.76285
G1 X144.046 Y99.92 E.03563
G1 X131.954 Y87.828 E.76285
G1 X131.954 Y87.029 E.03563
G1 X144.046 Y99.121 E.76285
G1 X144.046 Y98.322 E.03563
G1 X131.954 Y86.231 E.76285
G1 X131.954 Y85.432 E.03563
G1 X144.046 Y97.524 E.76285
G1 X144.046 Y96.725 E.03563
G1 X131.954 Y84.633 E.76285
G1 X131.954 Y84.104 E.0236
G1 X132.224 Y84.104 E.01203
G1 X144.046 Y95.926 E.74584
G1 X144.046 Y95.128 E.03563
G1 X133.022 Y84.104 E.69546
G1 X133.821 Y84.104 E.03563
G1 X144.046 Y94.329 E.64507
G1 X144.046 Y93.53 E.03563
G1 X134.62 Y84.104 E.59468
G1 X135.418 Y84.104 E.03563
G1 X144.046 Y92.732 E.5443
G1 X144.046 Y91.933 E.03563
G1 X136.217 Y84.104 E.49391
G1 X137.016 Y84.104 E.03563
G1 X144.046 Y91.134 E.44353
G1 X144.046 Y90.336 E.03563
G1 X137.814 Y84.104 E.39314
G1 X138.613 Y84.104 E.03563
G1 X144.046 Y89.537 E.34275
G1 X144.046 Y88.738 E.03563
G1 X139.412 Y84.104 E.29237
G1 X140.21 Y84.104 E.03563
G1 X144.046 Y87.94 E.24198
G1 X144.046 Y87.141 E.03563
G1 X141.009 Y84.104 E.1916
G1 X141.808 Y84.104 E.03563
G1 X144.046 Y86.342 E.14121
G1 X144.046 Y85.544 E.03563
G1 X142.606 Y84.104 E.09082
G1 X143.405 Y84.104 E.03563
G1 X144.297 Y84.996 E.05625
