;TIME:4288.03
;Filament used:8.42073m
;Layer height:0.200
; HEADER_BLOCK_START
; generated by Creality_Print V6.0.5.1840 on 2025-06-30 at 17:23:26
; total layer number: 29
; filament_density: 1.24
; filament_diameter: 1.75
; max_z_height: 5.80
; HEADER_BLOCK_END

; MINX = 57.00
; MINY = 65.20
; MINZ = 0.00
; MAXX = 163.00
; MAXY = 154.80
; MAXZ = 5.75

; THUMBNAIL_BLOCK_START

;
; THUMBNAIL_BLOCK_END

; THUMBNAIL_BLOCK_START

;
; THUMBNAIL_BLOCK_END

; external perimeters extrusion width = 0.42mm
; perimeters extrusion width = 0.45mm
; infill extrusion width = 0.45mm
; solid infill extrusion width = 0.42mm
; top infill extrusion width = 0.42mm
; support material extrusion width = 0.40mm
; first layer extrusion width = 0.60mm

; EXECUTABLE_BLOCK_START
M73 P0 R71
M201 X5000 Y5000 Z500 E5000
M203 X500 Y500 Z30 E100
M204 P5000 R2500 T5000 ; sets acceleration (P, T) and retract acceleration (R), mm/sec^2
M205 X10.00 Y10.00 Z0.40 E5.00 ; sets the jerk limits, mm/sec
;TYPE:Custom
M220 S100 ;Reset Feedrate 
M221 S100 ;Reset Flowrate 
 
M140 S75 ;Set final bed temp 
G28 ;Home 
 
G92 E0 ;Reset Extruder 
G1 Z2.0 F3000 ;Move Z Axis up 
M104 S200 ;Set final nozzle temp 
G1 X-2.1 Y20 Z0.28 F5000.0 ;Move to start position 
M190 S75 ;Wait for bed temp to stabilize 
M109 S200 ;Wait for nozzle temp to stabilize 
G1 X-2.1 Y145.0 Z0.28 F1500.0 E15 ;Draw the first line 
G1 X-2.4 Y145.0 Z0.28 F5000.0 ;Move to side a little 
G1 X-2.4 Y20 Z0.28 F1500.0 E30 ;Draw the second line 
G92 E0  ;Reset Extruder 
G1 E-1.0000 F1800 ;Retract a bit 
G1 Z2.0 F3000 ;Move Z Axis up 
G1 E0.0000 F1800
G90
G21
M83 ; use relative distances for extrusion
" "
G1 E-1.6 F2400
M106 S0
;LAYER_CHANGE
;Z:0.2
;HEIGHT:0.2
;BEFORE_LAYER_CHANGE
;0.2
G92 E0

;_SET_FAN_SPEED_CHANGING_LAYER
M204 P125
M205 X10 Y10
; printing object Lateral Cassa Armonica id:18446744070465555623 copy 0
M204 T125
G1 Z.4 F9000
G1 X95.251 Y143.436
G1 Z.2
G1 E1.6 F1800
;TYPE:Inner wall
;WIDTH:0.599999
G1 F600
G1 X75.819 Y143.436 E.85512
G1 X75.373 Y143.534 E.02009
G1 X74.99 Y143.762 E.01963
G1 X74.731 Y144.05 E.01702
G1 X74.511 Y144.507 E.02234
G1 X74.414 Y144.885 E.01714
G1 X74.453 Y145.402 E.02286
G1 X74.579 Y145.714 E.01477
G1 X74.814 Y146.026 E.01719
G1 X77.23 Y148.438 E.15024
G1 X62.564 Y148.436 E.64537
G1 X62.564 Y146.529 E.08394
G1 X62.506 Y146.129 E.01776
G1 X62.287 Y145.694 E.02143
G1 X62.055 Y145.475 E.01402
G1 X62.287 Y145.256 E.01402
G1 X62.476 Y144.909 E.01737
G1 X62.564 Y144.421 E.02182
G1 X62.564 Y119.529 E1.09542
G1 X62.515 Y119.163 E.01623
G1 X62.323 Y118.745 E.02023
G1 X62.062 Y118.475 E.01652
G1 X62.323 Y118.205 E.01652
G1 X62.49 Y117.87 E.01647
G1 X62.564 Y117.421 E.02
G1 X62.564 Y113.879 E.15591
G1 X62.518 Y113.524 E.01575
G1 X62.334 Y113.112 E.01982
G1 X62.066 Y112.825 E.01732
G1 X62.334 Y112.538 E.01732
G1 X62.494 Y112.207 E.01615
G1 X62.564 Y111.771 E.01942
G1 X62.564 Y108.229 E.15591
G1 X62.519 Y107.876 E.01566
G1 X62.336 Y107.465 E.01975
G1 X62.066 Y107.175 E.01745
G1 X62.336 Y106.885 E.01745
G1 X62.495 Y106.555 E.0161
G1 X62.564 Y106.121 E.01932
G1 X62.564 Y102.579 E.15591
G1 X62.516 Y102.217 E.01606
G1 X62.327 Y101.801 E.02009
G1 X62.064 Y101.525 E.01681
G1 X62.327 Y101.249 E.01681
G1 X62.492 Y100.915 E.01635
G1 X62.564 Y100.471 E.01979
G1 X62.564 Y75.579 E1.09542
G1 X62.506 Y75.179 E.01776
G1 X62.287 Y74.744 E.02143
G1 X62.055 Y74.525 E.01402
G1 X62.287 Y74.306 E.01402
G1 X62.476 Y73.959 E.01737
G1 X62.564 Y73.471 E.02182
G1 X62.564 Y71.564 E.08393
G1 X81.49 Y71.564 E.83283
G1 X81.946 Y71.452 E.02067
G1 X82.329 Y71.207 E.01998
G1 X82.598 Y70.878 E.01871
G2 X82.872 Y70.081 I-1.996 J-1.134 E.03731
G1 X82.841 Y69.644 E.0193
G1 X82.718 Y69.311 E.01561
G1 X82.469 Y68.974 E.01842
G1 X80.254 Y66.762 E.13777
G1 X91.744 Y66.764 E.50561
G1 X89.531 Y68.974 E.13765
M73 P0 R70
M73 P0 R70
G1 X89.282 Y69.311 E.01842
G2 X89.149 Y70.231 I1.383 J.67 E.04157
G1 X89.316 Y70.704 E.02207
G1 X89.496 Y71.016 E.01584
G1 X89.816 Y71.321 E.01945
G1 X90.166 Y71.494 E.0172
G1 X90.603 Y71.564 E.01944
G1 X127.228 Y71.564 E1.6117
G1 X124.814 Y73.974 E.15011
G1 X124.575 Y74.294 E.01757
G1 X124.449 Y74.612 E.01503
G1 X124.416 Y75.136 E.02311
G1 X124.511 Y75.493 E.01624
G1 X124.766 Y76 E.025
G1 X125.041 Y76.279 E.01723
G1 X125.437 Y76.49 E.01975
G1 X125.885 Y76.564 E.01999
G1 X146.181 Y76.564 E.89313
G1 X146.627 Y76.466 E.02009
G1 X147.01 Y76.238 E.01963
G1 X147.269 Y75.95 E.01702
G1 X147.489 Y75.493 E.02234
G1 X147.586 Y75.116 E.01714
G1 X147.547 Y74.598 E.02286
G1 X147.421 Y74.286 E.01477
G1 X147.186 Y73.974 E.0172
G1 X144.771 Y71.563 E.15019
G1 X159.436 Y71.564 E.64533
G1 X159.436 Y73.471 E.08394
G1 X159.494 Y73.871 E.01776
G1 X159.713 Y74.306 E.02143
G1 X159.945 Y74.525 E.01402
G1 X159.713 Y74.744 E.01402
G1 X159.524 Y75.091 E.01737
G1 X159.436 Y75.579 E.02182
G1 X159.436 Y100.471 E1.09542
G1 X159.485 Y100.837 E.01623
G1 X159.677 Y101.255 E.02023
G1 X159.938 Y101.525 E.01652
G1 X159.677 Y101.795 E.01652
G1 X159.51 Y102.13 E.01647
G1 X159.436 Y102.579 E.02
G1 X159.436 Y106.121 E.15591
G1 X159.482 Y106.476 E.01575
G1 X159.666 Y106.888 E.01982
G1 X159.934 Y107.175 E.01732
G1 X159.666 Y107.462 E.01732
G1 X159.506 Y107.793 E.01615
G1 X159.436 Y108.229 E.01942
G1 X159.436 Y111.771 E.15591
G1 X159.481 Y112.124 E.01566
G1 X159.664 Y112.535 E.01975
G1 X159.934 Y112.825 E.01745
G1 X159.664 Y113.115 E.01745
G1 X159.505 Y113.445 E.0161
G1 X159.436 Y113.879 E.01932
G1 X159.436 Y117.421 E.15591
G1 X159.484 Y117.783 E.01606
G1 X159.673 Y118.199 E.02009
G1 X159.936 Y118.475 E.01681
G1 X159.673 Y118.751 E.01681
G1 X159.508 Y119.085 E.01635
M73 P1 R70
M73 P1 R70
G1 X159.436 Y119.529 E.01979
G1 X159.436 Y144.421 E1.09542
G1 X159.494 Y144.821 E.01776
G1 X159.713 Y145.256 E.02143
G1 X159.945 Y145.475 E.01402
G1 X159.713 Y145.694 E.01402
G1 X159.524 Y146.041 E.01737
G1 X159.436 Y146.529 E.02182
G1 X159.436 Y148.436 E.08393
G1 X140.603 Y148.436 E.82876
G1 X140.226 Y148.488 E.01675
G1 X139.816 Y148.679 E.01989
G1 X139.496 Y148.984 E.01945
G1 X139.316 Y149.296 E.01584
G1 X139.149 Y149.769 E.02207
G2 X139.282 Y150.689 I1.516 J.25 E.04157
G1 X139.531 Y151.026 E.01842
G1 X141.746 Y153.238 E.13777
G1 X130.256 Y153.236 E.50561
G1 X132.469 Y151.026 E.13765
G1 X132.718 Y150.689 E.01842
G2 X132.851 Y149.769 I-1.383 J-.67 E.04157
G1 X132.684 Y149.296 E.02207
G1 X132.504 Y148.984 E.01584
G1 X132.184 Y148.679 E.01945
G1 X131.834 Y148.506 E.0172
G1 X131.397 Y148.436 E.01944
G1 X94.772 Y148.436 E1.6117
G1 X97.186 Y146.026 E.15011
G1 X97.425 Y145.706 E.01757
G1 X97.551 Y145.388 E.01503
G1 X97.584 Y144.864 E.02311
G1 X97.489 Y144.507 E.01624
G1 X97.234 Y144 E.025
G1 X96.959 Y143.721 E.01723
G1 X96.563 Y143.51 E.01975
G1 X96.115 Y143.436 E.01999
G1 X95.291 Y143.436 E.03625
G1 X95.759 Y143.993 F9000
G1 F600
G1 X75.844 Y143.993 E.87636
G1 X75.521 Y144.077 E.01473
G1 X75.241 Y144.297 E.01566
G1 X75.021 Y144.733 E.02148
G1 X74.964 Y145.09 E.01591
G1 X75.066 Y145.444 E.01625
G1 X75.207 Y145.632 E.01032
G1 X78.267 Y148.687 E.19029
G1 X78.636 Y149.03 E.02214
G1 X78.074 Y148.995 E.02476
G1 X62.007 Y148.993 E.70703
G1 X62.007 Y146.379 E.11505
G1 X61.841 Y146.028 E.01708
G1 X61.636 Y145.834 E.01242
G1 X61.404 Y145.779 E.0105
;WIDTH:0.56969
G1 X61.171 Y145.723 E.00993
;WIDTH:0.53938
G1 X57.977 Y145.723 E.12529
G1 X57.977 Y145.227 E.01947
G1 X61.171 Y145.227 E.12529
;WIDTH:0.56969
G1 X61.404 Y145.171 E.00993
;WIDTH:0.599999
G1 X61.636 Y145.116 E.0105
G2 X61.919 Y144.794 I-.464 J-.695 E.01908
G1 X62.007 Y144.421 E.01686
G1 X62.007 Y119.529 E1.09542
G1 X61.932 Y119.183 E.01554
G1 X61.666 Y118.855 E.01859
G1 X61.419 Y118.789 E.01127
;WIDTH:0.56969
G1 X61.171 Y118.723 E.01066
;WIDTH:0.539381
G1 X57.977 Y118.723 E.12529
G1 X57.977 Y118.227 E.01947
G1 X61.171 Y118.227 E.12529
;WIDTH:0.56969
G1 X61.419 Y118.161 E.01066
;WIDTH:0.599999
G1 X61.666 Y118.095 E.01127
G1 X61.932 Y117.767 E.01859
G1 X62.007 Y117.421 E.01554
G1 X62.007 Y113.879 E.15591
G1 X61.937 Y113.543 E.01511
G1 X61.677 Y113.213 E.01847
G1 X61.424 Y113.143 E.01153
;WIDTH:0.56969
G1 X61.171 Y113.073 E.01091
;WIDTH:0.53938
G1 X57.977 Y113.073 E.12529
G1 X57.977 Y112.577 E.01947
G1 X61.171 Y112.577 E.12529
;WIDTH:0.56969
G1 X61.424 Y112.507 E.01091
;WIDTH:0.599999
G1 X61.677 Y112.437 E.01153
G1 X61.937 Y112.107 E.01847
G1 X62.007 Y111.771 E.01511
G1 X62.007 Y108.229 E.15591
G1 X61.937 Y107.894 E.01503
G1 X61.678 Y107.564 E.01845
G1 X61.425 Y107.494 E.01158
;WIDTH:0.56969
G1 X61.171 Y107.423 E.01095
;WIDTH:0.539381
G1 X57.977 Y107.423 E.12529
G1 X57.977 Y106.927 E.01947
G1 X61.171 Y106.927 E.12529
;WIDTH:0.56969
G1 X61.425 Y106.856 E.01095
;WIDTH:0.599999
G1 X61.678 Y106.786 E.01158
G1 X61.937 Y106.456 E.01845
G1 X62.007 Y106.121 E.01503
G1 X62.007 Y102.579 E.15591
G1 X61.934 Y102.237 E.01538
G1 X61.67 Y101.908 E.01855
G1 X61.421 Y101.841 E.01136
;WIDTH:0.56969
G1 X61.171 Y101.773 E.01075
;WIDTH:0.539381
G1 X57.977 Y101.773 E.12529
G1 X57.977 Y101.277 E.01947
G1 X61.171 Y101.277 E.12529
;WIDTH:0.56969
G1 X61.421 Y101.209 E.01075
;WIDTH:0.599999
G1 X61.67 Y101.142 E.01136
G1 X61.934 Y100.813 E.01855
G1 X62.007 Y100.471 E.01538
G1 X62.007 Y75.429 E1.10202
G1 X61.841 Y75.078 E.01708
G1 X61.636 Y74.884 E.01242
G1 X61.404 Y74.828 E.0105
;WIDTH:0.56969
G1 X61.171 Y74.773 E.00993
;WIDTH:0.539381
G1 X57.977 Y74.773 E.12529
G1 X57.977 Y74.277 E.01947
G1 X61.171 Y74.277 E.12529
;WIDTH:0.56969
G1 X61.404 Y74.221 E.00993
;WIDTH:0.599999
G1 X61.636 Y74.166 E.0105
G2 X61.919 Y73.844 I-.464 J-.695 E.01908
G1 X62.007 Y73.471 E.01686
G1 X62.007 Y71.007 E.10845
G1 X81.477 Y71.007 E.85677
G1 X81.801 Y70.903 E.015
G1 X82.062 Y70.678 E.01512
G1 X82.257 Y70.28 E.01955
G1 X82.321 Y69.946 E.01494
G1 X82.225 Y69.571 E.01705
G1 X82.076 Y69.369 E.01105
G1 X79.23 Y66.527 E.17697
G1 X78.822 Y66.169 E.0239
G1 X79.41 Y66.205 E.02595
G1 X92.101 Y66.207 E.55845
G2 X93.16 Y66.185 I-.953 J-71.535 E.04661
G1 X92.751 Y66.546 E.02401
G1 X89.924 Y69.369 E.17577
G2 X89.682 Y70.033 I.665 J.618 E.03195
G1 X89.831 Y70.491 E.02121
G1 X89.993 Y70.743 E.01319
G1 X90.274 Y70.94 E.01507
G1 X90.603 Y71.007 E.01478
G1 X127.526 Y71.007 E1.62484
G1 X128.619 Y70.986 E.04807
G1 X128.291 Y71.29 E.01964
G1 X125.207 Y74.368 E.19176
G2 X124.969 Y75.065 I.654 J.613 E.03341
G1 X125.113 Y75.491 E.01979
G1 X125.276 Y75.743 E.01321
G1 X125.542 Y75.933 E.0144
G1 X125.885 Y76.007 E.01544
G1 X146.156 Y76.007 E.89199
G1 X146.479 Y75.923 E.01473
G1 X146.759 Y75.703 E.01566
G1 X146.979 Y75.267 E.02148
G1 X147.036 Y74.91 E.01591
G1 X146.934 Y74.556 E.01625
G1 X146.793 Y74.368 E.01032
G1 X143.789 Y71.369 E.18679
G1 X143.365 Y70.971 E.0256
G1 X143.999 Y71.006 E.02796
G1 X159.993 Y71.007 E.7038
G1 X159.993 Y73.621 E.11505
G1 X160.159 Y73.972 E.01708
G1 X160.364 Y74.166 E.01242
G1 X160.596 Y74.221 E.0105
;WIDTH:0.56969
G1 X160.829 Y74.277 E.00993
;WIDTH:0.539381
G1 X162.023 Y74.277 E.04685
G1 X162.023 Y74.773 E.01947
G1 X160.829 Y74.773 E.04685
;WIDTH:0.56969
G1 X160.596 Y74.829 E.00993
;WIDTH:0.599999
G1 X160.364 Y74.884 E.0105
G2 X160.081 Y75.206 I.464 J.695 E.01908
G1 X159.993 Y75.579 E.01686
G1 X159.993 Y100.471 E1.09542
G1 X160.068 Y100.817 E.01554
M73 P2 R70
M73 P2 R70
G1 X160.334 Y101.145 E.01859
G1 X160.581 Y101.211 E.01127
;WIDTH:0.56969
G1 X160.829 Y101.277 E.01066
;WIDTH:0.539381
G1 X162.023 Y101.277 E.04685
G1 X162.023 Y101.773 E.01947
G1 X160.829 Y101.773 E.04685
M73 P2 R69
;WIDTH:0.56969
M73 P2 R69
G1 X160.581 Y101.839 E.01066
;WIDTH:0.599999
G1 X160.334 Y101.905 E.01127
G1 X160.068 Y102.233 E.01859
G1 X159.993 Y102.579 E.01554
G1 X159.993 Y106.121 E.15591
G1 X160.063 Y106.457 E.01511
G1 X160.323 Y106.787 E.01847
G1 X160.576 Y106.857 E.01153
;WIDTH:0.56969
G1 X160.829 Y106.927 E.01091
;WIDTH:0.539381
G1 X162.023 Y106.927 E.04685
G1 X162.023 Y107.423 E.01947
G1 X160.829 Y107.423 E.04685
;WIDTH:0.56969
G1 X160.576 Y107.493 E.01091
;WIDTH:0.599999
G1 X160.323 Y107.563 E.01153
G1 X160.063 Y107.893 E.01847
G1 X159.993 Y108.229 E.01511
G1 X159.993 Y111.771 E.15591
G1 X160.063 Y112.106 E.01503
G1 X160.322 Y112.436 E.01845
G1 X160.575 Y112.506 E.01158
;WIDTH:0.56969
G1 X160.829 Y112.577 E.01095
;WIDTH:0.53938
G1 X162.023 Y112.577 E.04685
G1 X162.023 Y113.073 E.01947
G1 X160.829 Y113.073 E.04685
;WIDTH:0.56969
G1 X160.575 Y113.144 E.01095
;WIDTH:0.599999
G1 X160.322 Y113.214 E.01158
G1 X160.063 Y113.544 E.01845
G1 X159.993 Y113.879 E.01503
G1 X159.993 Y117.421 E.15591
G1 X160.066 Y117.763 E.01538
G1 X160.33 Y118.092 E.01855
G1 X160.579 Y118.159 E.01136
;WIDTH:0.56969
G1 X160.829 Y118.227 E.01075
;WIDTH:0.539381
G1 X162.023 Y118.227 E.04685
G1 X162.023 Y118.723 E.01947
G1 X160.829 Y118.723 E.04685
;WIDTH:0.56969
G1 X160.579 Y118.791 E.01075
;WIDTH:0.599999
G1 X160.33 Y118.858 E.01136
G1 X160.066 Y119.187 E.01855
G1 X159.993 Y119.529 E.01538
G1 X159.993 Y144.571 E1.10202
G1 X160.159 Y144.922 E.01708
G1 X160.364 Y145.116 E.01242
G1 X160.596 Y145.172 E.0105
;WIDTH:0.56969
G1 X160.829 Y145.227 E.00993
;WIDTH:0.53938
G1 X162.023 Y145.227 E.04685
G1 X162.023 Y145.723 E.01947
G1 X160.829 Y145.723 E.04685
;WIDTH:0.56969
G1 X160.596 Y145.779 E.00993
;WIDTH:0.599999
G1 X160.364 Y145.834 E.0105
G2 X160.081 Y146.156 I.464 J.695 E.01908
G1 X159.993 Y146.529 E.01686
G1 X159.993 Y148.993 E.10845
G1 X140.523 Y148.993 E.85677
G1 X140.199 Y149.097 E.015
G1 X139.938 Y149.322 E.01512
G1 X139.743 Y149.72 E.01955
G1 X139.679 Y150.054 E.01494
G1 X139.775 Y150.429 E.01705
G1 X139.924 Y150.631 E.01105
G1 X142.77 Y153.473 E.17697
G1 X143.178 Y153.831 E.02389
G1 X142.59 Y153.795 E.02595
G1 X129.899 Y153.793 E.55845
G2 X128.84 Y153.815 I.953 J71.551 E.04661
G1 X129.249 Y153.454 E.02401
G1 X132.076 Y150.631 E.17577
G2 X132.299 Y150.23 I-.591 J-.591 E.02049
G1 X132.305 Y149.877 E.01552
G1 X132.169 Y149.509 E.01727
G1 X132.007 Y149.257 E.01319
G1 X131.726 Y149.06 E.01507
G1 X131.397 Y148.993 E.01478
G1 X94.474 Y148.993 E1.62484
G1 X93.381 Y149.014 E.04807
G1 X93.709 Y148.71 E.01964
G1 X96.793 Y145.632 E.19176
G2 X97.031 Y144.935 I-.654 J-.613 E.03341
G1 X96.887 Y144.509 E.01979
G1 X96.724 Y144.257 E.01321
G1 X96.458 Y144.067 E.0144
G1 X96.115 Y143.993 E.01544
G1 X95.799 Y143.993 E.01387
G1 X96.299 Y144.62 F9000
;TYPE:Outer wall
G1 F600
G1 X96.115 Y144.55 E.0087
G1 X75.805 Y144.55 E.89373
G1 X75.64 Y144.696 E.0097
G1 X75.52 Y145.057 E.01672
G1 X75.601 Y145.237 E.00872
G1 X78.685 Y148.316 E.19176
G1 X79.06 Y148.662 E.02247
G1 X79.802 Y149.226 E.04102
G1 X80.276 Y149.7 E.02947
G1 X79.538 Y149.696 E.03244
G2 X78.074 Y149.552 I-2.01 J12.968 E.06479
G1 X61.45 Y149.55 E.73154
G1 X61.45 Y146.473 E.13541
G1 X61.326 Y146.297 E.00947
G1 X61.171 Y146.25 E.00712
G1 X57.45 Y146.25 E.16376
G1 X57.45 Y144.7 E.06821
G1 X61.171 Y144.7 E.16376
G2 X61.45 Y144.421 I-.01 J-.289 E.01907
G1 X61.45 Y119.488 E1.09719
G1 X61.336 Y119.304 E.00952
G1 X61.171 Y119.25 E.00764
G1 X57.45 Y119.25 E.16376
G1 X57.45 Y117.7 E.06821
G1 X61.171 Y117.7 E.16376
G1 X61.336 Y117.646 E.00764
G1 X61.402 Y117.578 E.00414
G1 X61.45 Y117.421 E.00721
G1 X61.45 Y113.839 E.15763
G1 X61.34 Y113.657 E.00939
G1 X61.171 Y113.6 E.00782
G1 X57.45 Y113.6 E.16376
G1 X57.45 Y112.05 E.06821
G1 X61.171 Y112.05 E.16376
G1 X61.34 Y111.993 E.00782
G2 X61.45 Y111.771 I-.168 J-.222 E.0113
G2 X61.447 Y108.188 I-535.654 J-1.357 E.15767
G1 X61.34 Y108.007 E.00926
G1 X61.171 Y107.95 E.00785
G1 X57.45 Y107.95 E.16376
G1 X57.45 Y106.4 E.06821
G1 X61.171 Y106.4 E.16376
G1 X61.34 Y106.343 E.00785
G2 X61.45 Y106.121 I-.169 J-.221 E.01126
G1 X61.45 Y102.539 E.15766
G1 X61.338 Y102.355 E.00947
G1 X61.171 Y102.3 E.0077
G1 X57.45 Y102.3 E.16376
G1 X57.45 Y100.75 E.06821
G1 X61.171 Y100.75 E.16376
G1 X61.338 Y100.695 E.0077
G1 X61.403 Y100.627 E.00414
G1 X61.45 Y100.471 E.00715
G1 X61.45 Y75.523 E1.09787
G1 X61.326 Y75.347 E.00947
G1 X61.171 Y75.3 E.00712
G1 X57.45 Y75.3 E.16376
G1 X57.45 Y73.75 E.06821
G1 X61.171 Y73.75 E.16376
G2 X61.45 Y73.471 I-.01 J-.289 E.01907
G1 X61.45 Y70.45 E.13296
G1 X81.464 Y70.45 E.88074
G1 X81.637 Y70.313 E.00972
G1 X81.764 Y69.955 E.01669
G1 X81.682 Y69.763 E.0092
G1 X78.849 Y66.934 E.17617
G1 X78.121 Y66.296 E.04261
G1 X77.705 Y65.998 E.02249
G1 X77.207 Y65.5 E.03101
G1 X77.921 Y65.5 E.03142
G1 X78.415 Y65.585 E.02204
