;TIME:2679.38
;Filament used:4.76459m
;Layer height:0.200
; HEADER_BLOCK_START
; generated by Creality_Print V6.0.5.1840 on 2025-06-27 at 21:59:11
; total layer number: 30
; filament_density: 1.24
; filament_diameter: 1.75
; max_z_height: 6.00
; HEADER_BLOCK_END

; MINX = 70.20
; MINY = 65.20
; MINZ = 0.00
; MAXX = 149.80
; MAXY = 154.80
; MAXZ = 6.00

; THUMBNAIL_BLOCK_START

;
; THUMBNAIL_BLOCK_END

; THUMBNAIL_BLOCK_START

;
; THUMBNAIL_BLOCK_END

; external perimeters extrusion width = 0.42mm
; perimeters extrusion width = 0.45mm
; infill extrusion width = 0.45mm
; solid infill extrusion width = 0.42mm
; top infill extrusion width = 0.42mm
; support material extrusion width = 0.40mm
; first layer extrusion width = 0.60mm

; EXECUTABLE_BLOCK_START
M73 P0 R44
M201 X5000 Y5000 Z500 E5000
M203 X500 Y500 Z30 E100
M204 P5000 R2500 T5000 ; sets acceleration (P, T) and retract acceleration (R), mm/sec^2
M205 X10.00 Y10.00 Z0.40 E5.00 ; sets the jerk limits, mm/sec
;TYPE:Custom
M220 S100 ;Reset Feedrate 
M221 S100 ;Reset Flowrate 
 
M140 S75 ;Set final bed temp 
G28 ;Home 
 
G92 E0 ;Reset Extruder 
G1 Z2.0 F3000 ;Move Z Axis up 
M104 S200 ;Set final nozzle temp 
G1 X-2.1 Y20 Z0.28 F5000.0 ;Move to start position 
M190 S75 ;Wait for bed temp to stabilize 
M109 S200 ;Wait for nozzle temp to stabilize 
G1 X-2.1 Y145.0 Z0.28 F1500.0 E15 ;Draw the first line 
G1 X-2.4 Y145.0 Z0.28 F5000.0 ;Move to side a little 
G1 X-2.4 Y20 Z0.28 F1500.0 E30 ;Draw the second line 
G92 E0  ;Reset Extruder 
G1 E-1.0000 F1800 ;Retract a bit 
G1 Z2.0 F3000 ;Move Z Axis up 
G1 E0.0000 F1800
G90
G21
M83 ; use relative distances for extrusion
" "
G1 E-1.6 F2400
M106 S0
;LAYER_CHANGE
;Z:0.2
;HEIGHT:0.2
;BEFORE_LAYER_CHANGE
;0.2
G92 E0

;_SET_FAN_SPEED_CHANGING_LAYER
M204 P125
M205 X10 Y10
; printing object Top Cassa Armonica id:3978136643238699080 copy 0
M204 T125
G1 Z.4 F9000
G1 X142.373 Y71.582
G1 Z.2
G1 E1.6 F1800
;TYPE:Inner wall
;WIDTH:0.485243
G1 F600
G1 X142.171 Y71.5 E.00759
G1 X143.493 Y71.508 E.04618
G2 X143.5 Y72.829 I107.173 J.11 E.04614
G1 X143.116 Y71.884 E.03562
G1 X142.41 Y71.597 E.02663
G1 E-1.6 F2400
;WIPE_START
G1 F9000
G1 X142.171 Y71.5
G1 X143.493 Y71.508
G1 X143.495 Y71.929
;WIPE_END
G1 X143.109 Y79.552 Z.6
G1 X142.14 Y98.679 Z.6
G1 Z.2
G1 E1.6 F1800
;WIDTH:0.599999
G1 F600
G1 X143.436 Y98.031 E.06377
G1 X143.436 Y125.001 E1.18683
G1 X143.492 Y125.394 E.01747
G1 X143.682 Y125.792 E.01938
G1 X144.053 Y126.158 E.02295
G1 X144.453 Y126.342 E.01937
G1 X144.95 Y126.388 E.02197
G1 X145.451 Y126.247 E.02293
G1 X148.236 Y124.854 E.13699
G1 X148.236 Y129.146 E.18883
G1 X145.451 Y127.753 E.13699
G1 X144.95 Y127.612 E.02293
G1 X144.453 Y127.658 E.02197
G1 X144.053 Y127.842 E.01937
G1 X143.682 Y128.208 E.02295
G1 X143.507 Y128.56 E.01728
G1 X143.436 Y128.999 E.01957
G1 X143.436 Y142.943 E.6136
G1 X143.457 Y143.238 E.01303
;WIDTH:0.557227
G1 X143.479 Y143.533 E.01203
;WIDTH:0.514455
G1 X143.5 Y143.829 E.01103
G1 X143.429 Y143.55 E.01071
;WIDTH:0.557227
G1 X143.357 Y143.271 E.01168
;WIDTH:0.599999
G1 X143.286 Y142.993 E.01265
G1 X142.707 Y142.543 E.03225
G1 X142.171 Y142.436 E.02404
G1 X138.706 Y142.436 E.15249
G1 X138.308 Y142.537 E.01809
G1 X137.951 Y142.747 E.01825
G1 X137.68 Y143.041 E.01758
G1 X137.477 Y143.494 E.02186
G1 X137.436 Y143.829 E.01481
G1 X137.436 Y147.171 E.14711
G1 X137.543 Y147.707 E.02404
G1 X137.993 Y148.286 E.03225
G1 X138.271 Y148.357 E.01265
;WIDTH:0.557228
G1 X138.55 Y148.429 E.01168
;WIDTH:0.514456
G1 X138.829 Y148.5 E.01071
G1 X138.533 Y148.479 E.01103
;WIDTH:0.557228
G1 X138.238 Y148.457 E.01203
;WIDTH:0.599999
G1 X137.943 Y148.436 E.01303
G1 X132.531 Y148.436 E.23816
G1 X133.887 Y145.724 E.1334
G1 X134.141 Y145.111 E.02925
G1 X134.17 Y144.829 E.01247
G1 X134.096 Y144.38 E.01999
G2 X133.471 Y143.621 I-1.41 J.523 E.04411
G1 X133.184 Y143.497 E.01376
G1 X132.777 Y143.436 E.01809
G1 X122.03 Y143.436 E.47295
G1 X121.555 Y143.606 E.02221
G1 X121.212 Y143.871 E.01906
G1 X120.953 Y144.255 E.02038
G1 X120.834 Y144.717 E.02099
G1 X120.875 Y145.179 E.02041
G1 X120.977 Y145.451 E.0128
G1 X122.469 Y148.436 E.14683
G1 X94.499 Y148.436 E1.23083
G1 X94.105 Y148.493 E.01753
M73 P1 R44
M73 P1 R44
G1 X93.706 Y148.684 E.01945
G1 X93.34 Y149.056 E.02298
G1 X93.157 Y149.456 E.01935
G1 X93.112 Y149.95 E.02183
G1 X93.253 Y150.451 E.02293
G1 X94.646 Y153.236 E.13699
G1 X90.354 Y153.236 E.18883
G1 X91.747 Y150.451 E.13699
G1 X91.888 Y149.95 E.02293
G1 X91.843 Y149.456 E.02183
G1 X91.66 Y149.056 E.01935
G1 X91.294 Y148.684 E.02298
G1 X90.941 Y148.507 E.01734
G1 X90.501 Y148.436 E.01964
G1 X82.057 Y148.436 E.37158
G1 X81.839 Y148.454 E.00963
;WIDTH:0.563938
G1 X81.621 Y148.472 E.00901
;WIDTH:0.527877
G1 X81.403 Y148.49 E.00838
G1 X81.604 Y148.422 E.00815
;WIDTH:0.563938
G1 X81.806 Y148.354 E.00875
;WIDTH:0.599999
G1 X82.007 Y148.286 E.00936
G1 X82.457 Y147.707 E.03225
G1 X82.564 Y147.171 E.02404
G1 X82.564 Y143.689 E.15323
G1 X82.439 Y143.251 E.02008
G1 X82.243 Y142.939 E.01622
G1 X81.918 Y142.653 E.01904
G1 X81.525 Y142.482 E.01885
G1 X81.171 Y142.436 E.0157
G1 X77.829 Y142.436 E.14711
G1 X77.293 Y142.543 E.02404
G1 X76.714 Y142.993 E.03225
G1 X76.643 Y143.271 E.01265
;WIDTH:0.557228
G1 X76.571 Y143.55 E.01168
;WIDTH:0.514456
G1 X76.5 Y143.829 E.01071
G1 X76.521 Y143.533 E.01103
;WIDTH:0.557228
G1 X76.543 Y143.238 E.01203
;WIDTH:0.599999
G1 X76.564 Y142.943 E.01303
G1 X76.564 Y132.031 E.48018
G1 X79.549 Y133.523 E.14683
G2 X80.132 Y133.67 I.623 J-1.246 E.0267
G1 X80.589 Y133.606 E.0203
G1 X81.011 Y133.389 E.02088
G1 X81.304 Y133.088 E.01847
G1 X81.497 Y132.706 E.01881
G1 X81.564 Y132.277 E.0191
G1 X81.564 Y122.503 E.43012
G1 X81.549 Y121.52 E.04326
G1 X81.418 Y121.102 E.01928
G1 X81.151 Y120.733 E.02006
G1 X80.773 Y120.467 E.02033
G1 X80.308 Y120.337 E.02128
G1 X79.832 Y120.372 E.02099
G1 X79.549 Y120.477 E.01329
G1 X76.564 Y121.969 E.14683
G1 X76.564 Y94.999 E1.18683
G1 X76.508 Y94.606 E.01747
G1 X76.318 Y94.208 E.01938
G1 X75.947 Y93.842 E.02295
G1 X75.547 Y93.658 E.01937
G1 X75.05 Y93.612 E.02197
G1 X74.549 Y93.753 E.02293
G1 X71.764 Y95.146 E.13699
G1 X71.764 Y90.854 E.18883
G1 X74.549 Y92.247 E.13699
G1 X75.05 Y92.388 E.02293
G1 X75.547 Y92.342 E.02197
G1 X75.947 Y92.158 E.01937
G1 X76.318 Y91.792 E.02295
G1 X76.493 Y91.44 E.01728
G1 X76.564 Y91.001 E.01957
G1 X76.564 Y77.057 E.6136
G1 X76.546 Y76.839 E.00963
M73 P1 R43
;WIDTH:0.563938
M73 P1 R43
G1 X76.528 Y76.621 E.00901
;WIDTH:0.527877
G1 X76.51 Y76.403 E.00838
G1 X76.578 Y76.604 E.00815
;WIDTH:0.563938
G1 X76.646 Y76.806 E.00875
;WIDTH:0.599999
G1 X76.714 Y77.007 E.00936
G1 X77.293 Y77.457 E.03225
G1 X77.829 Y77.564 E.02404
G1 X81.294 Y77.564 E.15249
G1 X81.692 Y77.463 E.01809
G1 X82.049 Y77.253 E.01825
G1 X82.32 Y76.959 E.01758
G1 X82.523 Y76.506 E.02186
G1 X82.564 Y76.171 E.01481
G1 X82.564 Y72.829 E.14711
G1 X82.457 Y72.293 E.02404
G1 X82.007 Y71.714 E.03225
G1 X81.729 Y71.643 E.01265
;WIDTH:0.557228
G1 X81.45 Y71.571 E.01168
;WIDTH:0.514456
G1 X81.171 Y71.5 E.01071
G1 X81.467 Y71.521 E.01103
;WIDTH:0.557228
G1 X81.762 Y71.543 E.01203
;WIDTH:0.599999
G1 X82.057 Y71.564 E.01303
G1 X87.469 Y71.564 E.23816
G1 X86.113 Y74.276 E.1334
G1 X85.859 Y74.889 E.02925
G1 X85.83 Y75.171 E.01247
G1 X85.904 Y75.62 E.01999
G2 X86.529 Y76.379 I1.41 J-.523 E.04411
G1 X86.816 Y76.503 E.01376
G1 X87.223 Y76.564 E.01809
G1 X97.97 Y76.564 E.47295
G1 X98.445 Y76.394 E.02221
G1 X98.788 Y76.129 E.01906
G1 X99.047 Y75.745 E.02038
G1 X99.166 Y75.283 E.02099
G1 X99.125 Y74.821 E.02041
G1 X99.023 Y74.549 E.0128
G1 X97.531 Y71.564 E.14683
G1 X125.501 Y71.564 E1.23083
G1 X125.895 Y71.507 E.01753
G1 X126.294 Y71.316 E.01945
G1 X126.66 Y70.944 E.02298
G1 X126.843 Y70.544 E.01935
G1 X126.888 Y70.05 E.02183
G1 X126.747 Y69.549 E.02293
G1 X125.354 Y66.764 E.13699
G1 X129.646 Y66.764 E.18883
G1 X128.253 Y69.549 E.13699
G1 X128.112 Y70.05 E.02293
G1 X128.157 Y70.544 E.02183
G1 X128.34 Y70.944 E.01935
G1 X128.706 Y71.316 E.02298
G1 X129.059 Y71.493 E.01734
G1 X129.499 Y71.564 E.01964
G1 X137.943 Y71.564 E.37158
G1 X138.161 Y71.546 E.00963
;WIDTH:0.563938
G1 X138.379 Y71.528 E.00901
;WIDTH:0.527877
G1 X138.597 Y71.51 E.00838
G1 X138.396 Y71.578 E.00815
;WIDTH:0.563938
G1 X138.194 Y71.646 E.00875
;WIDTH:0.599999
G1 X137.993 Y71.714 E.00936
G1 X137.543 Y72.293 E.03225
G1 X137.436 Y72.829 E.02404
G1 X137.436 Y76.311 E.15323
G1 X137.561 Y76.749 E.02008
G1 X137.757 Y77.061 E.01622
G1 X138.082 Y77.347 E.01904
G1 X138.475 Y77.518 E.01885
G1 X138.827 Y77.564 E.01564
G1 X142.171 Y77.564 E.14716
G1 X142.707 Y77.457 E.02404
G1 X143.286 Y77.007 E.03225
G1 X143.354 Y76.806 E.00936
;WIDTH:0.563938
G1 X143.422 Y76.604 E.00875
;WIDTH:0.527876
G1 X143.49 Y76.403 E.00815
G1 X143.472 Y76.621 E.00838
;WIDTH:0.563938
G1 X143.454 Y76.839 E.00901
;WIDTH:0.599999
G1 X143.436 Y77.057 E.00963
G1 X143.436 Y87.969 E.48018
G1 X140.451 Y86.477 E.14683
G2 X139.868 Y86.33 I-.623 J1.246 E.0267
G1 X139.411 Y86.394 E.0203
G1 X138.989 Y86.611 E.02088
G1 X138.696 Y86.912 E.01847
G1 X138.503 Y87.294 E.01881
G1 X138.436 Y87.723 E.0191
M73 P2 R43
M73 P2 R43
G1 X138.436 Y97.497 E.43012
G1 X138.451 Y98.48 E.04326
G1 X138.582 Y98.898 E.01928
G1 X138.849 Y99.267 E.02006
G1 X139.227 Y99.533 E.02033
G1 X139.692 Y99.663 E.02128
G1 X140.168 Y99.628 E.02099
G1 X140.451 Y99.523 E.01329
G1 X142.104 Y98.697 E.0813
G1 E-1.6 F2400
;WIPE_START
G1 F9000
G1 X143.436 Y98.031
G1 X143.436 Y98.542
;WIPE_END
G1 X143.296 Y106.173 Z.6
G1 X142.521 Y148.49 Z.6
G1 Z.2
G1 E1.6 F1800
;WIDTH:0.491816
G1 F600
G1 X142.403 Y148.49 E.0042
;WIDTH:0.491814
G1 X143.116 Y148.116 E.02855
G1 X143.49 Y147.403 E.02855
G1 X143.493 Y148.493 E.03867
;WIDTH:0.485243
G1 X143.272 Y148.493 E.00773
;WIDTH:0.491816
G1 X142.561 Y148.491 E.02521
G1 E-1.6 F2400
;WIPE_START
G1 F9000
G1 X142.403 Y148.49
G1 X143.116 Y148.116
G1 X143.49 Y147.403
G1 X143.491 Y147.634
;WIPE_END
G1 X142.937 Y143.618 Z.6
G1 Z.2
G1 E1.6 F1800
;WIDTH:0.599999
G1 F600
G1 X143.007 Y143.829 E.00975
G1 X143.007 Y147.171 E.14711
G1 X142.995 Y147.316 E.00638
G1 X142.762 Y147.762 E.02215
G1 X142.292 Y148.007 E.02334
G1 X138.829 Y148.007 E.1524
G1 X138.327 Y147.84 E.02326
G1 X138.057 Y147.493 E.01935
G1 X137.993 Y147.171 E.01442
G1 X137.993 Y143.829 E.14711
G1 X138.074 Y143.47 E.01617
G1 X138.256 Y143.22 E.01361
G1 X138.373 Y143.128 E.00656
G1 X138.697 Y142.993 E.01544
G1 X142.171 Y142.993 E.15291
G1 X142.493 Y143.057 E.01442
G1 X142.84 Y143.327 E.01935
G1 X142.924 Y143.58 E.01174
G1 X142.275 Y143.578 F9000
;TYPE:Outer wall
G1 F600
G3 X142.45 Y143.829 I-.131 J.278 E.01406
G1 X142.45 Y147.171 E.14711
G1 X142.368 Y147.368 E.00938
G1 X142.171 Y147.45 E.00938
G1 X138.829 Y147.45 E.14711
G1 X138.661 Y147.394 E.00775
G1 X138.571 Y147.279 E.00645
G1 X138.55 Y146.562 E.03153
G1 X138.55 Y143.829 E.1203
G1 X138.62 Y143.644 E.00866
G1 X138.829 Y143.55 E.01009
G1 X142.171 Y143.55 E.14711
G3 X142.238 Y143.564 I-.027 J.306 E.003
G1 E-1.6 F2400
;WIPE_START
G1 F9000
G1 X142.394 Y143.661
G1 X142.45 Y143.829
G1 X142.45 Y145.468
;WIPE_END
G1 X143.5 Y143.829 Z.6
G1 Z.2
G1 E1.6 F1800
;TYPE:Inner wall
;WIDTH:0.471682
G1 F600
G1 X143.5 Y147.171 E.11322
;WIDTH:0.491814
G1 X143.49 Y147.403 E.00821
G1 E-1.6 F2400
;WIPE_START
G1 F9000
G1 X143.5 Y147.171
G1 X143.5 Y145.403
;WIPE_END
G1 X142.403 Y148.49 Z.6
G1 Z.2
G1 E1.6 F1800
;WIDTH:0.491816
G1 F600
G1 X142.171 Y148.5 E.00821
;WIDTH:0.471684
G1 X138.829 Y148.5 E.11322
G1 E-1.6 F2400
;WIPE_START
G1 F9000
G1 X140.829 Y148.5
;WIPE_END
G1 X133.196 Y148.424 Z.6
G1 X76.508 Y147.862 Z.6
G1 Z.2
G1 E1.6 F1800
;WIDTH:0.491816
G1 F600
G1 X76.51 Y147.403 E.0163
G1 X76.884 Y148.116 E.02855
;WIDTH:0.485242
G1 X77.829 Y148.5 E.03562
G1 X76.507 Y148.492 E.04618
G1 X76.507 Y148.272 E.00768
;WIDTH:0.491816
G1 X76.508 Y147.902 E.01311
G1 E-1.6 F2400
;WIPE_START
G1 F9000
G1 X76.51 Y147.403
G1 X76.884 Y148.116
G1 X77.528 Y148.378
;WIPE_END
G1 X81.391 Y147.962 Z.6
G1 Z.2
G1 E1.6 F1800
;WIDTH:0.599999
G1 F600
G1 X81.287 Y148.007 E.00501
G1 X77.829 Y148.007 E.15218
G1 X77.238 Y147.762 E.02814
G1 X76.993 Y147.292 E.02334
G1 X76.993 Y143.829 E.1524
G1 X77.16 Y143.327 E.02326
G1 X77.507 Y143.057 E.01935
G1 X77.829 Y142.993 E.01442
G1 X81.171 Y142.993 E.14711
G1 X81.475 Y143.05 E.01358
G1 X81.757 Y143.233 E.01481
G1 X81.869 Y143.369 E.00775
G1 X82.007 Y143.684 E.01513
G1 X82.007 Y147.171 E.15348
G1 X81.943 Y147.493 E.01442
G1 X81.673 Y147.84 E.01935
G1 X81.428 Y147.946 E.01174
G1 X81.422 Y147.275 F9000
;TYPE:Outer wall
G1 F600
G3 X81.171 Y147.45 I-.278 J-.131 E.01406
G1 X77.829 Y147.45 E.14711
G1 X77.632 Y147.368 E.00938
G1 X77.55 Y147.171 E.00938
G1 X77.55 Y143.829 E.14711
G1 X77.606 Y143.661 E.00775
G1 X77.749 Y143.55 E.00799
G1 X80.975 Y143.55 E.14196
G1 X81.299 Y143.581 E.01431
G1 X81.404 Y143.675 E.00623
G1 X81.45 Y143.829 E.00704
G1 X81.45 Y147.171 E.14711
G3 X81.436 Y147.238 I-.306 J-.027 E.003
G1 E-1.6 F2400
;WIPE_START
G1 F9000
G1 X81.339 Y147.394
G1 X81.171 Y147.45
G1 X79.532 Y147.45
;WIPE_END
G1 X81.403 Y148.49 Z.6
G1 Z.2
G1 E1.6 F1800
;TYPE:Inner wall
;WIDTH:0.491816
G1 F600
G1 X81.171 Y148.5 E.00821
;WIDTH:0.471684
G1 X77.829 Y148.5 E.11322
G1 E-1.6 F2400
;WIPE_START
G1 F9000
G1 X79.829 Y148.5
;WIPE_END
G1 X76.51 Y147.403 Z.6
G1 Z.2
G1 E1.6 F1800
;WIDTH:0.491816
G1 F600
G1 X76.5 Y147.171 E.00821
;WIDTH:0.471684
G1 X76.5 Y143.829 E.11322
G1 E-1.6 F2400
;WIPE_START
G1 F9000
G1 X76.5 Y145.829
;WIPE_END
G1 X76.558 Y138.196 Z.6
G1 X77.069 Y71.508 Z.6
G1 Z.2
G1 E1.6 F1800
;WIDTH:0.491816
G1 F600
G1 X77.597 Y71.51 E.01873
G1 X76.884 Y71.884 E.02855
;WIDTH:0.485242
G1 X76.5 Y72.829 E.03562
G1 X76.508 Y71.507 E.04618
G1 X76.728 Y71.507 E.00768
;WIDTH:0.491816
G1 X77.029 Y71.508 E.01068
G1 E-1.6 F2400
;WIPE_START
G1 F9000
G1 X77.597 Y71.51
G1 X76.884 Y71.884
G1 X76.648 Y72.465
;WIPE_END
G1 X76.993 Y76.254 Z.6
G1 Z.2
G1 E1.6 F1800
;WIDTH:0.599999
G1 F600
G1 X76.993 Y72.829 E.15074
G1 X77.238 Y72.238 E.02814
G1 X77.708 Y71.993 E.02334
G1 X81.171 Y71.993 E.1524
G1 X81.673 Y72.16 E.02326
G1 X81.943 Y72.507 E.01935
G1 X82.007 Y72.829 E.01442
G1 X82.007 Y76.171 E.14711
G1 X81.926 Y76.53 E.01617
G1 X81.744 Y76.78 E.01361
G1 X81.484 Y76.946 E.0136
G1 X81.171 Y77.007 E.01401
G1 X77.829 Y77.007 E.14711
G1 X77.507 Y76.943 E.01442
G1 X77.16 Y76.673 E.01935
G1 X76.996 Y76.293 E.01819
G1 X77.613 Y76.333 F9000
;TYPE:Outer wall
G1 F600
G3 X77.55 Y76.171 I.242 J-.188 E.00773
G1 X77.55 Y72.829 E.14711
G1 X77.632 Y72.632 E.00938
G1 X77.829 Y72.55 E.00938
G1 X81.171 Y72.55 E.14711
G1 X81.339 Y72.606 E.00775
G1 X81.429 Y72.721 E.00645
G1 X81.45 Y73.438 E.03153
G1 X81.45 Y76.171 E.1203
G1 X81.38 Y76.356 E.00866
G1 X81.2 Y76.45 E.00898
G1 X77.829 Y76.45 E.14834
G3 X77.64 Y76.363 I.027 J-.306 E.00933
G1 E-1.6 F2400
;WIPE_START
G1 F9000
G1 X77.55 Y76.171
G1 X77.55 Y74.383
;WIPE_END
G1 X76.51 Y76.403 Z.6
G1 Z.2
G1 E1.6 F1800
;TYPE:Inner wall
;WIDTH:0.491816
G1 F600
G1 X76.5 Y76.171 E.00821
;WIDTH:0.471684
G1 X76.5 Y72.829 E.11322
G1 E-1.6 F2400
;WIPE_START
G1 F9000
G1 X76.5 Y74.829
;WIPE_END
G1 X77.597 Y71.51 Z.6
G1 Z.2
M73 P3 R43
M73 P3 R43
G1 E1.6 F1800
;WIDTH:0.491816
G1 F600
G1 X77.829 Y71.5 E.00821
;WIDTH:0.471684
G1 X81.171 Y71.5 E.11322
G1 E-1.6 F2400
;WIPE_START
G1 F9000
G1 X79.171 Y71.5
;WIPE_END
G1 X86.778 Y72.127 Z.6
G1 X142.75 Y76.743 Z.6
G1 Z.2
G1 E1.6 F1800
;WIDTH:0.599999
G1 F600
G1 X142.493 Y76.943 E.01432
G1 X142.171 Y77.007 E.01442
G1 X138.828 Y77.007 E.14714
G1 X138.525 Y76.95 E.01355
G1 X138.243 Y76.767 E.01481
G1 X138.068 Y76.518 E.01338
G1 X137.993 Y76.171 E.01561
G1 X137.993 Y72.829 E.14711
G1 X138.057 Y72.507 E.01442
G1 X138.327 Y72.16 E.01935
G1 X138.713 Y71.993 E.01851
G1 X142.171 Y71.993 E.15218
G1 X142.762 Y72.238 E.02814
G1 X143.007 Y72.829 E.02814
G1 X143.007 Y76.171 E.14711
G1 X142.995 Y76.316 E.00638
G1 X142.84 Y76.673 E.01712
G1 X142.781 Y76.718 E.00327
G1 X142.45 Y76.171 F9000
;TYPE:Outer wall
G1 F600
G1 X142.394 Y76.339 E.00775
G1 X142.251 Y76.45 E.00799
G1 X139.025 Y76.45 E.14196
G1 X138.701 Y76.419 E.01431
G1 X138.55 Y76.261 E.00964
G1 X138.55 Y72.829 E.15103
G3 X138.829 Y72.55 I.306 J.027 E.01882
G1 X142.171 Y72.55 E.14711
G1 X142.368 Y72.632 E.00938
G1 X142.45 Y72.829 E.00938
G1 X142.45 Y76.131 E.14535
