;TIME:1449.20
;Filament used:1.51877m
;Layer height:0.200
; HEADER_BLOCK_START
; generated by Creality_Print V6.0.5.1840 on 2025-07-05 at 11:42:16
; total layer number: 106
; filament_density: 1.24
; filament_diameter: 1.75
; max_z_height: 15.00
; HEADER_BLOCK_END

; MINX = 76.60
; MINY = 103.18
; MINZ = 0.00
; MAXX = 143.40
; MAXY = 126.38
; MAXZ = 15.00

; THUMBNAIL_BLOCK_START

;
; THUMBNAIL_BLOCK_END

; THUMBNAIL_BLOCK_START

;
; THUMBNAIL_BLOCK_END

; external perimeters extrusion width = 0.42mm
; perimeters extrusion width = 0.45mm
; infill extrusion width = 0.45mm
; solid infill extrusion width = 0.42mm
; top infill extrusion width = 0.42mm
; support material extrusion width = 0.40mm
; first layer extrusion width = 0.60mm

; external perimeters extrusion width = 0.42mm
; perimeters extrusion width = 0.45mm
; infill extrusion width = 0.45mm
; solid infill extrusion width = 0.42mm
; top infill extrusion width = 0.42mm
; support material extrusion width = 0.40mm
; first layer extrusion width = 0.60mm

; external perimeters extrusion width = 0.42mm
; perimeters extrusion width = 0.45mm
; infill extrusion width = 0.45mm
; solid infill extrusion width = 0.42mm
; top infill extrusion width = 0.42mm
; support material extrusion width = 0.40mm
; first layer extrusion width = 0.60mm

; EXECUTABLE_BLOCK_START
M73 P0 R24
M201 X5000 Y5000 Z500 E5000
M203 X500 Y500 Z30 E100
M204 P5000 R2500 T5000 ; sets acceleration (P, T) and retract acceleration (R), mm/sec^2
M205 X10.00 Y10.00 Z0.40 E5.00 ; sets the jerk limits, mm/sec
;TYPE:Custom
M220 S100 ;Reset Feedrate 
M221 S100 ;Reset Flowrate 
 
M140 S75 ;Set final bed temp 
G28 ;Home 
 
G92 E0 ;Reset Extruder 
G1 Z2.0 F3000 ;Move Z Axis up 
M104 S200 ;Set final nozzle temp 
G1 X-2.1 Y20 Z0.28 F5000.0 ;Move to start position 
M190 S75 ;Wait for bed temp to stabilize 
M109 S200 ;Wait for nozzle temp to stabilize 
G1 X-2.1 Y145.0 Z0.28 F1500.0 E15 ;Draw the first line 
G1 X-2.4 Y145.0 Z0.28 F5000.0 ;Move to side a little 
G1 X-2.4 Y20 Z0.28 F1500.0 E30 ;Draw the second line 
G92 E0  ;Reset Extruder 
G1 E-1.0000 F1800 ;Retract a bit 
M73 P0 R23
M73 P0 R23
G1 Z2.0 F3000 ;Move Z Axis up 
G1 E0.0000 F1800
G90
G21
M83 ; use relative distances for extrusion
" "
G1 E-1.6 F2400
M106 S0
;LAYER_CHANGE
;Z:0.2
;HEIGHT:0.2
;BEFORE_LAYER_CHANGE
;0.2
G92 E0

;_SET_FAN_SPEED_CHANGING_LAYER
M204 P125
M205 X10 Y10
; printing object Cilindro Porta Martello id:0 copy 0
M204 T125
G1 Z.4 F9000
G1 X133.076 Y113.154
G1 Z.2
G1 E1.6 F1800
;TYPE:Inner wall
;WIDTH:0.599999
G1 F600
G1 X133.075 Y113.156 E.00011
G1 X132.848 Y113.453 E.01645
G1 X132.502 Y113.596 E.01645
G1 X132.132 Y113.547 E.01645
G1 X131.835 Y113.32 E.01645
G1 X131.692 Y112.974 E.01645
G1 X131.741 Y112.603 E.01645
G1 X131.968 Y112.307 E.01645
G1 X132.221 Y112.189 E.01227
G1 X132.507 Y112.165 E.01266
G1 X132.848 Y112.307 E.01622
G1 X133.075 Y112.603 E.01645
G1 X133.124 Y112.88 E.01235
G1 X133.083 Y113.115 E.01049
G1 X133.55 Y112.337 F9000
G1 F600
G1 X133.638 Y112.55 E.01014
G1 X133.681 Y112.88 E.01463
G3 X133.51 Y112.243 I-1.268 J-.001 E.3212
G1 X133.534 Y112.3 E.00273
G1 X133.532 Y111.415 F9000
;TYPE:Outer wall
G1 F600
M73 P1 R23
M73 P1 R23
G1 X133.873 Y111.756 E.02121
G1 X134.114 Y112.173 E.02121
G1 X134.238 Y112.639 E.02121
G1 X134.238 Y113.121 E.02121
G1 X134.114 Y113.586 E.02121
G1 X133.873 Y114.004 E.02121
G1 X133.532 Y114.345 E.02121
G1 X133.115 Y114.586 E.02121
G1 X132.649 Y114.71 E.02121
G1 X132.167 Y114.71 E.02121
G1 X131.702 Y114.586 E.02121
G1 X131.284 Y114.345 E.02121
G1 X130.943 Y114.004 E.02121
G1 X130.702 Y113.586 E.02121
G1 X130.578 Y113.121 E.02121
G1 X130.578 Y112.639 E.02121
G1 X130.702 Y112.173 E.02121
G1 X130.943 Y111.756 E.02121
G1 X131.284 Y111.415 E.02121
G1 X131.702 Y111.174 E.02121
G1 X132.166 Y111.05 E.02117
G1 X132.656 Y111.051 E.02155
G1 X133.115 Y111.174 E.02089
G1 X133.497 Y111.395 E.01945
G1 E-1.6 F2400
;WIPE_START
G1 F9000
G1 X133.873 Y111.756
G1 X134.114 Y112.173
G1 X134.238 Y112.639
G1 X134.238 Y113.121
G1 X134.23 Y113.153
;WIPE_END
G1 Z.6
G1 X132.969 Y113.014
G1 Z.6
G1 Z.2
G1 E1.6 F1800
;TYPE:Bottom surface
;WIDTH:0.647667
G1 F1200
G1 X132.534 Y112.578 E.02945
G2 X132.103 Y113.003 I-.124 J.305 E.03665
G1 X132.542 Y113.441 E.02962
; stop printing object Cilindro Porta Martello id:0 copy 0
; printing object Martello id:9570643137069164 copy 0
G1 E-1.6 F2400
;WIPE_START
G1 F9000
G1 X132.103 Y113.003
G1 X132.083 Y112.928
G1 X132.095 Y112.796
G1 X132.151 Y112.676
G1 X132.208 Y112.619
G1 X132.278 Y112.578
G1 X132.404 Y112.556
G1 X132.534 Y112.578
G1 X132.969 Y113.014
;WIPE_END
G1 X125.489 Y114.53 Z.6
G1 X79.582 Y123.832 Z.6
G1 Z.2
G1 E1.6 F1800
;TYPE:Inner wall
;WIDTH:0.599999
G1 F600
G1 X79.242 Y123.795 E.01507
G3 X81.02 Y122.291 I.366 J-1.371 E.27202
G1 X80.991 Y123.035 E.03277
G1 X81.079 Y123.578 E.02421
G1 X81.28 Y123.854 E.01503
G1 X79.782 Y123.854 E.06591
G1 X79.622 Y123.837 E.0071
G1 E-1.6 F2400
;WIPE_START
G1 F9000
G1 X79.242 Y123.795
G1 X78.904 Y123.658
G1 X78.612 Y123.44
G1 X78.385 Y123.155
G1 X78.238 Y122.821
G1 X78.213 Y122.664
;WIPE_END
G1 X85.838 Y122.988 Z.6
G1 X119.31 Y124.412 Z.6
G1 Z.2
G1 E1.6 F1800
;WIDTH:0.569652
G1 F600
G1 X82.383 Y124.428 E1.53644
;WIDTH:0.599999
G2 X79.668 Y124.411 I-1.711 J57.124 E.1195
G1 X79.099 Y124.338 E.02524
G1 X78.628 Y124.147 E.02237
G1 X78.221 Y123.843 E.02237
G1 X77.904 Y123.445 E.02237
G1 X77.699 Y122.98 E.02237
G1 X77.619 Y122.478 E.02237
G1 X77.669 Y121.973 E.02237
G1 X77.846 Y121.496 E.02237
G1 X78.137 Y121.08 E.02237
G1 X78.526 Y120.752 E.02237
G1 X78.984 Y120.533 E.02237
G1 X79.484 Y120.437 E.02237
G1 X79.991 Y120.472 E.02237
G1 X80.472 Y120.635 E.02237
G1 X80.897 Y120.914 E.02237
G1 X81.237 Y121.292 E.02237
G1 X81.469 Y121.744 E.02237
G1 X81.579 Y122.24 E.02237
G1 X81.548 Y123.057 E.03594
G1 X81.6 Y123.382 E.01452
G1 X81.866 Y123.745 E.0198
G1 X82.383 Y123.907 E.02384
;WIDTH:0.569652
G1 X122.044 Y123.884 E1.65022
;WIDTH:0.605499
G1 X122.672 Y123.844 E.02795
M73 P2 R23
;WIDTH:0.638388
M73 P2 R23
G1 X123.185 Y123.757 E.0245
G1 X123.437 Y124.43 E.03377
G2 X122.568 Y124.4 I-.745 J9.091 E.04092
;WIDTH:0.5912
G1 X122.006 Y124.411 E.02433
;WIDTH:0.569652
G1 X119.35 Y124.412 E.11051
G1 E-1.6 F2400
;WIPE_START
G1 F9000
G1 X117.35 Y124.413
;WIPE_END
G1 X124.983 Y124.411 Z.6
G1 X140.842 Y124.406 Z.6
G1 Z.2
G1 E1.6 F1800
;WIDTH:0.572437
G1 F600
G1 X131.454 Y124.419 E.39269
;WIDTH:0.603318
G1 X130.74 Y124.405 E.03163
;WIDTH:0.634199
G1 X130.025 Y124.39 E.03337
G1 X129.565 Y124.433 E.02157
G1 X129.648 Y124.27 E.00853
G1 X129.819 Y123.752 E.02548
G2 X130.455 Y123.852 I1.386 J-6.711 E.0301
;WIDTH:0.598508
G1 X131.492 Y123.889 E.0455
;WIDTH:0.572437
G1 X142.414 Y123.881 E.45685
;WIDTH:0.565134
G1 X142.414 Y124.403 E.02153
G1 X142.153 Y124.404 E.01076
;WIDTH:0.572437
G1 X140.882 Y124.405 E.05316
G1 E-1.6 F2400
;WIPE_START
G1 F9000
G1 X138.882 Y124.408
;WIPE_END
G1 X131.251 Y124.244 Z.6
G1 X82.122 Y123.187 Z.6
G1 Z.2
G1 E1.6 F1800
;TYPE:Outer wall
;WIDTH:0.599999
G1 F600
G1 X82.21 Y123.308 E.0066
G1 X82.383 Y123.367 E.00803
G1 X122.017 Y123.342 E1.74413
G2 X123.121 Y123.178 I-.14 J-4.739 E.04922
G1 X123.193 Y123.063 E.00598
;WIDTH:0.565631
G1 X123.265 Y122.947 E.00561
;WIDTH:0.531263
G1 X123.274 Y122.815 E.00514
;WIDTH:0.52103
G1 X123.355 Y122.158 E.025
G1 X123.409 Y121.984 E.00686
;WIDTH:0.524094
G1 X123.626 Y121.423 E.02287
G1 X123.745 Y121.231 E.00859
;WIDTH:0.526755
G1 X124.064 Y120.779 E.02114
G1 X124.252 Y120.592 E.01014
;WIDTH:0.528359
G1 X124.643 Y120.257 E.01971
G1 X124.914 Y120.096 E.01212
;WIDTH:0.529581
G1 X125.384 Y119.869 E.02005
;WIDTH:0.530216
G1 X126.082 Y119.697 E.02769
G3 X126.932 Y119.699 I.41 J5.16 E.03274
G1 X127.674 Y119.889 E.0295
;WIDTH:0.529628
G1 X128.361 Y120.256 E.02994
;WIDTH:0.528435
G1 X128.94 Y120.777 E.02987
;WIDTH:0.526635
G1 X129.378 Y121.421 E.02977
;WIDTH:0.524237
G1 X129.649 Y122.152 E.02965
;WIDTH:0.521319
G1 X129.74 Y122.891 E.02816
;WIDTH:0.560659
G1 X129.812 Y123.033 E.00651
;WIDTH:0.599999
G1 X129.884 Y123.175 E.007
G2 X130.483 Y123.297 I.979 J-3.287 E.02694
G1 X131.491 Y123.346 E.04443
G1 X142.953 Y123.342 E.50437
G1 X142.954 Y124.942 E.07043
M73 P3 R23
M73 P3 R23
G1 X130.026 Y124.965 E.56888
G2 X128.951 Y125.099 I1.344 J15.105 E.04767
;WIDTH:0.58917
G1 X128.839 Y125.169 E.00573
;WIDTH:0.553071
G1 X128.726 Y125.24 E.00535
;WIDTH:0.524893
G1 X128.267 Y125.608 E.0224
G1 X128.05 Y125.727 E.00944
;WIDTH:0.514085
G1 X127.392 Y125.998 E.02649
;WIDTH:0.53029
G1 X126.843 Y126.111 E.02156
G1 X126.11 Y126.105 E.02821
G1 X125.398 Y125.935 E.02821
;WIDTH:0.528546
G1 X124.741 Y125.609 E.02811
;WIDTH:0.572978
G1 X124.119 Y125.118 E.03318
;WIDTH:0.599999
G2 X122.568 Y124.953 I-1.736 J8.935 E.06873
G1 X79.633 Y124.968 E1.88938
G1 X78.957 Y124.881 E.02998
G1 X78.352 Y124.637 E.0287
G1 X77.83 Y124.246 E.0287
G1 X77.424 Y123.736 E.0287
G1 X77.161 Y123.139 E.0287
G1 X77.058 Y122.495 E.0287
G1 X77.121 Y121.846 E.0287
G1 X77.348 Y121.235 E.0287
G1 X77.723 Y120.701 E.0287
G1 X78.221 Y120.28 E.0287
G1 X78.809 Y119.999 E.0287
G1 X79.45 Y119.877 E.0287
G1 X80.101 Y119.921 E.0287
G1 X80.719 Y120.13 E.0287
G1 X81.263 Y120.488 E.0287
G1 X81.699 Y120.973 E.0287
G1 X81.997 Y121.553 E.0287
G1 X82.139 Y122.19 E.0287
G2 X82.121 Y123.147 I15.367 J.757 E.04211
G1 E-1.6 F2400
;WIPE_START
G1 F9000
G1 X82.21 Y123.308
G1 X82.383 Y123.367
G1 X84.016 Y123.366
;WIPE_END
G1 X91.649 Y123.343 Z.6
G1 X129.263 Y123.228 Z.6
G1 Z.2
G1 E1.6 F1800
G1 F600
G1 X129.266 Y123.575 E.01529
G1 X129.136 Y124.01 E.01997
G1 X128.925 Y124.389 E.01911
G1 X128.703 Y124.609 E.01373
;WIDTH:0.564613
G1 X128.481 Y124.828 E.01286
;WIDTH:0.529226
G1 X127.968 Y125.23 E.02502
;WIDTH:0.528466
G1 X127.411 Y125.491 E.02362
G1 X127.189 Y125.566 E.00898
;WIDTH:0.512098
G1 X126.536 Y125.653 E.0244
G1 X125.822 Y125.567 E.02665
;WIDTH:0.513806
G1 X125.164 Y125.305 E.02636
;WIDTH:0.516864
G1 X124.578 Y124.872 E.02726
;WIDTH:0.558432
G1 X124.331 Y124.633 E.01401
;WIDTH:0.599999
G1 X124.084 Y124.393 E.01514
G1 X123.854 Y123.972 E.02113
G1 X123.74 Y123.58 E.01794
G1 X123.74 Y123.272 E.01359
;WIDTH:0.565631
G1 X123.74 Y122.963 E.01275
;WIDTH:0.531263
G1 X123.829 Y122.217 E.02897
;WIDTH:0.524094
G1 X124.074 Y121.6 E.02522
;WIDTH:0.526755
G1 X124.456 Y121.062 E.02521
;WIDTH:0.528359
G1 X124.952 Y120.631 E.02519
G1 X125.15 Y120.5 E.00914
;WIDTH:0.511562
G1 X125.758 Y120.247 E.02437
G1 X126.46 Y120.146 E.02624
;WIDTH:0.510649
G1 X127.183 Y120.23 E.02689
G1 X127.851 Y120.497 E.02659
;WIDTH:0.511455
G1 X128.427 Y120.928 E.02661
;WIDTH:0.512947
G1 X128.872 Y121.492 E.02669
;WIDTH:0.515039
G1 X129.156 Y122.153 E.02682
;WIDTH:0.517736
G1 X129.26 Y122.864 E.02695
;WIDTH:0.558868
G1 X129.263 Y123.188 E.0132
G1 E-1.6 F2400
;WIPE_START
G1 F9000
G1 X129.266 Y123.575
G1 X129.136 Y124.01
G1 X128.925 Y124.389
G1 X128.703 Y124.609
G1 X128.481 Y124.828
G1 X128.402 Y124.89
;WIPE_END
G1 X120.78 Y124.476 Z.6
G1 X80.88 Y122.31 Z.6
G1 Z.2
G1 E1.6 F1800
;TYPE:Bottom surface
;WIDTH:0.697219
G1 F1200
G1 X80.054 Y121.493 E.06004
G2 X79.148 Y121.504 I-.442 J.898 E.04858
G1 X80.604 Y122.959 E.10639
G1 X80.601 Y123.031 E.0037
G1 X80.671 Y123.464 E.02267
G1 X80.183 Y123.464 E.02521
G1 X78.682 Y121.963 E.1097
G2 X78.703 Y122.909 I.881 J.454 E.05099
G1 X79.478 Y123.685 E.05667
; stop printing object Martello id:9570643137069164 copy 0
; printing object Porta Martello id:86132665743704375 copy 0
G1 E-1.6 F2400
;WIPE_START
G1 F9000
G1 X78.703 Y122.909
G1 X78.615 Y122.71
G1 X78.573 Y122.45
G1 X78.599 Y122.187
G1 X78.654 Y122.039
;WIPE_END
G1 X84.625 Y117.285 Z.6
G1 X95.919 Y108.294 Z.6
M73 P4 R23
M73 P4 R23
G1 Z.2
G1 E1.6 F1800
;TYPE:Support
;WIDTH:0.6
G1 F600
G3 X95.442 Y108.231 I-.477 J1.773 E.48653
G1 X95.836 Y108.283 E.01753
G1 X96.78 Y110.076 F9000
G1 F600
G3 X96.734 Y109.729 I-1.333 J-.001 E.35314
G1 X96.78 Y110.076 E.01538
G1 X96.155 Y110.076 F9000
G1 F600
G3 X96.131 Y109.891 I-.711 J-.001 E.18845
G1 X96.155 Y110.076 E.00821
G1 E-1.6 F2400
;WIPE_START
G1 F9000
G1 X96.131 Y109.891
G1 X95.799 Y109.457
G1 X95.441 Y109.361
G1 X94.936 Y109.57
G1 X94.802 Y109.894
;WIPE_END
G1 X100.708 Y105.059 Z.6
G1 X103.803 Y102.525 Z.6
G1 Z.2
G1 E1.6 F1800
G1 F600
G1 X102.672 Y102.525 E.04978
G1 X102.291 Y102.906 E.0237
G1 X102.291 Y105.925 E.13286
G1 X92.672 Y105.925 E.4233
G2 X92.291 Y106.925 I.31 J.69 E.0523
G2 X91.291 Y107.306 I-.31 J.69 E.0523
G1 X91.291 Y112.845 E.24372
G2 X92.291 Y113.225 I.69 J-.31 E.0523
G2 X92.672 Y114.225 I.69 J.31 E.0523
G1 X102.291 Y114.225 E.4233
G1 X102.291 Y117.245 E.13286
G1 X102.672 Y117.625 E.0237
G1 X103.846 Y117.668 E.05169
G1 X89.277 Y117.668 E.64109
G1 X89.277 Y102.483 E.66823
G1 X103.822 Y102.483 E.64007
G1 E-1.6 F2400
M73 P4 R22
;WIPE_START
M73 P4 R22
G1 F9000
G1 X101.822 Y102.483
;WIPE_END
G1 X101.802 Y110.115 Z.6
G1 X101.79 Y114.727 Z.6
G1 Z.2
G1 E1.6 F1800
G1 F600
G1 X101.79 Y117.167 E.10737
G1 X89.779 Y117.167 E.52855
G1 X89.779 Y102.984 E.6241
M73 P5 R22
M73 P5 R22
G1 X101.79 Y102.984 E.52855
G1 X101.79 Y105.424 E.10737
G1 X92.464 Y105.424 E.41037
G1 X91.79 Y106.099 E.04197
G1 X91.79 Y106.424 E.01433
G1 X91.464 Y106.424 E.01433
G1 X90.79 Y107.099 E.04197
G1 X90.79 Y113.052 E.262
G1 X91.464 Y113.727 E.04197
G1 X91.79 Y113.727 E.01433
G1 X91.79 Y114.052 E.01433
G1 X92.464 Y114.727 E.04197
G1 X101.79 Y114.727 E.41037
G1 X101.171 Y115.346 F9000
G1 F600
G1 X101.171 Y116.548 E.05289
G1 X90.398 Y116.548 E.47408
G1 X90.398 Y113.536 E.13255
G1 X92.208 Y115.346 E.11265
G1 X101.171 Y115.346 E.39442
G1 E-1.6 F2400
;WIPE_START
G1 F9000
G1 X99.171 Y115.346
;WIPE_END
G1 X100.593 Y107.847 Z.6
G1 X101.171 Y104.805 Z.6
G1 Z.2
G1 E1.6 F1800
G1 F600
G1 X92.208 Y104.805 E.39442
G1 X90.398 Y106.615 E.11265
G1 X90.398 Y103.603 E.13255
G1 X101.171 Y103.603 E.47408
G1 X101.171 Y104.805 E.05289
G1 E-1.6 F2400
;WIPE_START
G1 F9000
G1 X101.171 Y103.603
G1 X100.373 Y103.603
;WIPE_END
G1 X107.991 Y104.071 Z.6
G1 X116.995 Y104.624 Z.6
G1 Z.2
G1 E1.6 F1800
M73 P6 R22
;TYPE:Inner wall
;WIDTH:0.368086
M73 P6 R22
G1 F600
G1 X117.493 Y104.624 E.01277
G1 X117.493 Y105.571 E.02434
G1 X117.215 Y104.901 E.01863
G1 X116.545 Y104.624 E.01863
G1 X116.955 Y104.624 E.01054
G1 E-1.6 F2400
;WIPE_START
G1 F9000
G1 X117.493 Y104.624
G1 X117.493 Y105.571
G1 X117.296 Y105.095
;WIPE_END
G1 X117.382 Y112.727 Z.6
G1 X117.403 Y114.607 Z.6
G1 Z.2
G1 E1.6 F1800
;WIDTH:0.546767
G1 F600
G1 X117.403 Y115.438 E.03307
G1 X116.473 Y115.438 E.03705
G1 X116.959 Y115.024 E.0254
G2 X117.403 Y114.357 I-2.077 J-1.867 E.03202
G1 X117.403 Y114.567 E.00835
G1 E-1.6 F2400
;WIPE_START
G1 F9000
G1 X117.403 Y115.438
G1 X116.473 Y115.438
G1 X116.624 Y115.309
;WIPE_END
G1 X108.992 Y115.178 Z.6
G1 X104.479 Y115.1 Z.6
G1 Z.2
G1 E1.6 F1800
;WIDTH:0.546766
G1 F600
G1 X104.479 Y114.357 E.02957
G2 X104.924 Y115.024 I2.522 J-1.201 E.03202
G1 X105.409 Y115.438 E.0254
G1 X104.479 Y115.438 E.03705
G1 X104.479 Y115.14 E.01185
G1 E-1.6 F2400
;WIPE_START
G1 F9000
G1 X104.479 Y114.357
G1 X104.668 Y114.694
G1 X104.924 Y115.024
G1 X105.238 Y115.292
;WIPE_END
G1 X104.177 Y110.888 Z.6
G1 Z.2
G1 E1.6 F1800
;WIDTH:0.599999
G1 F600
G1 X104.177 Y112.544 E.07287
G1 X104.133 Y112.457 E.0043
G1 X103.595 Y112.098 E.02847
G1 X103.112 Y112.011 E.02162
G1 X99.002 Y112.014 E.18085
G1 X99.309 Y111.302 E.03412
G1 X99.403 Y110.95 E.01602
G1 X99.495 Y110.259 E.0307
G1 X99.495 Y109.895 E.016
G1 X99.404 Y109.203 E.0307
G1 X99.31 Y108.852 E.01602
G1 X99.002 Y108.137 E.03426
G1 X103.112 Y108.14 E.18085
G1 X103.647 Y108.033 E.02404
G1 X104.177 Y107.621 E.02951
G1 X104.177 Y110.848 E.14199
G1 E-1.6 F2400
;WIPE_START
G1 F9000
G1 X104.177 Y112.544
G1 X104.133 Y112.457
G1 X103.962 Y112.342
;WIPE_END
G1 X104.943 Y104.773 Z.6
G1 X104.962 Y104.624 Z.6
G1 Z.2
G1 E1.6 F1800
;WIDTH:0.368086
G1 F600
G1 X105.201 Y104.624 E.00612
G1 X104.667 Y104.901 E.01545
G1 X104.389 Y105.571 E.01863
G1 X104.389 Y104.624 E.02434
G1 X104.922 Y104.624 E.0137
G1 E-1.6 F2400
;WIPE_START
G1 F9000
G1 X105.201 Y104.624
G1 X104.667 Y104.901
G1 X104.389 Y105.571
G1 X104.389 Y105.176
;WIPE_END
G1 X104.674 Y106.596 Z.6
G1 Z.2
G1 E1.6 F1800
;WIDTH:0.723689
G1 F600
G1 X104.672 Y106.961 E.0196
G1 X104.693 Y107.163 E.01091
;WIDTH:0.682459
