;TIME:3050.18
;Filament used:6.58079m
;Layer height:0.200
; HEADER_BLOCK_START
; generated by Creality_Print V6.0.5.1840 on 2025-07-26 at 13:55:48
; total layer number: 25
; filament_density: 1.24
; filament_diameter: 1.75
; max_z_height: 5.00
; HEADER_BLOCK_END

; MINX = 75.00
; MINY = 57.00
; MINZ = 0.00
; MAXX = 145.00
; MAXY = 163.00
; MAXZ = 5.00

; THUMBNAIL_BLOCK_START

;
; THUMBNAIL_BLOCK_END

; THUMBNAIL_BLOCK_START

;
; THUMBNAIL_BLOCK_END

; external perimeters extrusion width = 0.42mm
; perimeters extrusion width = 0.45mm
; infill extrusion width = 0.45mm
; solid infill extrusion width = 0.42mm
; top infill extrusion width = 0.42mm
; support material extrusion width = 0.40mm
; first layer extrusion width = 0.60mm

; EXECUTABLE_BLOCK_START
M73 P0 R50
M201 X5000 Y5000 Z500 E5000
M203 X500 Y500 Z30 E100
M204 P5000 R2500 T5000 ; sets acceleration (P, T) and retract acceleration (R), mm/sec^2
M205 X10.00 Y10.00 Z0.40 E5.00 ; sets the jerk limits, mm/sec
;TYPE:Custom
M220 S100 ;Reset Feedrate 
M221 S100 ;Reset Flowrate 
 
M140 S75 ;Set final bed temp 
G28 ;Home 
 
G92 E0 ;Reset Extruder 
G1 Z2.0 F3000 ;Move Z Axis up 
M104 S200 ;Set final nozzle temp 
G1 X-2.1 Y20 Z0.28 F5000.0 ;Move to start position 
M190 S75 ;Wait for bed temp to stabilize 
M109 S200 ;Wait for nozzle temp to stabilize 
G1 X-2.1 Y145.0 Z0.28 F1500.0 E15 ;Draw the first line 
G1 X-2.4 Y145.0 Z0.28 F5000.0 ;Move to side a little 
G1 X-2.4 Y20 Z0.28 F1500.0 E30 ;Draw the second line 
G92 E0  ;Reset Extruder 
G1 E-1.0000 F1800 ;Retract a bit 
G1 Z2.0 F3000 ;Move Z Axis up 
G1 E0.0000 F1800
G90
G21
M83 ; use relative distances for extrusion
" "
G1 E-1.6 F2400
M106 S0
;LAYER_CHANGE
;Z:0.2
;HEIGHT:0.2
;BEFORE_LAYER_CHANGE
;0.2
G92 E0

;_SET_FAN_SPEED_CHANGING_LAYER
M204 P125
M205 X10 Y10
; printing object Close Cassa Armonica id:0 copy 0
M204 T125
G1 Z.4 F9000
G1 X140.479 Y141.464
G1 Z.2
G1 E1.6 F1800
;TYPE:Inner wall
;WIDTH:0.599999
G1 F600
G1 X143.436 Y141.464 E.13012
G1 X143.436 Y161.436 E.87886
G1 X136.73 Y161.436 E.2951
G1 X136.73 Y159.343 E.09208
G1 X136.566 Y158.874 E.02186
G1 X136.318 Y158.54 E.01831
G1 X136.023 Y158.317 E.0163
G1 X135.727 Y158.192 E.01413
G1 X135.337 Y158.136 E.01735
G1 X126 Y158.137 E.41087
G1 X125.558 Y158.231 E.01989
G1 X125.168 Y158.462 E.01994
G1 X124.863 Y158.823 E.02078
G1 X124.705 Y159.224 E.01897
G1 X124.671 Y159.529 E.01351
G1 X124.671 Y161.436 E.08393
G1 X76.564 Y161.436 E2.11696
G1 X76.564 Y91.464 E3.07912
G1 X81.521 Y91.464 E.21815
G1 X81.955 Y91.395 E.01933
G1 X82.363 Y91.181 E.02026
G1 X82.64 Y90.901 E.01733
G1 X82.842 Y90.513 E.01926
G1 X82.914 Y90.071 E.01969
G1 X82.908 Y79.782 E.4528
M73 P1 R50
M73 P1 R50
G1 X82.792 Y79.342 E.02003
G1 X82.562 Y78.986 E.01865
G1 X82.267 Y78.734 E.01708
G1 X81.933 Y78.581 E.01616
G1 X81.521 Y78.518 E.01832
G1 X76.564 Y78.518 E.21815
G1 X76.564 Y58.564 E.87809
G1 X84.221 Y58.564 E.33693
G1 X84.221 Y60.471 E.08393
G2 X84.536 Y61.353 I1.488 J-.034 E.04192
G1 X84.794 Y61.597 E.01563
G1 X85.201 Y61.802 E.02005
G1 X85.613 Y61.864 E.01836
G1 X94.887 Y61.864 E.40807
G1 X95.187 Y61.831 E.0133
G1 X95.603 Y61.666 E.01972
G1 X95.94 Y61.382 E.01938
G1 X96.181 Y60.987 E.02037
G1 X96.279 Y60.471 E.02308
G1 X96.279 Y58.564 E.08393
G1 X143.436 Y58.564 E2.07514
G1 X143.436 Y128.516 E3.07824
G1 X138.479 Y128.516 E.21815
G1 X138.045 Y128.585 E.01933
G1 X137.637 Y128.799 E.02026
G1 X137.36 Y129.079 E.01733
G1 X137.158 Y129.467 E.01926
G1 X137.086 Y129.909 E.01969
G1 X137.089 Y140.159 E.4511
G1 X137.19 Y140.6 E.01989
G1 X137.398 Y140.95 E.01791
G1 X137.683 Y141.215 E.01713
G1 X138.066 Y141.402 E.01878
G1 X138.479 Y141.464 E.01834
G1 X140.439 Y141.464 E.08626
G1 E-1.6 F2400
;WIPE_START
G1 F9000
M73 P1 R49
M73 P1 R49
G1 X142.439 Y141.464
;WIPE_END
G1 X139.457 Y140.907 Z.6
G1 Z.2
G1 E1.6 F1800
G1 F600
G1 X143.993 Y140.907 E.19961
G1 X143.993 Y161.993 E.92789
G1 X136.173 Y161.993 E.34413
G1 X136.173 Y159.417 E.11333
G1 X136.075 Y159.136 E.01312
G1 X135.926 Y158.936 E.01099
G1 X135.659 Y158.757 E.01413
G1 X135.337 Y158.693 E.01443
G1 X126.064 Y158.693 E.40807
G1 X125.779 Y158.743 E.01273
G1 X125.487 Y158.924 E.01512
G1 X125.292 Y159.208 E.01514
G1 X125.228 Y159.529 E.01439
G1 X125.228 Y161.993 E.10845
G1 X76.007 Y161.993 E2.16599
G1 X76.007 Y90.907 E3.12815
M73 P2 R49
M73 P2 R49
G1 X81.521 Y90.907 E.24266
G1 X81.782 Y90.866 E.0116
G1 X82.085 Y90.689 E.01545
G1 X82.285 Y90.412 E.01503
G1 X82.357 Y90.071 E.01531
G1 X82.357 Y79.911 E.44711
G1 X82.314 Y79.645 E.01186
G1 X82.146 Y79.356 E.01471
G1 X81.858 Y79.146 E.01566
G1 X81.521 Y79.075 E.01515
G1 X76.007 Y79.075 E.24266
G1 X76.007 Y58.007 E.92712
G1 X84.778 Y58.007 E.38596
G1 X84.778 Y60.471 E.10845
G1 X84.845 Y60.8 E.01477
G1 X85.042 Y61.081 E.01507
G1 X85.286 Y61.24 E.01283
G1 X85.613 Y61.307 E.01471
G1 X94.887 Y61.307 E.40807
G1 X95.186 Y61.252 E.01339
G1 X95.476 Y61.064 E.01521
G1 X95.663 Y60.78 E.01494
G1 X95.722 Y60.471 E.01385
G1 X95.722 Y58.007 E.10845
G1 X143.993 Y58.007 E2.12417
G1 X143.993 Y129.073 E3.12727
G1 X138.479 Y129.073 E.24266
G1 X138.218 Y129.114 E.0116
G1 X137.915 Y129.291 E.01545
G1 X137.715 Y129.568 E.01503
G1 X137.643 Y129.909 E.01531
G1 X137.643 Y140.088 E.44795
G1 X137.721 Y140.424 E.01516
G1 X137.908 Y140.682 E.01403
G1 X138.169 Y140.848 E.01362
G1 X138.479 Y140.907 E.01387
G1 X139.417 Y140.907 E.04129
G1 E-1.6 F2400
;WIPE_START
G1 F9000
G1 X141.417 Y140.907
;WIPE_END
G1 X138.479 Y140.35 Z.6
G1 Z.2
G1 E1.6 F1800
;TYPE:Outer wall
G1 F600
G1 X144.55 Y140.35 E.26718
G1 X144.55 Y162.55 E.97692
G1 X135.616 Y162.55 E.39316
M73 P3 R49
M73 P3 R49
G1 X135.616 Y159.486 E.13484
G1 X135.504 Y159.306 E.00931
G1 X135.337 Y159.25 E.00776
G1 X126.028 Y159.252 E.40964
G1 X125.857 Y159.342 E.0085
G1 X125.785 Y159.529 E.00879
G1 X125.785 Y162.55 E.13296
G1 X75.45 Y162.55 E2.21502
G1 X75.45 Y90.35 E3.17718
G1 X81.551 Y90.35 E.26847
G1 X81.73 Y90.256 E.00893
G1 X81.8 Y90.071 E.00866
G1 X81.797 Y79.87 E.44893
G1 X81.703 Y79.699 E.00857
G1 X81.521 Y79.633 E.0085
G1 X75.45 Y79.633 E.26718
G1 X75.45 Y57.45 E.97615
G1 X85.335 Y57.45 E.43499
M73 P3 R48
M73 P3 R48
G1 X85.335 Y60.523 E.13525
G1 X85.45 Y60.697 E.00914
G1 X85.613 Y60.75 E.00759
G1 X94.929 Y60.747 E.40994
G1 X95.097 Y60.654 E.00845
G1 X95.165 Y60.471 E.00855
G1 X95.165 Y57.45 E.13296
G1 X144.55 Y57.45 E2.17319
G1 X144.55 Y129.63 E3.1763
G1 X138.449 Y129.63 E.26847
M73 P4 R48
M73 P4 R48
G1 X138.27 Y129.724 E.00893
G1 X138.2 Y129.909 E.00866
G1 X138.204 Y140.118 E.44928
G1 X138.303 Y140.288 E.00865
G1 X138.441 Y140.337 E.00643
G1 E-1.6 F2400
;WIPE_START
G1 F9000
G1 X140.441 Y140.341
;WIPE_END
G1 Z.6
G1 X143.297 Y142.11
G1 Z.6
G1 Z.2
G1 E1.6 F1800
;TYPE:Bottom surface
;WIDTH:0.602319
G1 F1200
G1 X143.041 Y141.854 E.016
G1 X142.248 Y141.852 E.03503
G1 X143.046 Y142.65 E.04988
G1 X143.046 Y143.441 E.03496
G1 X141.455 Y141.85 E.09942
G1 X140.662 Y141.849 E.03503
G1 X143.046 Y144.233 E.14897
G1 X143.046 Y145.024 E.03496
G1 X139.869 Y141.847 E.19851
G1 X139.076 Y141.845 E.03503
G1 X143.046 Y145.815 E.24806
G1 X143.046 Y146.606 E.03496
G1 X138.284 Y141.844 E.2976
G3 X136.709 Y140.269 I.194 J-1.768 E.10633
G1 X83.304 Y86.864 E3.33738
G1 X83.304 Y86.073 E.03496
G1 X136.696 Y139.465 E3.33659
G1 X136.696 Y138.674 E.03496
G1 X83.304 Y85.282 E3.33659
G1 X83.304 Y84.491 E.03496
G1 X136.696 Y137.883 E3.33659
G1 X136.696 Y137.092 E.03496
G1 X83.304 Y83.699 E3.33659
G1 X83.304 Y82.908 E.03496
G1 X136.696 Y136.3 E3.33659
G1 X136.696 Y135.509 E.03496
M73 P5 R48
M73 P5 R48
G1 X83.304 Y82.117 E3.33659
G1 X83.304 Y81.326 E.03496
G1 X136.696 Y134.718 E3.33659
G1 X136.696 Y133.927 E.03496
G1 X83.304 Y80.535 E3.33659
G1 X83.304 Y79.868 E.02946
G1 X83.284 Y79.724 E.00642
G1 X136.696 Y133.136 E3.3378
G1 X136.696 Y132.345 E.03496
G1 X76.954 Y72.603 E3.73339
G1 X76.954 Y71.812 E.03496
M73 P5 R47
M73 P5 R47
G1 X136.696 Y131.554 E3.73339
G1 X136.696 Y130.763 E.03496
G1 X76.954 Y71.021 E3.73338
G1 X76.954 Y70.23 E.03496
G1 X136.696 Y129.971 E3.73338
G3 X136.809 Y129.293 I1.888 J-.034 E.03055
M73 P6 R47
M73 P6 R47
G1 X76.954 Y69.439 E3.74045
G1 X76.954 Y68.647 E.03496
G1 X137.095 Y128.788 E3.7583
G3 X137.513 Y128.416 I1.206 J.935 E.0249
G1 X76.954 Y67.856 E3.78447
G1 X76.954 Y67.065 E.03496
G1 X138.065 Y128.176 E3.81892
G3 X138.806 Y128.126 I.649 J4.119 E.03287
G1 X76.954 Y66.274 E3.86524
G1 X76.954 Y65.483 E.03496
G1 X139.597 Y128.126 E3.91468
G1 X140.388 Y128.126 E.03496
G1 X76.954 Y64.692 E3.96412
G1 X76.954 Y63.901 E.03496
M73 P7 R47
M73 P7 R47
G1 X141.179 Y128.126 E4.01356
G1 X141.97 Y128.126 E.03496
G1 X76.954 Y63.11 E4.06299
G1 X76.954 Y62.319 E.03496
G1 X142.761 Y128.126 E4.11243
G1 X143.046 Y128.126 E.01257
M73 P7 R46
M73 P7 R46
G1 X143.046 Y127.619 E.02239
G1 X76.954 Y61.527 E4.13021
G1 X76.954 Y60.736 E.03496
G1 X143.046 Y126.828 E4.13021
G1 X143.046 Y126.037 E.03496
G1 X76.954 Y59.945 E4.13021
G1 X76.954 Y59.154 E.03496
M73 P8 R46
M73 P8 R46
G1 X143.046 Y125.246 E4.13021
G1 X143.046 Y124.455 E.03496
G1 X77.545 Y58.954 E4.09327
G1 X78.336 Y58.954 E.03496
G1 X143.046 Y123.664 E4.04383
G1 X143.046 Y122.873 E.03496
G1 X79.127 Y58.954 E3.99439
G1 X79.919 Y58.954 E.03496
G1 X143.046 Y122.081 E3.94495
G1 X143.046 Y121.29 E.03496
G1 X80.71 Y58.954 E3.89551
G1 X81.501 Y58.954 E.03496
G1 X143.297 Y120.75 E3.86174
G1 E-1.6 F2400
M73 P9 R46
;WIPE_START
M73 P9 R46
G1 F9000
G1 X141.882 Y119.336
;WIPE_END
G1 X141.314 Y126.947 Z.6
G1 X138.75 Y161.297 Z.6
G1 Z.2
G1 E1.6 F1800
G1 F1200
G1 X137.12 Y159.666 E.10188
G1 X137.12 Y160.457 E.03496
G1 X137.959 Y161.297 E.05244
G1 E-1.6 F2400
;WIPE_START
G1 F9000
G1 X137.12 Y160.457
G1 X137.12 Y159.666
G1 X137.135 Y159.682
;WIPE_END
G1 X137.096 Y159.373 Z.6
G1 Z.2
G1 E1.6 F1800
;TYPE:Gap infill
;WIDTH:0.119018
G1 F600
G2 X136.994 Y159.18 I-2.369 J1.131 E.00132
G1 E-1.6 F2400
;WIPE_START
G1 F9000
G1 X137.096 Y159.373
;WIPE_END
G1 X135.685 Y157.871 Z.6
G1 Z.2
G1 E1.6 F1800
;WIDTH:0.114405
G1 F600
G2 X135.492 Y157.77 I-1.501 J2.645 E.00123
G1 E-1.6 F2400
;WIPE_START
G1 F9000
G1 X135.685 Y157.871
;WIPE_END
G1 X140.243 Y151.749 Z.6
G1 X143.297 Y147.648 Z.6
G1 Z.2
G1 E1.6 F1800
;TYPE:Bottom surface
;WIDTH:0.602319
G1 F1200
G1 X83.304 Y87.655 E3.74905
G1 X83.304 Y88.446 E.03496
G1 X143.046 Y148.188 E3.73339
G1 X143.046 Y148.979 E.03496
M73 P9 R45
M73 P9 R45
G1 X83.304 Y89.237 E3.73338
G1 X83.304 Y90.028 E.03496
G1 X143.046 Y149.77 E3.73338
G1 X143.046 Y150.561 E.03496
G1 X83.185 Y90.701 E3.74082
G3 X82.896 Y91.202 I-1.927 J-.776 E.02568
G1 X143.046 Y151.352 E3.75889
G1 X143.046 Y152.144 E.03496
M73 P10 R45
M73 P10 R45
G1 X82.475 Y91.573 E3.78518
G3 X81.92 Y91.809 I-1.011 J-1.606 E.02676
G1 X143.046 Y152.935 E3.81986
G1 X143.046 Y153.726 E.03496
G1 X81.174 Y91.854 E3.86649
G1 X80.383 Y91.854 E.03496
G1 X143.046 Y154.517 E3.91592
G1 X143.046 Y155.308 E.03496
G1 X79.592 Y91.854 E3.96536
G1 X78.801 Y91.854 E.03496
G1 X143.046 Y156.099 E4.0148
G1 X143.046 Y156.89 E.03496
G1 X78.01 Y91.854 E4.06424
M73 P11 R45
M73 P11 R45
G1 X77.219 Y91.854 E.03496
G1 X143.046 Y157.681 E4.11368
G1 X143.046 Y158.472 E.03496
G1 X76.954 Y92.381 E4.13021
G1 X76.954 Y93.172 E.03496
G1 X143.046 Y159.264 E4.13021
G1 X143.046 Y160.055 E.03496
M73 P11 R44
M73 P11 R44
G1 X76.954 Y93.963 E4.13021
G1 X76.954 Y94.754 E.03496
G1 X143.046 Y160.846 E4.13021
G1 X143.046 Y161.046 E.00884
G1 X142.455 Y161.046 E.02612
G1 X76.954 Y95.545 E4.09327
G1 X76.954 Y96.336 E.03496
M73 P12 R44
M73 P12 R44
G1 X141.664 Y161.046 E4.04383
G1 X140.873 Y161.046 E.03496
G1 X76.954 Y97.127 E3.9944
G1 X76.954 Y97.918 E.03496
G1 X140.082 Y161.046 E3.94496
G1 X139.29 Y161.046 E.03496
G1 X76.954 Y98.71 E3.89552
G1 X76.954 Y99.501 E.03496
G1 X135.199 Y157.746 E3.63986
G1 X134.408 Y157.746 E.03496
G1 X76.954 Y100.292 E3.59042
G1 X76.954 Y101.083 E.03496
G1 X133.617 Y157.746 E3.54098
G1 X132.826 Y157.746 E.03496
M73 P13 R44
M73 P13 R44
G1 X76.954 Y101.874 E3.49154
G1 X76.954 Y102.665 E.03496
G1 X132.035 Y157.746 E3.44211
G1 X131.244 Y157.746 E.03496
G1 X76.954 Y103.456 E3.39267
G1 X76.954 Y104.247 E.03496
M73 P13 R43
M73 P13 R43
G1 X130.453 Y157.746 E3.34323
G1 X129.662 Y157.746 E.03496
G1 X76.954 Y105.038 E3.29379
G1 X76.954 Y105.83 E.03496
G1 X128.87 Y157.746 E3.24435
G1 X128.079 Y157.746 E.03496
G1 X76.954 Y106.621 E3.19492
G1 X76.954 Y107.412 E.03496
G1 X127.288 Y157.746 E3.14548
G1 X126.497 Y157.746 E.03496
M73 P14 R43
M73 P14 R43
G1 X76.954 Y108.203 E3.09604
G1 X76.954 Y108.994 E.03496
G1 X125.741 Y157.781 E3.04877
G1 X125.543 Y157.823 E.00891
G1 X125.161 Y157.992 E.01847
G1 X76.954 Y109.785 E3.01256
G1 X76.954 Y110.576 E.03496
G1 X124.731 Y158.353 E2.98568
G2 X124.422 Y158.835 I1.264 J1.151 E.02542
G1 X76.954 Y111.367 E2.96636
G1 X76.954 Y112.158 E.03496
G1 X124.285 Y159.489 E2.9578
G1 X124.281 Y160.277 E.0348
G1 X76.954 Y112.95 E2.95757
G1 X76.954 Y113.741 E.03496
G1 X124.259 Y161.046 E2.9562
G1 X123.468 Y161.046 E.03496
M73 P15 R43
M73 P15 R43
G1 X76.954 Y114.532 E2.90676
G1 X76.954 Y115.323 E.03496
G1 X122.677 Y161.046 E2.85732
G1 X121.886 Y161.046 E.03496
G1 X76.954 Y116.114 E2.80788
G1 X76.954 Y116.905 E.03496
G1 X121.095 Y161.046 E2.75845
G1 X120.304 Y161.046 E.03496
M73 P15 R42
M73 P15 R42
G1 X76.954 Y117.696 E2.70901
G1 X76.954 Y118.487 E.03496
G1 X119.513 Y161.046 E2.65957
G1 X118.722 Y161.046 E.03496
G1 X76.954 Y119.278 E2.61013
G1 X76.954 Y120.07 E.03496
G1 X117.93 Y161.046 E2.56069
G1 X117.139 Y161.046 E.03496
G1 X76.954 Y120.861 E2.51126
G1 X76.954 Y121.652 E.03496
G1 X116.348 Y161.046 E2.46182
G1 X115.557 Y161.046 E.03496
M73 P16 R42
M73 P16 R42
G1 X76.954 Y122.443 E2.41238
G1 X76.954 Y123.234 E.03496
G1 X114.766 Y161.046 E2.36294
G1 X113.975 Y161.046 E.03496
G1 X76.954 Y124.025 E2.3135
G1 X76.954 Y124.816 E.03496
G1 X113.184 Y161.046 E2.26407
G1 X112.393 Y161.046 E.03496
G1 X76.954 Y125.607 E2.21463
G1 X76.954 Y126.398 E.03496
G1 X111.602 Y161.046 E2.16519
G1 X110.81 Y161.046 E.03496
G1 X76.954 Y127.19 E2.11575
G1 X76.954 Y127.981 E.03496
G1 X110.019 Y161.046 E2.06631
G1 X109.228 Y161.046 E.03496
G1 X76.954 Y128.772 E2.01688
G1 X76.954 Y129.563 E.03496
G1 X108.437 Y161.046 E1.96744
G1 X107.646 Y161.046 E.03496
G1 X76.954 Y130.354 E1.918
G1 X76.954 Y131.145 E.03496
G1 X106.855 Y161.046 E1.86856
G1 X106.064 Y161.046 E.03496
M73 P17 R42
M73 P17 R42
G1 X76.954 Y131.936 E1.81912
G1 X76.954 Y132.727 E.03496
G1 X105.273 Y161.046 E1.76969
G1 X104.482 Y161.046 E.03496
G1 X76.954 Y133.518 E1.72025
G1 X76.954 Y134.31 E.03496
G1 X103.69 Y161.046 E1.67081
G1 X102.899 Y161.046 E.03496
G1 X76.954 Y135.101 E1.62137
G1 X76.954 Y135.892 E.03496
G1 X102.108 Y161.046 E1.57193
G1 X101.317 Y161.046 E.03496
M73 P17 R41
M73 P17 R41
G1 X76.954 Y136.683 E1.5225
G1 X76.954 Y137.474 E.03496
G1 X100.526 Y161.046 E1.47306
G1 X99.735 Y161.046 E.03496
G1 X76.954 Y138.265 E1.42362
G1 X76.954 Y139.056 E.03496
G1 X98.944 Y161.046 E1.37418
G1 X98.153 Y161.046 E.03496
G1 X76.954 Y139.847 E1.32474
G1 X76.954 Y140.638 E.03496
G1 X97.362 Y161.046 E1.27531
G1 X96.571 Y161.046 E.03496
G1 X76.954 Y141.429 E1.22587
G1 X76.954 Y142.221 E.03496
G1 X95.779 Y161.046 E1.17643
G1 X94.988 Y161.046 E.03496
G1 X76.954 Y143.012 E1.12699
G1 X76.954 Y143.803 E.03496
G1 X94.197 Y161.046 E1.07755
G1 X93.406 Y161.046 E.03496
G1 X76.954 Y144.594 E1.02812
G1 X76.954 Y145.385 E.03496
G1 X92.615 Y161.046 E.97868
G1 X91.824 Y161.046 E.03496
M73 P18 R41
M73 P18 R41
G1 X76.954 Y146.176 E.92924
G1 X76.954 Y146.967 E.03496
G1 X91.033 Y161.046 E.8798
G1 X90.242 Y161.046 E.03496
G1 X76.954 Y147.758 E.83036
G1 X76.954 Y148.549 E.03496
G1 X89.451 Y161.046 E.78093
G1 X88.659 Y161.046 E.03496
G1 X76.954 Y149.341 E.73149
G1 X76.954 Y150.132 E.03496
G1 X87.868 Y161.046 E.68205
G1 X87.077 Y161.046 E.03496
G1 X76.954 Y150.923 E.63261
G1 X76.954 Y151.714 E.03496
G1 X86.286 Y161.046 E.58317
G1 X85.495 Y161.046 E.03496
G1 X76.954 Y152.505 E.53374
G1 X76.954 Y153.296 E.03496
G1 X84.704 Y161.046 E.4843
G1 X83.913 Y161.046 E.03496
G1 X76.954 Y154.087 E.43486
G1 X76.954 Y154.878 E.03496
G1 X83.122 Y161.046 E.38542
G1 X82.331 Y161.046 E.03496
G1 X76.954 Y155.669 E.33598
G1 X76.954 Y156.461 E.03496
G1 X81.539 Y161.046 E.28655
G1 X80.748 Y161.046 E.03496
G1 X76.954 Y157.252 E.23711
