;TIME:2501.92
;Filament used:4.57284m
;Layer height:0.200
; HEADER_BLOCK_START
; generated by Creality_Print V6.0.5.1840 on 2025-07-24 at 18:53:02
; total layer number: 15
; filament_density: 1.24
; filament_diameter: 1.75
; max_z_height: 3.00
; HEADER_BLOCK_END

; MINX = 68.85
; MINY = 63.35
; MINZ = 0.00
; MAXX = 151.15
; MAXY = 156.65
; MAXZ = 3.00

; THUMBNAIL_BLOCK_START

;
; THUMBNAIL_BLOCK_END

; THUMBNAIL_BLOCK_START

;
; THUMBNAIL_BLOCK_END

; external perimeters extrusion width = 0.42mm
; perimeters extrusion width = 0.45mm
; infill extrusion width = 0.45mm
; solid infill extrusion width = 0.42mm
; top infill extrusion width = 0.42mm
; support material extrusion width = 0.40mm
; first layer extrusion width = 0.60mm

; EXECUTABLE_BLOCK_START
M73 P0 R41
M201 X5000 Y5000 Z500 E5000
M203 X500 Y500 Z30 E100
M204 P5000 R2500 T5000 ; sets acceleration (P, T) and retract acceleration (R), mm/sec^2
M205 X10.00 Y10.00 Z0.40 E5.00 ; sets the jerk limits, mm/sec
;TYPE:Custom
M220 S100 ;Reset Feedrate 
M221 S100 ;Reset Flowrate 
 
M140 S75 ;Set final bed temp 
G28 ;Home 
 
G92 E0 ;Reset Extruder 
G1 Z2.0 F3000 ;Move Z Axis up 
M104 S200 ;Set final nozzle temp 
G1 X-2.1 Y20 Z0.28 F5000.0 ;Move to start position 
M190 S75 ;Wait for bed temp to stabilize 
M109 S200 ;Wait for nozzle temp to stabilize 
G1 X-2.1 Y145.0 Z0.28 F1500.0 E15 ;Draw the first line 
G1 X-2.4 Y145.0 Z0.28 F5000.0 ;Move to side a little 
G1 X-2.4 Y20 Z0.28 F1500.0 E30 ;Draw the second line 
G92 E0  ;Reset Extruder 
G1 E-1.0000 F1800 ;Retract a bit 
G1 Z2.0 F3000 ;Move Z Axis up 
G1 E0.0000 F1800
G90
G21
M83 ; use relative distances for extrusion
" "
G1 E-1.6 F2400
M106 S0
;LAYER_CHANGE
;Z:0.2
;HEIGHT:0.2
;BEFORE_LAYER_CHANGE
;0.2
G92 E0

;_SET_FAN_SPEED_CHANGING_LAYER
M204 P125
M205 X10 Y10
; printing object Bottom Cassa Armonica id:78532712521924886 copy 0
M204 T125
G1 Z.4 F9000
G1 X83.096 Y109.02
G1 Z.2
G1 E1.6 F1800
;TYPE:Inner wall
;WIDTH:0.599999
G1 F600
G1 X83.114 Y108.888 E.00585
G1 X83.114 Y105.546 E.14709
G1 X83.061 Y105.115 E.01907
G1 X82.858 Y104.69 E.02075
G1 X82.525 Y104.358 E.02067
G1 X82.858 Y104.027 E.02067
G1 X83.061 Y103.601 E.02075
G1 X83.114 Y103.221 E.01687
G1 X83.114 Y99.829 E.14931
G1 X83.077 Y99.592 E.01052
G1 X83.304 Y99.518 E.01052
G1 X83.687 Y99.231 E.02104
G2 X84.064 Y98.277 I-1.173 J-1.016 E.04599
G1 X84.064 Y83.736 E.6399
G1 X84.037 Y83.464 E.01204
G1 X83.902 Y83.083 E.01777
G1 X83.667 Y82.762 E.01753
G1 X83.346 Y82.517 E.01774
G1 X82.93 Y82.368 E.01944
G1 X82.467 Y82.358 E.02041
G1 X82.105 Y82.464 E.01657
G1 X77.064 Y84.708 E.24282
G1 X77.064 Y71.564 E.57841
G1 X87.056 Y71.557 E.43967
G1 X87.436 Y71.465 E.01723
G1 X87.827 Y71.227 E.02016
G1 X88.099 Y70.91 E.01836
G2 X88.306 Y70.05 I-1.429 J-.799 E.03942
G1 X88.164 Y69.549 E.02293
G1 X85.847 Y64.914 E.22801
G1 X93.802 Y64.914 E.35007
G1 X91.775 Y69.468 E.21935
G1 X91.615 Y69.928 E.02144
G1 X91.599 Y70.293 E.01607
G2 X92.188 Y71.313 I1.387 J-.121 E.0535
G1 X92.601 Y71.51 E.02015
G1 X92.986 Y71.564 E.01712
G1 X123.958 Y71.564 E1.36294
G1 X121.649 Y76.75 E.24978
G1 X121.593 Y77.169 E.01862
G1 X121.653 Y77.575 E.01804
G1 X121.848 Y77.974 E.01955
G1 X122.159 Y78.292 E.01957
G1 X122.542 Y78.491 E.019
G1 X122.986 Y78.564 E.01981
G1 X137.527 Y78.564 E.6399
G1 X137.874 Y78.52 E.01539
M73 P1 R41
M73 P1 R41
G1 X138.272 Y78.348 E.01907
G1 X138.653 Y77.992 E.02294
G2 X138.899 Y77.412 I-1.125 J-.82 E.02796
G1 X138.899 Y76.931 E.02118
G1 X138.773 Y76.549 E.01771
G1 X136.281 Y71.564 E.24523
G1 X142.936 Y71.564 E.29285
G1 X142.936 Y87.764 E.71288
G1 X142.985 Y88.13 E.01624
G1 X143.168 Y88.535 E.01957
G1 X143.476 Y88.865 E.01988
G1 X143.945 Y89.103 E.02314
G2 X144.45 Y89.151 I.383 J-1.339 E.02243
G1 X144.895 Y89.036 E.02023
G1 X149.586 Y86.948 E.22596
G1 X149.586 Y94.903 E.35007
G1 X144.951 Y92.586 E.22801
G1 X144.604 Y92.466 E.01619
G2 X143.945 Y92.492 I-.275 J1.365 E.02927
G1 X143.476 Y92.73 E.02314
G1 X143.168 Y93.061 E.01988
G1 X143.009 Y93.387 E.01598
G1 X142.936 Y93.831 E.01983
G1 X142.936 Y98.436 E.20263
G1 X138.279 Y98.436 E.20495
G1 X137.845 Y98.505 E.0193
G1 X137.446 Y98.712 E.01983
G1 X137.16 Y98.999 E.01782
G1 X136.952 Y99.406 E.02011
G1 X136.886 Y99.829 E.01882
G1 X136.886 Y103.221 E.14931
G1 X136.941 Y103.611 E.0173
G1 X137.152 Y104.041 E.02109
G1 X137.479 Y104.358 E.02003
G1 X137.152 Y104.676 E.02003
G1 X136.941 Y105.106 E.02109
G1 X136.886 Y105.495 E.0173
G1 X136.886 Y108.888 E.14931
G1 X136.939 Y109.267 E.01685
G1 X137.142 Y109.693 E.02074
G1 X137.449 Y110 E.01913
G1 X137.142 Y110.307 E.01913
G1 X136.939 Y110.733 E.02074
G1 X136.886 Y111.112 E.01685
G1 X136.886 Y114.454 E.14709
G1 X136.939 Y114.885 E.01907
G1 X137.142 Y115.31 E.02075
G1 X137.475 Y115.642 E.02067
G1 X137.142 Y115.973 E.02067
G1 X136.939 Y116.399 E.02075
G1 X136.886 Y116.779 E.01687
G1 X136.886 Y120.171 E.14931
G1 X136.923 Y120.408 E.01052
G1 X136.696 Y120.482 E.01052
G1 X136.313 Y120.769 E.02104
G2 X135.936 Y121.723 I1.173 J1.016 E.04599
G1 X135.936 Y136.264 E.6399
G1 X135.963 Y136.536 E.01204
G1 X136.098 Y136.917 E.01777
G1 X136.333 Y137.238 E.01753
G1 X136.654 Y137.483 E.01774
G1 X137.07 Y137.632 E.01944
G1 X137.533 Y137.642 E.02041
G1 X137.895 Y137.536 E.01657
G1 X142.936 Y135.292 E.24282
G1 X142.936 Y148.436 E.57841
G1 X132.944 Y148.443 E.43967
G1 X132.564 Y148.535 E.01723
G1 X132.173 Y148.773 E.02016
G1 X131.901 Y149.09 E.01836
G2 X131.694 Y149.95 I1.429 J.799 E.03942
G1 X131.836 Y150.451 E.02293
G1 X134.153 Y155.086 E.22801
G1 X126.198 Y155.086 E.35007
G1 X128.225 Y150.532 E.21935
G1 X128.385 Y150.072 E.02144
G1 X128.401 Y149.707 E.01607
G2 X127.812 Y148.687 I-1.387 J.121 E.0535
G1 X127.399 Y148.49 E.02015
G1 X127.014 Y148.436 E.01712
G1 X96.042 Y148.436 E1.36294
G1 X98.351 Y143.25 E.24978
M73 P1 R40
M73 P1 R40
G1 X98.407 Y142.831 E.01862
G1 X98.347 Y142.425 E.01804
G1 X98.152 Y142.026 E.01955
G1 X97.841 Y141.708 E.01957
G1 X97.458 Y141.509 E.019
G1 X97.014 Y141.436 E.01981
G1 X82.473 Y141.436 E.6399
G1 X82.126 Y141.48 E.01539
G1 X81.728 Y141.652 E.01907
G1 X81.347 Y142.008 E.02294
G2 X81.101 Y142.588 I1.125 J.82 E.02796
G1 X81.101 Y143.069 E.02118
G1 X81.227 Y143.451 E.01771
G1 X83.719 Y148.436 E.24523
G1 X77.064 Y148.436 E.29285
G1 X77.064 Y132.236 E.71288
G1 X77.015 Y131.87 E.01624
M73 P2 R40
M73 P2 R40
G1 X76.832 Y131.465 E.01957
G1 X76.524 Y131.135 E.01988
G1 X76.055 Y130.897 E.02314
G2 X75.55 Y130.849 I-.383 J1.339 E.02243
G1 X75.105 Y130.964 E.02023
G1 X70.414 Y133.052 E.22596
G1 X70.414 Y125.097 E.35007
G1 X75.049 Y127.414 E.22801
G1 X75.396 Y127.534 E.01619
G2 X76.055 Y127.508 I.275 J-1.365 E.02927
G1 X76.524 Y127.27 E.02314
G1 X76.832 Y126.939 E.01988
G1 X76.991 Y126.613 E.01598
G1 X77.064 Y126.169 E.01983
G1 X77.064 Y121.564 E.20263
G1 X81.721 Y121.564 E.20495
G1 X82.155 Y121.495 E.0193
G1 X82.554 Y121.288 E.01983
G1 X82.84 Y121.001 E.01782
G1 X83.048 Y120.594 E.02011
G1 X83.114 Y120.171 E.01882
G1 X83.114 Y116.779 E.14931
G1 X83.059 Y116.389 E.0173
G1 X82.848 Y115.959 E.02109
G1 X82.521 Y115.642 E.02003
G1 X82.848 Y115.324 E.02003
G1 X83.059 Y114.894 E.02109
G1 X83.114 Y114.505 E.0173
G1 X83.114 Y111.112 E.14931
G1 X83.061 Y110.733 E.01685
G1 X82.858 Y110.307 E.02074
G1 X82.551 Y110 E.01913
G1 X82.858 Y109.693 E.01913
G1 X83.061 Y109.267 E.02074
G1 X83.09 Y109.06 E.00924
G1 E-1.6 F2400
;WIPE_START
G1 F9000
G1 X83.114 Y108.888
G1 X83.114 Y107.061
;WIPE_END
G1 X90.509 Y108.95 Z.6
G1 X140.943 Y121.828 Z.6
G1 Z.2
G1 E1.6 F1800
;WIDTH:0.858115
G1 F600
G1 X140.673 Y121.693 E.01944
G1 X142.807 Y121.693 E.13743
G1 X142.807 Y122.76 E.06872
G1 X140.978 Y121.846 E.13164
G1 E-1.6 F2400
;WIPE_START
G1 F9000
G1 X140.673 Y121.693
G1 X142.331 Y121.693
;WIPE_END
G1 X135.185 Y119.011 Z.6
G1 X77.224 Y97.255 Z.6
G1 Z.2
G1 E1.6 F1800
;WIDTH:0.858116
G1 F600
G1 X79.327 Y98.307 E.15146
G1 X77.193 Y98.307 E.13743
G1 X77.193 Y97.246 E.06833
G1 E-1.6 F2400
;WIPE_START
G1 F9000
G1 X78.984 Y98.136
;WIPE_END
G1 X80.691 Y105.575 Z.6
G1 X81.775 Y110.294 Z.6
G1 Z.2
G1 E1.6 F1800
;WIDTH:0.599999
G1 F600
G1 X81.721 Y110.277 E.00245
;WIDTH:0.597715
G1 X76.506 Y110.277 E.22857
G1 X76.506 Y109.723 E.02431
G1 X81.721 Y109.723 E.22857
;WIDTH:0.599999
G1 X82.204 Y109.571 E.02225
G1 X82.404 Y109.371 E.01244
G1 X82.509 Y109.167 E.01011
G1 X82.557 Y108.888 E.01245
G1 X82.557 Y105.483 E.14985
G1 X82.477 Y105.138 E.01557
G1 X82.203 Y104.812 E.01873
;WIDTH:0.622713
G1 X81.721 Y104.648 E.02331
G1 X76.518 Y104.648 E.2383
G1 X76.518 Y104.068 E.02655
G1 X81.721 Y104.068 E.2383
G1 X82.203 Y103.904 E.02331
;WIDTH:0.599999
G1 X82.403 Y103.705 E.01244
G1 X82.509 Y103.5 E.01011
G1 X82.557 Y103.221 E.01246
G1 X82.557 Y99.829 E.14931
G1 X82.517 Y99.573 E.0114
G1 X82.445 Y99.506 E.00432
;WIDTH:0.559754
G1 X82.374 Y99.439 E.00401
;WIDTH:0.519508
G1 X82.302 Y99.372 E.00369
;WIDTH:0.479263
G1 X82.23 Y99.305 E.00338
;WIDTH:0.439017
G1 X82.159 Y99.238 E.00307
;WIDTH:0.444649
G1 X82.013 Y99.167 E.00514
;WIDTH:0.490526
G1 X81.867 Y99.096 E.00573
;WIDTH:0.536403
G1 X81.721 Y99.025 E.00632
;WIDTH:0.568201
G1 X79.661 Y99.009 E.08549
;WIDTH:0.599999
G2 X76.507 Y98.993 I-2.607 J204.369 E.1388
G1 X76.507 Y96.129 E.12601
G2 X79.94 Y97.828 I111.777 J-221.575 E.16854
;WIDTH:0.568201
G1 X81.79 Y98.735 E.08549
;WIDTH:0.536403
G1 X81.928 Y98.778 E.00564
;WIDTH:0.488251
G1 X82.066 Y98.82 E.00509
;WIDTH:0.440098
G1 X82.205 Y98.862 E.00454
;WIDTH:0.433556
G1 X82.325 Y98.91 E.00399
;WIDTH:0.475167
G1 X82.445 Y98.958 E.00441
;WIDTH:0.516778
G1 X82.565 Y99.006 E.00484
;WIDTH:0.558389
G1 X82.685 Y99.054 E.00527
;WIDTH:0.599999
G1 X82.805 Y99.102 E.00569
G1 X83.051 Y99.022 E.0114
G1 X83.281 Y98.849 E.01263
G1 X83.448 Y98.587 E.01368
G1 X83.507 Y98.277 E.01388
G1 X83.507 Y83.736 E.6399
G1 X83.45 Y83.432 E.0136
G1 X83.269 Y83.151 E.01471
G1 X82.998 Y82.967 E.01442
G1 X82.671 Y82.9 E.01466
G1 X82.332 Y82.973 E.01529
G1 X76.507 Y85.566 E.28057
G1 X76.507 Y71.007 E.64067
G1 X86.919 Y71.007 E.45817
G1 X87.26 Y70.934 E.01537
G1 X87.542 Y70.728 E.01534
G1 X87.705 Y70.453 E.01409
G1 X87.751 Y70.099 E.01573
G1 X87.666 Y69.798 E.01376
G1 X84.946 Y64.357 E.26768
G1 X94.66 Y64.357 E.42748
G1 X92.284 Y69.694 E.2571
G1 X92.154 Y70.099 E.01868
G1 X92.199 Y70.453 E.01573
G1 X92.363 Y70.728 E.01409
G1 X92.644 Y70.934 E.01534
G1 X92.986 Y71.007 E.01537
G1 X124.816 Y71.007 E1.40069
G1 X122.223 Y76.832 E.28057
M73 P3 R40
M73 P3 R40
G1 X122.15 Y77.17 E.01523
G1 X122.207 Y77.475 E.01366
G1 X122.371 Y77.737 E.01358
G1 X122.65 Y77.937 E.01512
G1 X122.986 Y78.007 E.01509
G1 X137.527 Y78.007 E.6399
G1 X137.853 Y77.941 E.01461
G1 X138.094 Y77.786 E.01262
G1 X138.29 Y77.513 E.01481
G1 X138.363 Y77.153 E.01616
G1 X138.275 Y76.798 E.01608
G1 X135.379 Y71.007 E.2849
G1 X143.493 Y71.007 E.35703
G1 X143.493 Y87.849 E.74114
G1 X143.603 Y88.179 E.01529
G1 X143.817 Y88.425 E.01435
G1 X144.099 Y88.567 E.01388
G1 X144.401 Y88.596 E.01338
G1 X144.668 Y88.527 E.01214
G1 X150.143 Y86.09 E.26371
G1 X150.143 Y95.804 E.42748
G1 X144.702 Y93.084 E.26768
G2 X144.293 Y92.996 I-.374 J.747 E.01861
G1 X143.937 Y93.093 E.01623
G1 X143.733 Y93.246 E.01124
G1 X143.566 Y93.49 E.01303
G1 X143.493 Y93.824 E.01503
G1 X143.493 Y98.993 E.22746
G1 X138.331 Y98.993 E.22714
G1 X137.972 Y99.051 E.01601
G1 X137.702 Y99.224 E.01413
G1 X137.504 Y99.516 E.01552
G1 X137.443 Y99.829 E.01401
G1 X137.443 Y103.352 E.15505
G1 X137.603 Y103.713 E.01738
G1 X137.805 Y103.91 E.01243
;WIDTH:0.622713
G1 X138.279 Y104.068 E.02285
G1 X143.482 Y104.068 E.2383
G1 X143.482 Y104.648 E.02655
G1 X138.279 Y104.648 E.2383
G1 X137.805 Y104.807 E.02285
;WIDTH:0.599999
G1 X137.603 Y105.004 E.01243
G1 X137.493 Y105.21 E.01027
G1 X137.443 Y105.546 E.01496
G1 X137.443 Y108.904 E.14778
G1 X137.523 Y109.245 E.0154
G1 X137.796 Y109.571 E.01872
G1 X138.279 Y109.723 E.02225
;WIDTH:0.597715
G1 X143.494 Y109.723 E.22857
G1 X143.494 Y110.277 E.02431
G1 X138.279 Y110.277 E.22857
;WIDTH:0.599999
G1 X137.796 Y110.429 E.02225
G1 X137.596 Y110.629 E.01244
G1 X137.491 Y110.833 E.01011
G1 X137.443 Y111.112 E.01245
G1 X137.443 Y114.517 E.14985
G1 X137.523 Y114.862 E.01557
G1 X137.797 Y115.188 E.01873
;WIDTH:0.622713
G1 X138.279 Y115.352 E.02331
G1 X143.482 Y115.352 E.2383
G1 X143.482 Y115.932 E.02655
G1 X138.279 Y115.932 E.2383
G1 X137.797 Y116.096 E.02331
;WIDTH:0.599999
G1 X137.597 Y116.295 E.01244
G1 X137.491 Y116.5 E.01011
G1 X137.443 Y116.779 E.01246
G1 X137.443 Y120.171 E.14931
G1 X137.483 Y120.427 E.0114
G1 X137.555 Y120.495 E.00433
;WIDTH:0.559732
G1 X137.627 Y120.562 E.00401
;WIDTH:0.519464
G1 X137.699 Y120.629 E.0037
;WIDTH:0.479197
G1 X137.77 Y120.696 E.00339
;WIDTH:0.438929
G1 X137.842 Y120.763 E.00308
;WIDTH:0.444575
G1 X137.988 Y120.834 E.00513
;WIDTH:0.490489
G1 X138.133 Y120.905 E.00572
;WIDTH:0.536403
G1 X138.279 Y120.975 E.0063
;WIDTH:0.568201
G1 X140.339 Y120.991 E.08549
;WIDTH:0.599999
G2 X143.493 Y121.007 I2.607 J-204.357 E.1388
G1 X143.493 Y123.871 E.12601
G2 X140.06 Y122.172 I-111.781 J221.583 E.16854
;WIDTH:0.568201
G1 X138.21 Y121.265 E.08549
;WIDTH:0.536403
G1 X138.072 Y121.222 E.00564
;WIDTH:0.488251
G1 X137.934 Y121.18 E.00509
;WIDTH:0.440098
G1 X137.795 Y121.138 E.00454
;WIDTH:0.433556
G1 X137.675 Y121.09 E.00399
;WIDTH:0.475167
G1 X137.555 Y121.042 E.00442
;WIDTH:0.516778
G1 X137.435 Y120.994 E.00484
;WIDTH:0.558389
G1 X137.315 Y120.946 E.00527
;WIDTH:0.599999
G1 X137.195 Y120.898 E.00569
G1 X136.949 Y120.978 E.0114
G1 X136.719 Y121.151 E.01263
G1 X136.552 Y121.413 E.01368
G1 X136.493 Y121.723 E.01388
G1 X136.493 Y136.264 E.6399
G1 X136.55 Y136.568 E.0136
G1 X136.731 Y136.849 E.01471
G1 X137.002 Y137.033 E.01442
G1 X137.329 Y137.1 E.01466
G1 X137.668 Y137.027 E.01529
G1 X143.493 Y134.434 E.28057
G1 X143.493 Y148.993 E.64067
G1 X133.081 Y148.993 E.45817
G1 X132.74 Y149.066 E.01537
G1 X132.458 Y149.272 E.01534
G1 X132.295 Y149.547 E.01409
G1 X132.249 Y149.901 E.01573
G1 X132.334 Y150.202 E.01376
G1 X135.054 Y155.643 E.26768
G1 X125.34 Y155.643 E.42749
G1 X127.716 Y150.306 E.2571
M73 P4 R40
M73 P4 R40
G1 X127.846 Y149.901 E.01868
G1 X127.801 Y149.547 E.01573
G1 X127.637 Y149.272 E.01409
G1 X127.356 Y149.066 E.01534
G1 X127.014 Y148.993 E.01537
G1 X95.184 Y148.993 E1.40069
G1 X97.777 Y143.168 E.28057
M73 P4 R39
M73 P4 R39
G1 X97.85 Y142.83 E.01523
G1 X97.793 Y142.525 E.01366
G1 X97.629 Y142.263 E.01358
G1 X97.35 Y142.063 E.01512
G1 X97.014 Y141.993 E.01509
G1 X82.473 Y141.993 E.6399
G1 X82.147 Y142.059 E.01461
G1 X81.906 Y142.214 E.01262
G1 X81.71 Y142.487 E.01481
G1 X81.637 Y142.847 E.01616
G1 X81.725 Y143.202 E.01608
G1 X84.621 Y148.993 E.2849
G1 X76.507 Y148.993 E.35703
G1 X76.507 Y132.151 E.74114
G1 X76.397 Y131.821 E.01529
G1 X76.183 Y131.575 E.01435
G1 X75.901 Y131.433 E.01388
G1 X75.599 Y131.404 E.01338
G1 X75.332 Y131.473 E.01214
G1 X69.857 Y133.91 E.26371
G1 X69.857 Y124.196 E.42748
G1 X75.298 Y126.916 E.26768
G2 X75.707 Y127.004 I.374 J-.747 E.01861
G1 X76.063 Y126.907 E.01623
G1 X76.267 Y126.754 E.01124
G1 X76.434 Y126.51 E.01303
G1 X76.507 Y126.169 E.01535
G1 X76.507 Y121.007 E.22714
G1 X81.669 Y121.007 E.22714
G1 X82.028 Y120.949 E.01601
G1 X82.298 Y120.776 E.01413
G1 X82.496 Y120.484 E.01552
G1 X82.557 Y120.171 E.01401
G1 X82.557 Y116.648 E.15505
G1 X82.397 Y116.287 E.01738
G1 X82.195 Y116.09 E.01243
;WIDTH:0.622713
G1 X81.721 Y115.932 E.02285
G1 X76.518 Y115.932 E.2383
G1 X76.518 Y115.352 E.02655
G1 X81.721 Y115.352 E.2383
G1 X82.195 Y115.193 E.02285
;WIDTH:0.599999
G1 X82.397 Y114.996 E.01243
G1 X82.507 Y114.79 E.01027
G1 X82.557 Y114.454 E.01496
G1 X82.557 Y111.096 E.14778
G1 X82.477 Y110.755 E.0154
G1 X82.204 Y110.429 E.01872
G1 X81.813 Y110.306 E.01804
G1 X82 Y111.065 F9000
;TYPE:Outer wall
G1 F600
G1 X81.882 Y110.884 E.00949
G1 X81.721 Y110.833 E.00742
G1 X75.95 Y110.833 E.25397
G1 X75.95 Y109.167 E.07334
G1 X81.721 Y109.167 E.25397
G1 X81.882 Y109.116 E.00742
G1 X81.949 Y109.049 E.00415
G1 X82 Y108.888 E.00743
G1 X82 Y105.448 E.15136
G1 X81.882 Y105.268 E.0095
G1 X81.721 Y105.217 E.00742
G1 X75.95 Y105.217 E.25397
G1 X75.95 Y103.5 E.07554
G1 X81.721 Y103.5 E.25397
G1 X81.882 Y103.449 E.00742
G1 X81.949 Y103.382 E.00415
G1 X82 Y103.224 E.00732
G2 X81.987 Y99.743 I-121.319 J-1.274 E.15319
