;TIME:534.26
;Filament used:0.52556m
;Layer height:0.200
; HEADER_BLOCK_START
; generated by Creality_Print V6.0.5.1840 on 2025-06-24 at 18:57:03
; total layer number: 46
; filament_density: 1.24
; filament_diameter: 1.75
; max_z_height: 9.20
; HEADER_BLOCK_END

; MINX = 102.50
; MINY = 98.95
; MINZ = 0.00
; MAXX = 117.50
; MAXY = 113.35
; MAXZ = 9.19

; THUMBNAIL_BLOCK_START

;
; THUMBNAIL_BLOCK_END

; THUMBNAIL_BLOCK_START

;
; THUMBNAIL_BLOCK_END

; external perimeters extrusion width = 0.42mm
; perimeters extrusion width = 0.45mm
; infill extrusion width = 0.45mm
; solid infill extrusion width = 0.42mm
; top infill extrusion width = 0.42mm
; support material extrusion width = 0.40mm
; first layer extrusion width = 0.60mm

; external perimeters extrusion width = 0.42mm
; perimeters extrusion width = 0.45mm
; infill extrusion width = 0.45mm
; solid infill extrusion width = 0.42mm
; top infill extrusion width = 0.42mm
; support material extrusion width = 0.40mm
; first layer extrusion width = 0.60mm

; EXECUTABLE_BLOCK_START
M73 P0 R8
M201 X5000 Y5000 Z500 E5000
M203 X500 Y500 Z30 E100
M204 P5000 R2500 T5000 ; sets acceleration (P, T) and retract acceleration (R), mm/sec^2
M205 X10.00 Y10.00 Z0.40 E5.00 ; sets the jerk limits, mm/sec
;TYPE:Custom
M220 S100 ;Reset Feedrate 
M221 S100 ;Reset Flowrate 
 
M140 S75 ;Set final bed temp 
G28 ;Home 
 
G92 E0 ;Reset Extruder 
G1 Z2.0 F3000 ;Move Z Axis up 
M104 S200 ;Set final nozzle temp 
G1 X-2.1 Y20 Z0.28 F5000.0 ;Move to start position 
M190 S75 ;Wait for bed temp to stabilize 
M109 S200 ;Wait for nozzle temp to stabilize 
G1 X-2.1 Y145.0 Z0.28 F1500.0 E15 ;Draw the first line 
G1 X-2.4 Y145.0 Z0.28 F5000.0 ;Move to side a little 
M73 P1 R8
M73 P1 R8
G1 X-2.4 Y20 Z0.28 F1500.0 E30 ;Draw the second line 
G92 E0  ;Reset Extruder 
G1 E-1.0000 F1800 ;Retract a bit 
G1 Z2.0 F3000 ;Move Z Axis up 
G1 E0.0000 F1800
G90
G21
M83 ; use relative distances for extrusion
" "
G1 E-1.6 F2400
M106 S0
;LAYER_CHANGE
;Z:0.2
;HEIGHT:0.2
;BEFORE_LAYER_CHANGE
;0.2
G92 E0

;_SET_FAN_SPEED_CHANGING_LAYER
M204 P125
M205 X10 Y10
; printing object Porta Tubo id:4805512764304916479 copy 0
M204 T125
G1 Z.4 F9000
G1 X104.064 Y110.802
M73 P2 R8
M73 P2 R8
G1 Z.2
G1 E1.6 F1800
;TYPE:Inner wall
;WIDTH:0.599999
G1 F600
G1 X104.064 Y108.41 E.10527
G1 X115.936 Y108.41 E.52242
G1 X115.936 Y111.59 E.13994
G1 X104.064 Y111.59 E.52242
G1 X104.064 Y110.842 E.03291
G1 X103.507 Y111.547 F9000
G1 F600
M73 P3 R8
M73 P3 R8
G1 X103.507 Y107.853 E.16256
G1 X116.493 Y107.853 E.57145
G1 X116.493 Y112.147 E.18897
G1 X103.507 Y112.147 E.57145
G1 X103.507 Y111.587 E.02464
G1 E-1.6 F2400
;WIPE_START
G1 F9000
G1 X103.507 Y109.587
;WIPE_END
G1 X102.95 Y112.704 Z.6
G1 Z.2
G1 E1.6 F1800
;TYPE:Outer wall
G1 F600
G1 X102.95 Y107.296 E.238
G1 X117.05 Y107.296 E.62047
G1 X117.05 Y112.704 E.238
M73 P4 R8
M73 P4 R8
G1 X102.99 Y112.704 E.61871
G1 E-1.6 F2400
;WIPE_START
G1 F9000
G1 X102.975 Y110.704
;WIPE_END
G1 Z.6
G1 X105.365 Y111.451
G1 Z.6
G1 Z.2
G1 E1.6 F1800
;TYPE:Bottom surface
;WIDTH:0.616699
G1 F1200
G1 X104.454 Y110.54 E.05838
G1 X104.454 Y109.729 E.03678
G1 X105.926 Y111.2 E.09432
G1 X106.737 Y111.2 E.03678
G1 X104.454 Y108.917 E.14633
G1 X104.454 Y108.8 E.00531
G1 X105.148 Y108.8 E.03147
G1 X107.548 Y111.2 E.15384
G1 X108.36 Y111.2 E.03678
G1 X105.96 Y108.8 E.15384
G1 X106.771 Y108.8 E.03678
G1 X109.171 Y111.2 E.15384
G1 X109.983 Y111.2 E.03678
G1 X107.583 Y108.8 E.15384
G1 X108.394 Y108.8 E.03678
G1 X110.794 Y111.2 E.15384
G1 X111.606 Y111.2 E.03678
G1 X109.206 Y108.8 E.15384
G1 X110.017 Y108.8 E.03678
M73 P5 R8
M73 P5 R8
G1 X112.417 Y111.2 E.15384
G1 X113.229 Y111.2 E.03678
G1 X110.828 Y108.8 E.15384
G1 X111.64 Y108.8 E.03678
G1 X114.04 Y111.2 E.15384
G1 X114.851 Y111.2 E.03678
G1 X112.451 Y108.8 E.15384
G1 X113.263 Y108.8 E.03678
G1 X115.546 Y111.083 E.14634
G1 X115.546 Y110.272 E.03678
G1 X114.074 Y108.8 E.09433
G1 X114.886 Y108.8 E.03678
G1 X115.797 Y109.711 E.05838
; stop printing object Porta Tubo id:4805512764304916479 copy 0
; printing object Porta Tubo id:18446744070465555623 copy 0
G1 E-1.6 F2400
;WIPE_START
G1 F9000
G1 X114.886 Y108.8
G1 X114.174 Y108.8
;WIPE_END
G1 X107.525 Y105.052 Z.6
G1 X104.064 Y103.101 Z.6
G1 Z.2
G1 E1.6 F1800
;TYPE:Inner wall
;WIDTH:0.599999
G1 F600
G1 X104.064 Y100.709 E.10527
G1 X115.936 Y100.709 E.52242
G1 X115.936 Y103.889 E.13994
G1 X104.064 Y103.889 E.52242
G1 X104.064 Y103.141 E.03291
M73 P6 R8
M73 P6 R8
G1 X103.507 Y103.846 F9000
G1 F600
G1 X103.507 Y100.152 E.16256
G1 X116.493 Y100.152 E.57145
G1 X116.493 Y104.446 E.18897
G1 X103.507 Y104.446 E.57145
G1 X103.507 Y103.886 E.02464
G1 E-1.6 F2400
;WIPE_START
G1 F9000
G1 X103.507 Y101.886
;WIPE_END
G1 X102.95 Y105.003 Z.6
G1 Z.2
G1 E1.6 F1800
;TYPE:Outer wall
G1 F600
G1 X102.95 Y99.595 E.238
G1 X117.05 Y99.595 E.62047
G1 X117.05 Y105.003 E.238
M73 P7 R8
M73 P7 R8
G1 X102.99 Y105.003 E.61871
G1 E-1.6 F2400
;WIPE_START
G1 F9000
G1 X102.975 Y103.003
;WIPE_END
G1 X105.365 Y103.75 Z.6
G1 Z.2
G1 E1.6 F1800
;TYPE:Bottom surface
;WIDTH:0.616699
G1 F1200
G1 X104.454 Y102.839 E.05838
G1 X104.454 Y102.028 E.03678
G1 X105.926 Y103.499 E.09432
G1 X106.737 Y103.499 E.03678
G1 X104.454 Y101.216 E.14633
G1 X104.454 Y101.099 E.00531
G1 X105.148 Y101.099 E.03147
G1 X107.548 Y103.499 E.15384
G1 X108.36 Y103.499 E.03678
G1 X105.96 Y101.099 E.15384
G1 X106.771 Y101.099 E.03678
G1 X109.171 Y103.499 E.15384
G1 X109.983 Y103.499 E.03678
G1 X107.583 Y101.099 E.15384
G1 X108.394 Y101.099 E.03678
M73 P8 R8
M73 P8 R8
G1 X110.794 Y103.499 E.15384
G1 X111.606 Y103.499 E.03678
G1 X109.206 Y101.099 E.15384
G1 X110.017 Y101.099 E.03678
G1 X112.417 Y103.499 E.15384
G1 X113.229 Y103.499 E.03678
G1 X110.828 Y101.099 E.15384
G1 X111.64 Y101.099 E.03678
G1 X114.04 Y103.499 E.15384
G1 X114.851 Y103.499 E.03678
G1 X112.451 Y101.099 E.15384
G1 X113.263 Y101.099 E.03678
G1 X115.546 Y103.382 E.14634
G1 X115.546 Y102.571 E.03678
G1 X114.074 Y101.099 E.09433
G1 X114.886 Y101.099 E.03678
G1 X115.797 Y102.01 E.05838
; stop printing object Porta Tubo id:18446744070465555623 copy 0
;TIME_ELAPSED:44.895615

;LAYER_CHANGE
;Z:0.4
;HEIGHT:0.2
;BEFORE_LAYER_CHANGE
;0.4
G92 E0

G1 E-1.6 F2400
;WIPE_START
G1 F9000
G1 X114.886 Y101.099
G1 X114.174 Y101.099
;WIPE_END
;_SET_FAN_SPEED_CHANGING_LAYER
M204 P2500
; printing object Porta Tubo id:4805512764304916479 copy 0
M204 T2500
G1 X108.73 Y106.449 Z.6
G1 X103.509 Y111.58 Z.6
G1 Z.4
G1 E1.6 F1800
M204 P2000
;TYPE:Inner wall
;WIDTH:0.449999
G1 F5400
G1 X103.509 Y107.855 E.11978
G1 X116.491 Y107.855 E.41744
G1 X116.491 Y112.145 E.13795
G1 X103.509 Y112.145 E.41744
G1 X103.509 Y111.62 E.01689
G1 X103.102 Y112.102 F9000
G1 F5400
G1 X103.102 Y107.448 E.14966
G1 X116.898 Y107.448 E.44362
G1 X116.898 Y112.552 E.16413
G1 X103.102 Y112.552 E.44362
G1 X103.102 Y112.142 E.01318
G1 X102.71 Y112.944 F9000
M204 P1000
;TYPE:Outer wall
;WIDTH:0.419999
G1 F2400
G1 X102.71 Y107.056 E.17539
G1 X117.29 Y107.056 E.43429
G1 X117.29 Y112.944 E.17539
G1 X102.75 Y112.944 E.4331
G1 E-1.6
;WIPE_START
G1 F9000
G1 X102.736 Y110.944
;WIPE_END
G1 Z.8
G1 X103.897 Y108.184
G1 Z.8
G1 Z.4
G1 E1.6 F1800
M204 P2500
;TYPE:Internal solid infill
;WIDTH:0.38292
G1 F10800
G1 X103.833 Y108.221 E.00198
G1 X103.898 Y108.256 E.00198
G1 X115.532 Y112.045 F9000
;WIDTH:0.4226
G1 F10800
M73 P9 R8
M73 P9 R8
G1 X116.221 Y111.356 E.02923
G1 X116.221 Y110.819 E.0161
G1 X115.165 Y111.875 E.04481
G1 X114.628 Y111.875 E.0161
G1 X116.221 Y110.282 E.06758
G1 X116.221 Y109.745 E.0161
G1 X114.091 Y111.875 E.09036
G1 X113.554 Y111.875 E.0161
G1 X116.221 Y109.208 E.11313
G1 X116.221 Y108.671 E.0161
G1 X113.017 Y111.875 E.13591
G1 X112.48 Y111.875 E.0161
G1 X116.221 Y108.125 E.15887
G1 X115.693 Y108.125 E.01583
G1 X111.943 Y111.875 E.15906
G1 X111.406 Y111.875 E.0161
G1 X115.156 Y108.125 E.15906
G1 X114.619 Y108.125 E.0161
G1 X110.869 Y111.875 E.15906
G1 X110.332 Y111.875 E.0161
G1 X114.082 Y108.125 E.15906
G1 X113.545 Y108.125 E.0161
G1 X109.795 Y111.875 E.15906
G1 X109.258 Y111.875 E.0161
G1 X113.008 Y108.125 E.15906
G1 X112.471 Y108.125 E.0161
G1 X108.721 Y111.875 E.15906
G1 X108.184 Y111.875 E.0161
G1 X111.934 Y108.125 E.15906
G1 X111.397 Y108.125 E.0161
G1 X107.647 Y111.875 E.15906
G1 X107.11 Y111.875 E.0161
G1 X110.86 Y108.125 E.15906
G1 X110.323 Y108.125 E.0161
G1 X106.573 Y111.875 E.15906
G1 X106.036 Y111.875 E.0161
G1 X109.786 Y108.125 E.15906
G1 X109.25 Y108.125 E.0161
G1 X105.499 Y111.875 E.15906
G1 X104.962 Y111.875 E.0161
G1 X108.713 Y108.125 E.15906
G1 X108.176 Y108.125 E.0161
G1 X104.426 Y111.875 E.15906
G1 X103.889 Y111.875 E.0161
G1 X107.639 Y108.125 E.15906
G1 X107.102 Y108.125 E.0161
G1 X103.779 Y111.448 E.14093
G1 X103.779 Y110.911 E.0161
G1 X106.565 Y108.125 E.11816
G1 X106.028 Y108.125 E.0161
G1 X103.779 Y110.374 E.09538
G1 X103.779 Y109.837 E.0161
G1 X105.491 Y108.125 E.07261
G1 X104.954 Y108.125 E.0161
G1 X103.779 Y109.3 E.04983
G1 X103.779 Y108.763 E.0161
G1 X104.587 Y107.955 E.03425
G1 X116.181 Y111.777 F9000
;WIDTH:0.38292
G1 F10800
G1 X116.117 Y111.813 E.00198
G1 X116.182 Y111.848 E.00198
; stop printing object Porta Tubo id:4805512764304916479 copy 0
; printing object Porta Tubo id:18446744070465555623 copy 0
G1 E-1.6 F2400
;WIPE_START
G1 F9000
G1 X116.117 Y111.813
G1 X116.181 Y111.777
;WIPE_END
G1 X109.703 Y107.74 Z.8
G1 X103.509 Y103.879 Z.8
G1 Z.4
G1 E1.6 F1800
M204 P2000
;TYPE:Inner wall
;WIDTH:0.449999
G1 F5400
G1 X103.509 Y100.154 E.11978
G1 X116.491 Y100.154 E.41744
G1 X116.491 Y104.444 E.13795
G1 X103.509 Y104.444 E.41744
G1 X103.509 Y103.919 E.01689
G1 X103.102 Y104.401 F9000
G1 F5400
G1 X103.102 Y99.747 E.14966
G1 X116.898 Y99.747 E.44362
G1 X116.898 Y104.851 E.16413
G1 X103.102 Y104.851 E.44362
G1 X103.102 Y104.441 E.01318
G1 X102.71 Y105.243 F9000
M204 P1000
;TYPE:Outer wall
;WIDTH:0.419999
G1 F2400
G1 X102.71 Y99.355 E.17539
G1 X117.29 Y99.355 E.43429
G1 X117.29 Y105.243 E.17539
G1 X102.75 Y105.243 E.4331
G1 E-1.6
M73 P10 R8
;WIPE_START
M73 P10 R8
G1 F9000
G1 X102.736 Y103.243
;WIPE_END
G1 X103.897 Y100.483 Z.8
G1 Z.4
G1 E1.6 F1800
M204 P2500
;TYPE:Internal solid infill
;WIDTH:0.38292
G1 F10800
G1 X103.833 Y100.52 E.00198
G1 X103.898 Y100.555 E.00198
G1 X115.532 Y104.344 F9000
;WIDTH:0.4226
G1 F10800
G1 X116.221 Y103.655 E.02923
G1 X116.221 Y103.118 E.0161
G1 X115.165 Y104.174 E.04481
G1 X114.628 Y104.174 E.0161
G1 X116.221 Y102.581 E.06758
G1 X116.221 Y102.044 E.0161
G1 X114.091 Y104.174 E.09036
G1 X113.554 Y104.174 E.0161
G1 X116.221 Y101.507 E.11313
G1 X116.221 Y100.97 E.0161
G1 X113.017 Y104.174 E.13591
G1 X112.48 Y104.174 E.0161
G1 X116.221 Y100.424 E.15887
G1 X115.693 Y100.424 E.01583
G1 X111.943 Y104.174 E.15906
G1 X111.406 Y104.174 E.0161
M73 P10 R7
M73 P10 R7
G1 X115.156 Y100.424 E.15906
G1 X114.619 Y100.424 E.0161
G1 X110.869 Y104.174 E.15906
G1 X110.332 Y104.174 E.0161
G1 X114.082 Y100.424 E.15906
G1 X113.545 Y100.424 E.0161
G1 X109.795 Y104.174 E.15906
G1 X109.258 Y104.174 E.0161
G1 X113.008 Y100.424 E.15906
G1 X112.471 Y100.424 E.0161
G1 X108.721 Y104.174 E.15906
G1 X108.184 Y104.174 E.0161
G1 X111.934 Y100.424 E.15906
G1 X111.397 Y100.424 E.0161
G1 X107.647 Y104.174 E.15906
G1 X107.11 Y104.174 E.0161
G1 X110.86 Y100.424 E.15906
G1 X110.323 Y100.424 E.0161
G1 X106.573 Y104.174 E.15906
G1 X106.036 Y104.174 E.0161
G1 X109.786 Y100.424 E.15906
G1 X109.25 Y100.424 E.0161
G1 X105.499 Y104.174 E.15906
G1 X104.962 Y104.174 E.0161
G1 X108.713 Y100.424 E.15906
G1 X108.176 Y100.424 E.0161
G1 X104.426 Y104.174 E.15906
G1 X103.889 Y104.174 E.0161
G1 X107.639 Y100.424 E.15906
G1 X107.102 Y100.424 E.0161
G1 X103.779 Y103.747 E.14093
G1 X103.779 Y103.21 E.0161
G1 X106.565 Y100.424 E.11816
G1 X106.028 Y100.424 E.0161
G1 X103.779 Y102.673 E.09538
G1 X103.779 Y102.136 E.0161
G1 X105.491 Y100.424 E.07261
G1 X104.954 Y100.424 E.0161
G1 X103.779 Y101.599 E.04983
G1 X103.779 Y101.062 E.0161
G1 X104.587 Y100.254 E.03425
G1 X116.181 Y104.076 F9000
;WIDTH:0.38292
G1 F10800
G1 X116.117 Y104.112 E.00198
G1 X116.182 Y104.147 E.00198
; stop printing object Porta Tubo id:18446744070465555623 copy 0
;TIME_ELAPSED:57.067493

;LAYER_CHANGE
;Z:0.6
;HEIGHT:0.2
;BEFORE_LAYER_CHANGE
;0.6
G92 E0

G1 E-1.6 F2400
;WIPE_START
G1 F9000
G1 X116.117 Y104.112
G1 X116.181 Y104.076
;WIPE_END
;_SET_FAN_SPEED_CHANGING_LAYER
; printing object Porta Tubo id:4805512764304916479 copy 0
G1 X109.613 Y107.965 Z.8
G1 X103.509 Y111.58 Z.8
G1 Z.6
G1 E1.6 F1800
M204 P2000
;TYPE:Inner wall
;WIDTH:0.449999
G1 F5400
G1 X103.509 Y107.855 E.11978
G1 X116.491 Y107.855 E.41744
G1 X116.491 Y112.145 E.13795
G1 X103.509 Y112.145 E.41744
G1 X103.509 Y111.62 E.01689
G1 X103.102 Y112.102 F9000
G1 F5400
G1 X103.102 Y107.448 E.14966
G1 X116.898 Y107.448 E.44362
G1 X116.898 Y112.552 E.16413
G1 X103.102 Y112.552 E.44362
G1 X103.102 Y112.142 E.01318
G1 X102.71 Y112.944 F9000
M204 P1000
;TYPE:Outer wall
;WIDTH:0.419999
G1 F2400
G1 X102.71 Y107.056 E.17539
G1 X117.29 Y107.056 E.43429
M73 P11 R7
M73 P11 R7
G1 X117.29 Y112.944 E.17539
G1 X102.75 Y112.944 E.4331
G1 E-1.6
;WIPE_START
G1 F9000
G1 X102.736 Y110.944
;WIPE_END
G1 Z1
G1 X103.897 Y111.742
G1 Z1
G1 Z.6
G1 E1.6 F1800
M204 P2500
;TYPE:Internal solid infill
;WIDTH:0.38292
G1 F10800
G1 X103.833 Y111.779 E.00198
G1 X103.898 Y111.813 E.00198
G1 X116.181 Y108.15 F9000
G1 F10800
G1 X116.117 Y108.187 E.00198
G1 X116.182 Y108.221 E.00198
G1 X116.391 Y108.814 F9000
;WIDTH:0.4226
G1 F10800
G1 X115.701 Y108.125 E.02923
G1 X115.165 Y108.125 E.0161
G1 X116.221 Y109.181 E.04481
G1 X116.221 Y109.718 E.0161
G1 X114.628 Y108.125 E.06758
G1 X114.091 Y108.125 E.0161
G1 X116.221 Y110.255 E.09036
G1 X116.221 Y110.792 E.0161
G1 X113.554 Y108.125 E.11313
G1 X113.017 Y108.125 E.0161
G1 X116.221 Y111.329 E.13591
G1 X116.221 Y111.866 E.0161
G1 X112.48 Y108.125 E.15868
G1 X111.943 Y108.125 E.0161
G1 X115.693 Y111.875 E.15906
G1 X115.156 Y111.875 E.0161
G1 X111.406 Y108.125 E.15906
G1 X110.869 Y108.125 E.0161
G1 X114.619 Y111.875 E.15906
G1 X114.082 Y111.875 E.0161
G1 X110.332 Y108.125 E.15906
G1 X109.795 Y108.125 E.0161
G1 X113.545 Y111.875 E.15906
G1 X113.008 Y111.875 E.0161
G1 X109.258 Y108.125 E.15906
G1 X108.721 Y108.125 E.0161
G1 X112.471 Y111.875 E.15906
G1 X111.934 Y111.875 E.0161
G1 X108.184 Y108.125 E.15906
G1 X107.647 Y108.125 E.0161
G1 X111.397 Y111.875 E.15906
G1 X110.86 Y111.875 E.0161
G1 X107.11 Y108.125 E.15906
G1 X106.573 Y108.125 E.0161
G1 X110.323 Y111.875 E.15906
G1 X109.786 Y111.875 E.0161
G1 X106.036 Y108.125 E.15906
G1 X105.499 Y108.125 E.0161
G1 X109.25 Y111.875 E.15906
G1 X108.713 Y111.875 E.0161
G1 X104.962 Y108.125 E.15906
G1 X104.426 Y108.125 E.0161
G1 X108.176 Y111.875 E.15906
G1 X107.639 Y111.875 E.0161
G1 X103.889 Y108.125 E.15906
G1 X103.779 Y108.125 E.00328
G1 X103.779 Y108.552 E.01282
G1 X107.102 Y111.875 E.14093
G1 X106.565 Y111.875 E.0161
G1 X103.779 Y109.089 E.11816
G1 X103.779 Y109.626 E.0161
G1 X106.028 Y111.875 E.09538
G1 X105.491 Y111.875 E.0161
G1 X103.779 Y110.163 E.07261
G1 X103.779 Y110.7 E.0161
G1 X104.954 Y111.875 E.04983
G1 X104.417 Y111.875 E.0161
G1 X103.609 Y111.067 E.03425
; stop printing object Porta Tubo id:4805512764304916479 copy 0
; printing object Porta Tubo id:18446744070465555623 copy 0
G1 E-1.6 F2400
;WIPE_START
G1 F9000
G1 X104.417 Y111.875
G1 X104.954 Y111.875
G1 X104.727 Y111.648
;WIPE_END
G1 X103.545 Y104.108 Z1
G1 X103.509 Y103.879 Z1
G1 Z.6
G1 E1.6 F1800
M204 P2000
;TYPE:Inner wall
;WIDTH:0.449999
G1 F5400
G1 X103.509 Y100.154 E.11978
G1 X116.491 Y100.154 E.41744
G1 X116.491 Y104.444 E.13795
G1 X103.509 Y104.444 E.41744
G1 X103.509 Y103.919 E.01689
G1 X103.102 Y104.401 F9000
G1 F5400
G1 X103.102 Y99.747 E.14966
G1 X116.898 Y99.747 E.44362
G1 X116.898 Y104.851 E.16413
M73 P12 R7
M73 P12 R7
G1 X103.102 Y104.851 E.44362
G1 X103.102 Y104.441 E.01318
G1 X102.71 Y105.243 F9000
M204 P1000
;TYPE:Outer wall
;WIDTH:0.419999
G1 F2400
G1 X102.71 Y99.355 E.17539
G1 X117.29 Y99.355 E.43429
G1 X117.29 Y105.243 E.17539
G1 X102.75 Y105.243 E.4331
G1 E-1.6
;WIPE_START
G1 F9000
G1 X102.736 Y103.243
;WIPE_END
G1 X103.897 Y104.041 Z1
G1 Z.6
G1 E1.6 F1800
M204 P2500
;TYPE:Internal solid infill
;WIDTH:0.38292
G1 F10800
