;TIME:3060.33
;Filament used:5.12788m
;Layer height:0.200
; HEADER_BLOCK_START
; generated by Creality_Print V6.0.5.1840 on 2025-07-22 at 19:29:04
; total layer number: 35
; filament_density: 1.24
; filament_diameter: 1.75
; max_z_height: 7.00
; HEADER_BLOCK_END

; MINX = 68.85
; MINY = 63.35
; MINZ = 0.00
; MAXX = 151.15
; MAXY = 156.65
; MAXZ = 7.00

; THUMBNAIL_BLOCK_START

;
; THUMBNAIL_BLOCK_END

; THUMBNAIL_BLOCK_START

;
; THUMBNAIL_BLOCK_END

; external perimeters extrusion width = 0.42mm
; perimeters extrusion width = 0.45mm
; infill extrusion width = 0.45mm
; solid infill extrusion width = 0.42mm
; top infill extrusion width = 0.42mm
; support material extrusion width = 0.40mm
; first layer extrusion width = 0.60mm

; EXECUTABLE_BLOCK_START
M73 P0 R51
M201 X5000 Y5000 Z500 E5000
M203 X500 Y500 Z30 E100
M204 P5000 R2500 T5000 ; sets acceleration (P, T) and retract acceleration (R), mm/sec^2
M205 X10.00 Y10.00 Z0.40 E5.00 ; sets the jerk limits, mm/sec
;TYPE:Custom
M220 S100 ;Reset Feedrate 
M221 S100 ;Reset Flowrate 
 
M140 S75 ;Set final bed temp 
G28 ;Home 
 
G92 E0 ;Reset Extruder 
G1 Z2.0 F3000 ;Move Z Axis up 
M104 S200 ;Set final nozzle temp 
G1 X-2.1 Y20 Z0.28 F5000.0 ;Move to start position 
M190 S75 ;Wait for bed temp to stabilize 
M109 S200 ;Wait for nozzle temp to stabilize 
G1 X-2.1 Y145.0 Z0.28 F1500.0 E15 ;Draw the first line 
G1 X-2.4 Y145.0 Z0.28 F5000.0 ;Move to side a little 
M73 P0 R50
M73 P0 R50
G1 X-2.4 Y20 Z0.28 F1500.0 E30 ;Draw the second line 
G92 E0  ;Reset Extruder 
G1 E-1.0000 F1800 ;Retract a bit 
G1 Z2.0 F3000 ;Move Z Axis up 
G1 E0.0000 F1800
G90
G21
M83 ; use relative distances for extrusion
" "
G1 E-1.6 F2400
M106 S0
;LAYER_CHANGE
;Z:0.2
;HEIGHT:0.2
;BEFORE_LAYER_CHANGE
;0.2
G92 E0

;_SET_FAN_SPEED_CHANGING_LAYER
M204 P125
M205 X10 Y10
; printing object Top Cassa Armonica id:1705405847168 copy 0
M204 T125
G1 Z.4 F9000
G1 X136.886 Y102.497
G1 Z.2
G1 E1.6 F1800
;TYPE:Inner wall
;WIDTH:0.599999
G1 F600
G1 X136.886 Y103.221 E.03186
G1 X136.939 Y103.601 E.01687
G1 X137.142 Y104.027 E.02075
G1 X137.475 Y104.358 E.02067
G1 X137.142 Y104.69 E.02067
G1 X136.939 Y105.115 E.02075
G1 X136.886 Y105.49 E.01666
G1 X136.886 Y108.888 E.14952
G1 X136.939 Y109.267 E.01685
G1 X137.142 Y109.693 E.02074
G1 X137.449 Y110 E.01913
G1 X137.142 Y110.307 E.01913
G1 X136.939 Y110.733 E.02074
G1 X136.886 Y111.112 E.01685
G1 X136.886 Y114.454 E.14709
G1 X136.941 Y114.894 E.0195
G1 X137.152 Y115.324 E.02109
G1 X137.479 Y115.642 E.02003
G1 X137.152 Y115.959 E.02003
G1 X136.941 Y116.389 E.02109
G1 X136.886 Y116.779 E.0173
G1 X136.886 Y120.171 E.14931
G1 X136.952 Y120.594 E.01882
G1 X137.16 Y121.001 E.02011
G1 X137.446 Y121.288 E.01782
G1 X137.845 Y121.495 E.01983
G1 X138.279 Y121.564 E.0193
G1 X142.936 Y121.564 E.20495
G1 X142.936 Y126.169 E.20263
G1 X142.994 Y126.567 E.01769
G1 X143.168 Y126.939 E.01812
G1 X143.476 Y127.27 E.01988
G1 X143.945 Y127.508 E.02314
G1 X144.207 Y127.556 E.01172
G1 X144.604 Y127.534 E.01747
G1 X144.951 Y127.414 E.01619
G1 X149.586 Y125.097 E.22801
G1 X149.586 Y133.052 E.35007
G1 X145.032 Y131.025 E.21935
G1 X144.604 Y130.871 E.02004
G2 X143.945 Y130.897 I-.275 J1.365 E.02927
G1 X143.476 Y131.135 E.02314
G1 X143.168 Y131.465 E.01988
G1 X143.009 Y131.791 E.01598
G1 X142.936 Y132.236 E.01983
G1 X142.936 Y148.436 E.71288
G1 X136.281 Y148.436 E.29285
G1 X138.773 Y143.451 E.24523
G1 X138.899 Y143.069 E.01771
G1 X138.899 Y142.588 E.02118
G2 X138.653 Y142.008 I-1.372 J.241 E.02796
G1 X138.272 Y141.652 E.02294
G1 X137.874 Y141.48 E.01907
G1 X137.527 Y141.436 E.01539
G1 X123.763 Y141.436 E.60571
G1 X122.789 Y141.45 E.04287
G1 X122.39 Y141.57 E.01832
G1 X122.027 Y141.819 E.01936
G1 X121.767 Y142.154 E.01868
G1 X121.623 Y142.543 E.01826
G1 X121.604 Y143.003 E.02022
G1 X121.714 Y143.395 E.01793
G1 X123.958 Y148.436 E.24282
G1 X92.918 Y148.438 E1.36594
G1 X92.469 Y148.535 E.02022
G1 X92.077 Y148.773 E.02016
G1 X91.805 Y149.09 E.01836
G2 X91.599 Y149.95 I1.429 J.799 E.03942
G1 X91.714 Y150.395 E.02023
G1 X93.802 Y155.086 E.22596
G1 X85.847 Y155.086 E.35007
G1 X88.164 Y150.451 E.22801
G1 X88.29 Y150.072 E.01759
G1 X88.306 Y149.707 E.01607
G2 X87.957 Y148.901 I-1.554 J.193 E.0392
G1 X87.626 Y148.629 E.01886
G1 X87.293 Y148.487 E.01593
G1 X86.919 Y148.436 E.01661
G1 X77.064 Y148.436 E.43365
G1 X77.064 Y135.292 E.57841
G1 X82.105 Y137.536 E.24282
M73 P1 R50
M73 P1 R50
G1 X82.467 Y137.642 E.01657
G1 X82.78 Y137.653 E.01379
G1 X83.216 Y137.546 E.01975
G1 X83.574 Y137.324 E.01855
G1 X83.807 Y137.07 E.01518
G1 X83.994 Y136.701 E.01818
G1 X84.064 Y136.264 E.0195
G1 X84.064 Y122.481 E.60654
G1 X84.051 Y121.533 E.04171
G1 X83.922 Y121.109 E.01948
G1 X83.687 Y120.769 E.01821
G1 X83.304 Y120.482 E.02104
G1 X83.077 Y120.408 E.01052
G1 X83.114 Y120.171 E.01052
G1 X83.114 Y116.779 E.14931
G1 X83.061 Y116.399 E.01687
G1 X82.858 Y115.973 E.02075
G1 X82.525 Y115.642 E.02067
G1 X82.858 Y115.31 E.02067
G1 X83.061 Y114.885 E.02075
G1 X83.114 Y114.51 E.01666
G1 X83.114 Y111.112 E.14952
G1 X83.061 Y110.733 E.01685
G1 X82.858 Y110.307 E.02074
G1 X82.551 Y110 E.01913
G1 X82.858 Y109.693 E.01913
G1 X83.061 Y109.267 E.02074
G1 X83.114 Y108.888 E.01685
G1 X83.114 Y105.546 E.14709
G1 X83.059 Y105.106 E.0195
G1 X82.848 Y104.676 E.02109
G1 X82.521 Y104.358 E.02003
G1 X82.848 Y104.041 E.02003
G1 X83.059 Y103.611 E.02109
G1 X83.114 Y103.221 E.0173
G1 X83.114 Y99.829 E.14931
G1 X83.048 Y99.406 E.01882
G1 X82.84 Y98.999 E.02011
G1 X82.554 Y98.712 E.01782
G1 X82.155 Y98.505 E.01983
G1 X81.721 Y98.436 E.0193
G1 X77.064 Y98.436 E.20495
G1 X77.064 Y93.831 E.20263
G1 X77.006 Y93.433 E.01769
G1 X76.832 Y93.061 E.01812
G1 X76.524 Y92.73 E.01988
G1 X76.055 Y92.492 E.02314
G1 X75.793 Y92.444 E.01172
G1 X75.396 Y92.466 E.01747
G1 X75.049 Y92.586 E.01619
G1 X70.414 Y94.903 E.22801
G1 X70.414 Y86.948 E.35007
G1 X74.968 Y88.975 E.21935
G1 X75.396 Y89.129 E.02004
G2 X76.055 Y89.103 I.275 J-1.365 E.02927
G1 X76.524 Y88.865 E.02314
G1 X76.832 Y88.535 E.01988
G1 X76.991 Y88.209 E.01598
G1 X77.064 Y87.764 E.01983
G1 X77.064 Y71.564 E.71288
G1 X83.719 Y71.564 E.29285
G1 X81.227 Y76.549 E.24523
G1 X81.101 Y76.931 E.01771
G1 X81.101 Y77.412 E.02118
G2 X81.347 Y77.992 I1.372 J-.241 E.02796
G1 X81.728 Y78.348 E.02294
G1 X82.126 Y78.52 E.01907
G1 X82.473 Y78.564 E.01539
G1 X96.237 Y78.564 E.60571
G1 X97.211 Y78.55 E.04287
G1 X97.61 Y78.43 E.01832
G1 X97.973 Y78.181 E.01936
G1 X98.233 Y77.846 E.01868
G1 X98.377 Y77.457 E.01826
G1 X98.396 Y76.997 E.02022
G1 X98.286 Y76.605 E.01793
G1 X96.042 Y71.564 E.24282
G1 X127.082 Y71.562 E1.36594
G1 X127.531 Y71.465 E.02022
G1 X127.923 Y71.227 E.02016
G1 X128.195 Y70.91 E.01836
G2 X128.401 Y70.05 I-1.429 J-.799 E.03942
G1 X128.286 Y69.605 E.02023
G1 X126.198 Y64.914 E.22596
G1 X134.153 Y64.914 E.35007
G1 X131.836 Y69.549 E.22801
G1 X131.71 Y69.928 E.01759
G1 X131.694 Y70.293 E.01607
G2 X132.043 Y71.099 I1.554 J-.193 E.0392
G1 X132.374 Y71.371 E.01886
G1 X132.707 Y71.513 E.01593
G1 X133.081 Y71.564 E.01661
G1 X142.936 Y71.564 E.43365
G1 X142.936 Y84.708 E.57841
G1 X137.895 Y82.464 E.24282
G1 X137.533 Y82.358 E.01657
G1 X137.22 Y82.347 E.01379
G1 X136.784 Y82.454 E.01975
G1 X136.426 Y82.676 E.01855
G1 X136.193 Y82.93 E.01518
G1 X136.006 Y83.299 E.01818
G1 X135.936 Y83.736 E.0195
G1 X135.936 Y97.519 E.60654
G1 X135.949 Y98.467 E.04171
G1 X136.078 Y98.891 E.01948
G1 X136.313 Y99.231 E.01821
G1 X136.696 Y99.518 E.02104
G1 X136.923 Y99.592 E.01052
G1 X136.886 Y99.829 E.01052
G1 X136.886 Y102.457 E.11568
G1 E-1.6 F2400
;WIPE_START
G1 F9000
G1 X136.886 Y103.221
G1 X136.939 Y103.601
G1 X137.142 Y104.027
G1 X137.412 Y104.296
;WIPE_END
G1 X142.489 Y98.597 Z.6
G1 X142.807 Y98.24 Z.6
G1 Z.2
G1 E1.6 F1800
;WIDTH:0.858114
G1 F600
G1 X142.807 Y98.307 E.00427
G1 X140.673 Y98.307 E.13743
G1 X142.807 Y97.24 E.15365
G1 X142.807 Y98.2 E.06187
G1 E-1.6 F2400
;WIPE_START
G1 F9000
G1 X142.807 Y98.307
G1 X140.913 Y98.307
;WIPE_END
G1 X133.772 Y101 Z.6
G1 X77.193 Y122.337 Z.6
G1 Z.2
G1 E1.6 F1800
G1 F600
G1 X77.193 Y121.693 E.04147
G1 X79.327 Y121.693 E.13743
G1 X77.193 Y122.76 E.15365
G1 X77.193 Y122.377 E.02467
G1 E-1.6 F2400
;WIPE_START
G1 F9000
G1 X77.193 Y121.693
G1 X78.509 Y121.693
;WIPE_END
G1 X85.633 Y118.955 Z.6
G1 X138.452 Y98.65 Z.6
G1 Z.2
M73 P2 R49
M73 P2 R49
G1 E1.6 F1800
;WIDTH:0.599999
G1 F600
G1 X143.493 Y96.129 E.24799
G1 X143.493 Y98.993 E.12601
G1 X138.279 Y98.993 E.22946
G1 X138.213 Y99.029 E.00329
;WIDTH:0.558388
G1 X138.148 Y99.065 E.00305
;WIDTH:0.516777
G1 X138.082 Y99.102 E.0028
;WIDTH:0.475166
G1 X138.017 Y99.138 E.00255
;WIDTH:0.433555
G2 X137.858 Y99.254 I.208 J.452 E.00611
;WIDTH:0.475166
G1 X137.764 Y99.334 E.0042
;WIDTH:0.516777
G1 X137.67 Y99.413 E.0046
;WIDTH:0.558388
G1 X137.577 Y99.493 E.00501
;WIDTH:0.599999
G1 X137.483 Y99.573 E.00541
G1 X137.443 Y99.829 E.0114
G1 X137.443 Y103.237 E.15001
G1 X137.523 Y103.578 E.01541
G1 X137.797 Y103.904 E.01873
;WIDTH:0.622713
G1 X138.279 Y104.068 E.02331
G1 X143.482 Y104.068 E.2383
G1 X143.482 Y104.648 E.02655
G1 X138.279 Y104.648 E.2383
G1 X137.797 Y104.812 E.02331
;WIDTH:0.599999
G1 X137.597 Y105.012 E.01244
G1 X137.491 Y105.216 E.01011
G1 X137.443 Y105.546 E.01465
G1 X137.443 Y108.904 E.14778
G1 X137.523 Y109.245 E.0154
G1 X137.796 Y109.571 E.01872
G1 X138.279 Y109.723 E.02225
;WIDTH:0.597714
G1 X143.494 Y109.723 E.22857
G1 X143.494 Y110.277 E.02431
G1 X138.279 Y110.277 E.22857
;WIDTH:0.599999
G1 X137.796 Y110.429 E.02225
G1 X137.596 Y110.629 E.01244
G1 X137.491 Y110.833 E.01011
G1 X137.443 Y111.112 E.01245
G1 X137.443 Y114.635 E.15505
G1 X137.603 Y114.996 E.01738
G1 X137.805 Y115.193 E.01243
;WIDTH:0.622713
G1 X138.279 Y115.352 E.02285
G1 X143.482 Y115.352 E.2383
G1 X143.482 Y115.932 E.02655
G1 X138.279 Y115.932 E.2383
G1 X137.805 Y116.09 E.02285
;WIDTH:0.599999
G1 X137.603 Y116.287 E.01243
G1 X137.493 Y116.493 E.01027
G1 X137.443 Y116.779 E.01277
G1 X137.443 Y120.171 E.14931
G1 X137.492 Y120.454 E.01262
G1 X137.667 Y120.741 E.01481
G1 X137.932 Y120.932 E.01435
G1 X138.279 Y121.007 E.01561
G1 X143.493 Y121.007 E.22946
G1 X143.493 Y126.265 E.2314
G1 X143.603 Y126.583 E.01481
G1 X143.817 Y126.83 E.01435
G1 X144.099 Y126.972 E.01388
G1 X144.401 Y127.001 E.01338
G1 X144.702 Y126.916 E.01376
G1 X150.143 Y124.196 E.26768
G1 X150.143 Y133.91 E.42749
G1 X144.554 Y131.422 E.26923
G1 X144.293 Y131.401 E.0115
G1 X143.937 Y131.498 E.01623
G1 X143.733 Y131.65 E.01124
G1 X143.566 Y131.895 E.01303
G1 X143.493 Y132.236 E.01535
G1 X143.493 Y148.993 E.73739
G1 X135.379 Y148.993 E.35703
G1 X138.275 Y143.202 E.2849
G1 X138.363 Y142.847 E.01608
G1 X138.29 Y142.487 E.01616
G1 X138.094 Y142.214 E.01481
G1 X137.853 Y142.059 E.01262
G1 X137.527 Y141.993 E.01461
G1 X122.986 Y141.993 E.6399
G1 X122.673 Y142.054 E.01401
G1 X122.392 Y142.241 E.0149
G1 X122.207 Y142.525 E.01488
G1 X122.15 Y142.83 E.01366
G1 X122.223 Y143.168 E.01523
G1 X124.816 Y148.993 E.28057
G1 X92.986 Y148.993 E1.40069
G1 X92.644 Y149.066 E.01537
G1 X92.363 Y149.272 E.01534
G1 X92.199 Y149.547 E.01409
G1 X92.154 Y149.901 E.01573
G1 X92.223 Y150.168 E.01214
G1 X94.66 Y155.643 E.26371
G1 X84.946 Y155.643 E.42749
G1 X87.666 Y150.202 E.26768
G1 X87.751 Y149.901 E.01376
G1 X87.705 Y149.547 E.01573
G1 X87.542 Y149.272 E.01409
G1 X87.26 Y149.066 E.01534
G1 X86.919 Y148.993 E.01537
G1 X76.507 Y148.993 E.45817
G1 X76.507 Y134.434 E.64067
G1 X82.332 Y137.027 E.28057
G1 X82.645 Y137.099 E.01414
G1 X82.998 Y137.033 E.01581
G1 X83.269 Y136.849 E.01442
G1 X83.432 Y136.611 E.01268
G1 X83.507 Y136.264 E.01562
G1 X83.507 Y121.723 E.6399
G1 X83.466 Y121.465 E.01149
G1 X83.281 Y121.151 E.01605
G1 X83.051 Y120.978 E.01263
G1 X82.805 Y120.898 E.0114
G1 X82.685 Y120.946 E.00569
;WIDTH:0.558388
G1 X82.565 Y120.994 E.00527
;WIDTH:0.516777
G1 X82.445 Y121.042 E.00484
;WIDTH:0.475166
G1 X82.325 Y121.09 E.00441
;WIDTH:0.433555
G3 X82.119 Y121.158 I-.319 J-.622 E.00671
;WIDTH:0.475166
G1 X82.033 Y121.177 E.00301
;WIDTH:0.516777
G1 X81.947 Y121.197 E.0033
;WIDTH:0.558388
G1 X81.861 Y121.217 E.00359
;WIDTH:0.599999
G1 X81.776 Y121.236 E.00387
G1 X76.507 Y123.871 E.25921
G1 X76.507 Y121.007 E.12601
G1 X81.721 Y121.007 E.22946
G1 X81.787 Y120.971 E.00329
;WIDTH:0.558388
G1 X81.852 Y120.935 E.00305
;WIDTH:0.516777
G1 X81.918 Y120.898 E.0028
;WIDTH:0.475166
G1 X81.983 Y120.862 E.00255
;WIDTH:0.433555
G2 X82.142 Y120.746 I-.208 J-.452 E.00611
;WIDTH:0.475166
G1 X82.236 Y120.666 E.0042
;WIDTH:0.516777
G1 X82.33 Y120.587 E.0046
;WIDTH:0.558388
G1 X82.423 Y120.507 E.00501
;WIDTH:0.599999
G1 X82.517 Y120.427 E.00541
G1 X82.557 Y120.171 E.0114
G1 X82.557 Y116.763 E.15001
G1 X82.477 Y116.422 E.01541
G1 X82.203 Y116.096 E.01873
;WIDTH:0.622713
G1 X81.721 Y115.932 E.02331
G1 X76.518 Y115.932 E.2383
G1 X76.518 Y115.352 E.02655
G1 X81.721 Y115.352 E.2383
G1 X82.203 Y115.188 E.02331
M73 P3 R49
;WIDTH:0.599999
M73 P3 R49
G1 X82.403 Y114.988 E.01244
G1 X82.509 Y114.784 E.01011
G1 X82.557 Y114.454 E.01465
G1 X82.557 Y111.096 E.14778
G1 X82.477 Y110.755 E.0154
G1 X82.204 Y110.429 E.01872
G1 X81.721 Y110.277 E.02225
;WIDTH:0.597714
G1 X76.506 Y110.277 E.22857
G1 X76.506 Y109.723 E.02431
G1 X81.721 Y109.723 E.22857
;WIDTH:0.599999
G1 X82.204 Y109.571 E.02225
G1 X82.404 Y109.371 E.01244
G1 X82.509 Y109.167 E.01011
G1 X82.557 Y108.888 E.01245
G1 X82.557 Y105.365 E.15505
G1 X82.397 Y105.004 E.01738
G1 X82.195 Y104.807 E.01243
;WIDTH:0.622713
G1 X81.721 Y104.648 E.02285
G1 X76.518 Y104.648 E.2383
G1 X76.518 Y104.068 E.02655
G1 X81.721 Y104.068 E.2383
G1 X82.195 Y103.91 E.02285
;WIDTH:0.599999
G1 X82.397 Y103.713 E.01243
G1 X82.507 Y103.507 E.01027
G1 X82.557 Y103.221 E.01277
G1 X82.557 Y99.829 E.14931
G1 X82.508 Y99.546 E.01262
G1 X82.333 Y99.259 E.01481
G1 X82.068 Y99.068 E.01435
G1 X81.721 Y98.993 E.01561
G1 X76.507 Y98.993 E.22946
G1 X76.507 Y93.735 E.2314
G1 X76.397 Y93.417 E.01481
G1 X76.183 Y93.17 E.01435
G1 X75.901 Y93.028 E.01388
G1 X75.599 Y92.999 E.01338
G1 X75.298 Y93.084 E.01376
G1 X69.857 Y95.804 E.26768
G1 X69.857 Y86.09 E.42749
G1 X75.446 Y88.578 E.26923
G1 X75.707 Y88.599 E.0115
G1 X76.063 Y88.502 E.01623
G1 X76.267 Y88.35 E.01124
G1 X76.434 Y88.105 E.01303
G1 X76.507 Y87.764 E.01535
G1 X76.507 Y71.007 E.73739
G1 X84.621 Y71.007 E.35703
G1 X81.725 Y76.798 E.2849
G1 X81.637 Y77.153 E.01608
G1 X81.71 Y77.513 E.01616
G1 X81.906 Y77.786 E.01481
G1 X82.147 Y77.941 E.01262
G1 X82.473 Y78.007 E.01461
G1 X97.014 Y78.007 E.6399
G1 X97.327 Y77.946 E.01401
G1 X97.608 Y77.759 E.0149
G1 X97.793 Y77.475 E.01488
G1 X97.85 Y77.17 E.01366
G1 X97.777 Y76.832 E.01523
G1 X95.184 Y71.007 E.28057
G1 X127.014 Y71.007 E1.40069
G1 X127.356 Y70.934 E.01537
G1 X127.637 Y70.728 E.01534
G1 X127.801 Y70.453 E.01409
G1 X127.846 Y70.099 E.01573
G1 X127.777 Y69.832 E.01214
G1 X125.34 Y64.357 E.26371
G1 X135.054 Y64.357 E.42748
G1 X132.334 Y69.798 E.26768
G1 X132.249 Y70.099 E.01376
G1 X132.295 Y70.453 E.01573
G1 X132.458 Y70.728 E.01409
G1 X132.74 Y70.934 E.01534
G1 X133.081 Y71.007 E.01537
G1 X143.493 Y71.007 E.45817
G1 X143.493 Y85.566 E.64067
G1 X137.668 Y82.973 E.28057
G1 X137.355 Y82.901 E.01414
G1 X137.002 Y82.967 E.01581
G1 X136.731 Y83.151 E.01442
G1 X136.568 Y83.389 E.01268
G1 X136.493 Y83.736 E.01562
G1 X136.493 Y98.277 E.6399
G1 X136.534 Y98.535 E.01149
G1 X136.719 Y98.849 E.01605
G1 X136.949 Y99.022 E.01263
G1 X137.195 Y99.102 E.0114
G1 X137.315 Y99.054 E.00569
;WIDTH:0.558388
G1 X137.435 Y99.006 E.00527
;WIDTH:0.516777
G1 X137.555 Y98.958 E.00484
;WIDTH:0.475166
G1 X137.675 Y98.91 E.00441
;WIDTH:0.433555
G3 X137.881 Y98.842 I.319 J.622 E.00671
;WIDTH:0.475166
G1 X137.967 Y98.823 E.00301
;WIDTH:0.516777
G1 X138.053 Y98.803 E.0033
;WIDTH:0.558388
G1 X138.139 Y98.783 E.00359
;WIDTH:0.599999
G1 X138.224 Y98.764 E.00387
G1 X138.417 Y98.668 E.00946
G1 E-1.6 F2400
;WIPE_START
G1 F9000
G1 X140.206 Y97.773
;WIPE_END
G1 X137.284 Y98.552 Z.6
G1 Z.2
G1 E1.6 F1800
;TYPE:Outer wall
G1 F600
G1 X137.453 Y98.527 E.00751
G1 X144.05 Y95.228 E.32458
G1 X144.05 Y99.55 E.19019
G1 X138.279 Y99.55 E.25397
G1 X138.154 Y99.579 E.00563
G1 X138.013 Y99.743 E.0095
G1 X138 Y99.829 E.0038
G2 X138.006 Y103.277 I281.38 J1.272 E.15174
G1 X138.118 Y103.449 E.00905
G1 X138.279 Y103.5 E.00742
